; generated by Slic3r 1.3.1-dev (Build 48d5b11) on 2020-02-12 at 19:11:35

; Printer Config Notes: 
; ""
; 
; external perimeters extrusion width = 0.44mm (1.19mm^3/s)
; perimeters extrusion width = 0.40mm (2.14mm^3/s)
; infill extrusion width = 0.40mm (4.28mm^3/s)
; solid infill extrusion width = 0.40mm (1.43mm^3/s)
; top infill extrusion width = 0.56mm (1.55mm^3/s)

M107
M190 S75 ; set bed temperature and wait for it to be reached
M104 S230 ; set temperature
G28 X0 Y0  ;move X/Y to min endstops
G28 Z0     ;move Z to min endstops
G1 Z15.0 F3600 ;move the platform down 15mm
;Put printing message on LCD screen
M117 Printing...

; Filament gcode

M109 S230 ; set temperature and wait for it to be reached
G21 ; set units to millimeters
G90 ; use absolute coordinates
M82 ; use absolute distances for extrusion
G92 E0
G92 E0
G1 Z0.350 F4800.000
G1 E-3.00000 F2400.00000
G92 E0
G1 X125.152 Y145.308 F4800.000
G1 E3.00000 F2400.00000
G1 F1800.000
G1 X125.823 Y144.735 E3.07544
G1 X126.947 Y143.918 E3.19421
G1 X127.700 Y143.457 E3.26965
G1 X132.607 Y140.957 E3.74038
G1 X133.422 Y140.619 E3.81582
G1 X134.744 Y140.190 E3.93459
G1 X135.602 Y139.984 E4.01004
G1 X141.041 Y139.122 E4.48076
G1 X141.921 Y139.053 E4.55621
G1 X143.311 Y139.053 E4.67497
G1 X144.191 Y139.122 E4.75042
G1 X149.630 Y139.984 E5.22114
G1 X150.488 Y140.190 E5.29659
G1 X151.810 Y140.619 E5.41536
G1 X152.625 Y140.957 E5.49080
G1 X157.532 Y143.457 E5.96153
G1 X158.285 Y143.918 E6.03697
G1 X159.409 Y144.735 E6.15574
G1 X160.080 Y145.308 E6.23118
G1 X163.975 Y149.202 E6.70191
G1 X164.548 Y149.874 E6.77735
G1 X165.365 Y150.998 E6.89612
G1 X165.826 Y151.750 E6.97156
G1 X168.326 Y156.657 E7.44229
G1 X168.664 Y157.473 E7.51773
G1 X169.093 Y158.794 E7.63650
G1 X169.299 Y159.653 E7.71194
G1 X170.161 Y165.092 E8.18267
G1 X170.230 Y165.972 E8.25811
G1 X170.230 Y167.361 E8.37688
G1 X170.161 Y168.241 E8.45232
G1 X169.299 Y173.681 E8.92305
G1 X169.093 Y174.539 E8.99849
G1 X168.664 Y175.861 E9.11726
G1 X168.326 Y176.676 E9.19271
G1 X165.826 Y181.583 E9.66343
G1 X165.365 Y182.336 E9.73888
G1 X164.548 Y183.460 E9.85764
G1 X163.975 Y184.131 E9.93309
G1 X160.080 Y188.025 E10.40381
G1 X159.409 Y188.598 E10.47926
G1 X158.285 Y189.415 E10.59803
G1 X157.532 Y189.876 E10.67347
G1 X152.625 Y192.377 E11.14420
G1 X151.810 Y192.714 E11.21964
G1 X150.488 Y193.144 E11.33841
G1 X149.630 Y193.350 E11.41385
G1 X144.191 Y194.211 E11.88458
G1 X143.311 Y194.281 E11.96002
G1 X141.921 Y194.281 E12.07879
G1 X141.041 Y194.211 E12.15423
G1 X135.602 Y193.350 E12.62496
G1 X134.744 Y193.144 E12.70040
G1 X133.422 Y192.714 E12.81917
G1 X132.607 Y192.377 E12.89461
G1 X127.700 Y189.876 E13.36534
G1 X126.947 Y189.415 E13.44078
G1 X125.823 Y188.598 E13.55955
G1 X125.152 Y188.025 E13.63499
G1 X121.258 Y184.131 E14.10572
G1 X120.684 Y183.460 E14.18116
G1 X119.868 Y182.336 E14.29993
G1 X119.406 Y181.583 E14.37538
G1 X116.906 Y176.676 E14.84610
G1 X116.568 Y175.861 E14.92155
G1 X116.139 Y174.539 E15.04031
G1 X115.933 Y173.681 E15.11576
G1 X115.071 Y168.241 E15.58648
G1 X115.002 Y167.361 E15.66193
G1 X115.002 Y165.972 E15.78070
G1 X115.071 Y165.092 E15.85614
G1 X115.933 Y159.653 E16.32687
G1 X116.139 Y158.794 E16.40231
G1 X116.568 Y157.473 E16.52108
G1 X116.906 Y156.657 E16.59652
G1 X119.406 Y151.750 E17.06725
G1 X119.868 Y150.998 E17.14269
G1 X120.684 Y149.874 E17.26146
G1 X121.258 Y149.202 E17.33690
G1 X125.109 Y145.351 E17.80250
G1 E14.80250 F2400.00000
G92 E0
G1 X144.964 Y178.272 F4800.000
G1 E3.00000 F2400.00000
G1 F1800.000
G1 X144.398 Y178.773 E3.06463
G1 X143.728 Y179.124 E3.12926
G1 X142.994 Y179.305 E3.19389
G1 X142.238 Y179.305 E3.25852
G1 X141.504 Y179.124 E3.32315
G1 X140.834 Y178.773 E3.38778
G1 X140.268 Y178.272 E3.45241
G1 X139.839 Y177.649 E3.51704
G1 X139.571 Y176.942 E3.58167
G1 X139.480 Y176.192 E3.64630
G1 X139.571 Y175.441 E3.71093
G1 X139.839 Y174.734 E3.77556
G1 X140.268 Y174.112 E3.84018
G1 X140.834 Y173.610 E3.90481
G1 X141.504 Y173.259 E3.96944
G1 X142.238 Y173.078 E4.03407
G1 X142.994 Y173.078 E4.09870
G1 X143.728 Y173.259 E4.16333
G1 X144.398 Y173.610 E4.22796
G1 X144.964 Y174.112 E4.29259
G1 X145.393 Y174.734 E4.35722
G1 X145.661 Y175.441 E4.42185
G1 X145.753 Y176.192 E4.48648
G1 X145.661 Y176.942 E4.55111
G1 X145.393 Y177.649 E4.61574
G1 X144.998 Y178.222 E4.67524
G1 X144.493 Y177.854 F4800.000
G1 F1800.000
G1 X144.040 Y178.255 E4.72690
G1 X143.505 Y178.536 E4.77856
G1 X142.918 Y178.680 E4.83022
G1 X142.314 Y178.680 E4.88188
G1 X141.727 Y178.536 E4.93353
G1 X141.192 Y178.255 E4.98519
G1 X140.739 Y177.854 E5.03685
G1 X140.396 Y177.357 E5.08851
G1 X140.182 Y176.792 E5.14017
G1 X140.109 Y176.192 E5.19183
G1 X140.182 Y175.592 E5.24349
G1 X140.396 Y175.027 E5.29515
G1 X140.739 Y174.529 E5.34681
G1 X141.192 Y174.128 E5.39846
G1 X141.727 Y173.848 E5.45012
G1 X142.314 Y173.703 E5.50178
G1 X142.918 Y173.703 E5.55344
G1 X143.505 Y173.848 E5.60510
G1 X144.040 Y174.128 E5.65676
G1 X144.493 Y174.529 E5.70842
G1 X144.836 Y175.027 E5.76008
G1 X145.050 Y175.592 E5.81174
G1 X145.123 Y176.192 E5.86339
G1 X145.050 Y176.792 E5.91505
G1 X144.836 Y177.357 E5.96671
G1 X144.527 Y177.805 E6.01324
G1 X144.021 Y177.437 F4800.000
G1 F1800.000
G1 X143.683 Y177.737 E6.05193
G1 X143.282 Y177.947 E6.09062
G1 X142.842 Y178.056 E6.12931
G1 X142.390 Y178.056 E6.16800
G1 X141.950 Y177.947 E6.20668
G1 X141.549 Y177.737 E6.24537
G1 X141.211 Y177.437 E6.28406
G1 X140.954 Y177.064 E6.32275
G1 X140.793 Y176.641 E6.36144
G1 X140.738 Y176.192 E6.40012
G1 X140.793 Y175.742 E6.43881
G1 X140.954 Y175.319 E6.47750
G1 X141.211 Y174.947 E6.51619
G1 X141.549 Y174.646 E6.55488
G1 X141.950 Y174.436 E6.59357
G1 X142.390 Y174.328 E6.63225
G1 X142.842 Y174.328 E6.67094
G1 X143.282 Y174.436 E6.70963
G1 X143.683 Y174.646 E6.74832
G1 X144.021 Y174.947 E6.78701
G1 X144.279 Y175.319 E6.82569
G1 X144.439 Y175.742 E6.86438
G1 X144.494 Y176.192 E6.90307
G1 X144.439 Y176.641 E6.94176
G1 X144.279 Y177.064 E6.98045
G1 X144.055 Y177.387 E7.01401
G1 X144.021 Y177.437 F4800.000
G1 E4.01401 F2400.00000
G92 E0
G1 X144.498 Y177.944 F4800.000
G1 X145.699 Y180.232 F4800.000
G1 X143.994 Y180.797 F4800.000
G1 X142.616 Y181.031 F4800.000
G1 X140.577 Y180.621 F4800.000
G1 X138.402 Y179.635 F4800.000
G1 X136.279 Y177.551 F4800.000
G1 X137.557 Y175.520 F4800.000
G1 X136.313 Y173.149 F4800.000
G1 X137.148 Y172.886 F4800.000
G1 E3.00000 F2400.00000
G1 F1800.000
G1 X136.719 Y173.509 E3.06463
G1 X136.153 Y174.010 E3.12926
G1 X135.483 Y174.361 E3.19389
G1 X134.749 Y174.542 E3.25852
G1 X133.993 Y174.542 E3.32315
G1 X133.259 Y174.361 E3.38778
G1 X132.589 Y174.010 E3.45241
G1 X132.023 Y173.509 E3.51704
G1 X131.594 Y172.886 E3.58167
G1 X131.326 Y172.179 E3.64630
G1 X131.235 Y171.429 E3.71093
G1 X131.326 Y170.678 E3.77555
G1 X131.594 Y169.971 E3.84018
G1 X132.023 Y169.349 E3.90481
G1 X132.589 Y168.847 E3.96944
G1 X133.259 Y168.496 E4.03407
G1 X133.993 Y168.315 E4.09870
G1 X134.749 Y168.315 E4.16333
G1 X135.483 Y168.496 E4.22796
G1 X136.153 Y168.847 E4.29259
G1 X136.719 Y169.349 E4.35722
G1 X137.148 Y169.971 E4.42185
G1 X137.416 Y170.678 E4.48648
G1 X137.508 Y171.429 E4.55111
G1 X137.416 Y172.179 E4.61574
G1 X137.170 Y172.830 E4.67524
G1 X136.591 Y172.594 F4800.000
G1 F1800.000
G1 X136.248 Y173.091 E4.72690
G1 X135.795 Y173.492 E4.77856
G1 X135.260 Y173.773 E4.83022
G1 X134.673 Y173.917 E4.88188
G1 X134.069 Y173.917 E4.93354
G1 X133.482 Y173.773 E4.98519
G1 X132.947 Y173.492 E5.03685
G1 X132.494 Y173.091 E5.08851
G1 X132.151 Y172.594 E5.14017
G1 X131.937 Y172.029 E5.19183
G1 X131.864 Y171.429 E5.24349
G1 X131.937 Y170.829 E5.29515
G1 X132.151 Y170.264 E5.34681
G1 X132.494 Y169.766 E5.39846
G1 X132.947 Y169.365 E5.45012
G1 X133.482 Y169.085 E5.50178
G1 X134.069 Y168.940 E5.55344
G1 X134.673 Y168.940 E5.60510
G1 X135.260 Y169.085 E5.65676
G1 X135.795 Y169.365 E5.70842
G1 X136.248 Y169.766 E5.76008
G1 X136.591 Y170.264 E5.81174
G1 X136.805 Y170.829 E5.86339
G1 X136.878 Y171.429 E5.91505
G1 X136.805 Y172.029 E5.96671
G1 X136.612 Y172.538 E6.01324
G1 X136.034 Y172.301 F4800.000
G1 F1800.000
G1 X135.776 Y172.674 E6.05193
G1 X135.438 Y172.974 E6.09062
G1 X135.037 Y173.184 E6.12931
G1 X134.597 Y173.293 E6.16800
G1 X134.145 Y173.293 E6.20668
G1 X133.705 Y173.184 E6.24537
G1 X133.304 Y172.974 E6.28406
G1 X132.966 Y172.674 E6.32275
G1 X132.709 Y172.301 E6.36144
G1 X132.548 Y171.878 E6.40012
G1 X132.493 Y171.429 E6.43881
G1 X132.548 Y170.979 E6.47750
G1 X132.709 Y170.556 E6.51619
G1 X132.966 Y170.184 E6.55488
G1 X133.304 Y169.883 E6.59357
G1 X133.705 Y169.673 E6.63225
G1 X134.145 Y169.565 E6.67094
G1 X134.597 Y169.565 E6.70963
G1 X135.037 Y169.673 E6.74832
G1 X135.438 Y169.883 E6.78701
G1 X135.776 Y170.184 E6.82569
G1 X136.034 Y170.556 E6.86438
G1 X136.194 Y170.979 E6.90307
G1 X136.249 Y171.429 E6.94176
G1 X136.194 Y171.878 E6.98045
G1 X136.055 Y172.245 E7.01401
G1 X136.034 Y172.301 F4800.000
G1 E4.01401 F2400.00000
G92 E0
G1 X134.749 Y165.018 F4800.000
G1 E3.00000 F2400.00000
G1 F1800.000
G1 X133.993 Y165.018 E3.06463
G1 X133.259 Y164.837 E3.12926
G1 X132.589 Y164.486 E3.19389
G1 X132.023 Y163.985 E3.25852
G1 X131.594 Y163.362 E3.32315
G1 X131.326 Y162.655 E3.38778
G1 X131.235 Y161.905 E3.45241
G1 X131.326 Y161.154 E3.51704
G1 X131.594 Y160.447 E3.58167
G1 X132.023 Y159.825 E3.64630
G1 X132.589 Y159.323 E3.71092
G1 X133.259 Y158.972 E3.77555
G1 X133.993 Y158.791 E3.84018
G1 X134.749 Y158.791 E3.90481
G1 X135.483 Y158.972 E3.96944
G1 X136.153 Y159.323 E4.03407
G1 X136.719 Y159.825 E4.09870
G1 X137.148 Y160.447 E4.16333
G1 X137.416 Y161.154 E4.22796
G1 X137.508 Y161.905 E4.29259
G1 X137.416 Y162.655 E4.35722
G1 X137.148 Y163.362 E4.42185
G1 X136.719 Y163.985 E4.48648
G1 X136.153 Y164.486 E4.55111
G1 X135.483 Y164.837 E4.61574
G1 X134.807 Y165.004 E4.67524
G1 X134.673 Y164.393 F4800.000
G1 F1800.000
G1 X134.069 Y164.393 E4.72690
G1 X133.482 Y164.249 E4.77856
G1 X132.947 Y163.968 E4.83022
G1 X132.494 Y163.567 E4.88188
G1 X132.151 Y163.070 E4.93353
G1 X131.937 Y162.505 E4.98519
G1 X131.864 Y161.905 E5.03685
G1 X131.937 Y161.305 E5.08851
G1 X132.151 Y160.740 E5.14017
G1 X132.494 Y160.242 E5.19183
G1 X132.947 Y159.841 E5.24349
G1 X133.482 Y159.561 E5.29515
G1 X134.069 Y159.416 E5.34681
G1 X134.673 Y159.416 E5.39846
G1 X135.260 Y159.561 E5.45012
G1 X135.795 Y159.841 E5.50178
G1 X136.248 Y160.242 E5.55344
G1 X136.591 Y160.740 E5.60510
G1 X136.805 Y161.305 E5.65676
G1 X136.878 Y161.905 E5.70842
G1 X136.805 Y162.505 E5.76008
G1 X136.591 Y163.070 E5.81174
G1 X136.248 Y163.567 E5.86339
G1 X135.795 Y163.968 E5.91505
G1 X135.260 Y164.249 E5.96671
G1 X134.731 Y164.379 E6.01324
G1 X134.597 Y163.769 F4800.000
G1 F1800.000
G1 X134.145 Y163.769 E6.05193
G1 X133.705 Y163.660 E6.09062
G1 X133.304 Y163.450 E6.12931
G1 X132.966 Y163.150 E6.16800
G1 X132.709 Y162.777 E6.20668
G1 X132.548 Y162.354 E6.24537
G1 X132.493 Y161.905 E6.28406
G1 X132.548 Y161.455 E6.32275
G1 X132.709 Y161.032 E6.36144
G1 X132.966 Y160.660 E6.40012
G1 X133.304 Y160.359 E6.43881
G1 X133.705 Y160.149 E6.47750
G1 X134.145 Y160.041 E6.51619
G1 X134.597 Y160.041 E6.55488
G1 X135.037 Y160.149 E6.59357
G1 X135.438 Y160.359 E6.63225
G1 X135.776 Y160.660 E6.67094
G1 X136.034 Y161.032 E6.70963
G1 X136.194 Y161.455 E6.74832
G1 X136.249 Y161.905 E6.78701
G1 X136.194 Y162.354 E6.82569
G1 X136.034 Y162.777 E6.86438
G1 X135.776 Y163.150 E6.90307
G1 X135.438 Y163.450 E6.94176
G1 X135.037 Y163.660 E6.98045
G1 X134.656 Y163.754 E7.01401
G1 X134.597 Y163.769 F4800.000
G1 E4.01401 F2400.00000
G92 E0
G1 X137.267 Y164.781 F4800.000
G1 E3.00000 F2400.00000
G1 F1800.000
G1 X137.559 Y164.012 E3.07027
G1 X138.341 Y162.879 E3.18796
G1 X139.372 Y161.966 E3.30565
G1 X140.591 Y161.326 E3.42334
G1 X141.928 Y160.997 E3.54103
G1 X143.304 Y160.997 E3.65871
G1 X144.641 Y161.326 E3.77640
G1 X145.861 Y161.966 E3.89409
G1 X146.889 Y162.877 E4.01149
G1 X147.666 Y163.993 E4.12775
G1 X148.162 Y165.300 E4.24720
G1 X148.328 Y166.667 E4.36489
G1 X148.162 Y168.034 E4.48258
G1 X147.673 Y169.321 E4.60027
G1 X146.891 Y170.454 E4.71795
G1 X145.861 Y171.367 E4.83564
G1 X144.641 Y172.007 E4.95333
G1 X143.304 Y172.337 E5.07102
G1 X141.928 Y172.337 E5.18871
G1 X140.591 Y172.007 E5.30640
G1 X139.372 Y171.367 E5.42409
G1 X138.343 Y170.456 E5.54148
G1 X137.566 Y169.340 E5.65775
G1 X137.070 Y168.034 E5.77720
G1 X136.905 Y166.667 E5.89488
G1 X137.070 Y165.300 E6.01257
G1 X137.246 Y164.837 E6.05486
G1 X137.851 Y165.003 F4800.000
G1 F1800.000
G1 X138.116 Y164.305 E6.11865
G1 X138.812 Y163.297 E6.22337
G1 X139.729 Y162.484 E6.32808
G1 X140.814 Y161.915 E6.43280
G1 X142.003 Y161.622 E6.53752
G1 X143.229 Y161.622 E6.64224
G1 X144.418 Y161.915 E6.74696
G1 X145.503 Y162.484 E6.85167
G1 X146.418 Y163.295 E6.95621
G1 X147.109 Y164.287 E7.05951
G1 X147.550 Y165.450 E7.16587
G1 X147.698 Y166.667 E7.27059
G1 X147.550 Y167.883 E7.37531
G1 X147.116 Y169.028 E7.48002
G1 X146.420 Y170.037 E7.58474
G1 X145.503 Y170.849 E7.68946
G1 X144.418 Y171.418 E7.79418
G1 X143.229 Y171.712 E7.89890
G1 X142.003 Y171.712 E8.00361
G1 X140.814 Y171.418 E8.10833
G1 X139.729 Y170.849 E8.21305
G1 X138.814 Y170.038 E8.31759
G1 X138.123 Y169.046 E8.42089
G1 X137.682 Y167.883 E8.52725
G1 X137.534 Y166.667 E8.63197
G1 X137.682 Y165.450 E8.73668
G1 X137.830 Y165.059 E8.77249
G1 X138.436 Y165.224 F4800.000
G1 F1800.000
G1 X138.673 Y164.597 E8.82979
G1 X139.283 Y163.714 E8.92153
G1 X140.087 Y163.002 E9.01328
G1 X141.037 Y162.503 E9.10503
G1 X142.079 Y162.247 E9.19678
G1 X143.153 Y162.247 E9.28852
G1 X144.195 Y162.503 E9.38027
G1 X145.145 Y163.002 E9.47202
G1 X145.948 Y163.714 E9.56370
G1 X146.552 Y164.581 E9.65403
G1 X146.939 Y165.601 E9.74730
G1 X147.069 Y166.667 E9.83905
G1 X146.939 Y167.732 E9.93080
G1 X146.559 Y168.736 E10.02254
G1 X145.949 Y169.619 E10.11429
G1 X145.145 Y170.331 E10.20604
G1 X144.195 Y170.830 E10.29779
G1 X143.153 Y171.087 E10.38953
G1 X142.079 Y171.087 E10.48128
G1 X141.037 Y170.830 E10.57303
G1 X140.087 Y170.331 E10.66478
G1 X139.284 Y169.620 E10.75646
G1 X138.680 Y168.753 E10.84678
G1 X138.293 Y167.732 E10.94006
G1 X138.163 Y166.667 E11.03181
G1 X138.293 Y165.601 E11.12355
G1 X138.414 Y165.280 E11.15287
G1 X138.165 Y164.930 F4800.000
G1 E8.15287 F2400.00000
G92 E0
G1 X141.220 Y159.920 F4800.000
G1 E3.00000 F2400.00000
G1 F1800.000
G1 X140.834 Y159.718 E3.03719
G1 X140.268 Y159.217 E3.10182
G1 X139.839 Y158.594 E3.16645
G1 X139.571 Y157.887 E3.23108
G1 X139.480 Y157.137 E3.29571
G1 X139.571 Y156.386 E3.36034
G1 X139.839 Y155.679 E3.42497
G1 X140.268 Y155.057 E3.48960
G1 X140.834 Y154.555 E3.55423
G1 X141.504 Y154.204 E3.61886
G1 X142.238 Y154.023 E3.68349
G1 X142.994 Y154.023 E3.74812
G1 X143.728 Y154.204 E3.81275
G1 X144.398 Y154.555 E3.87738
G1 X144.964 Y155.057 E3.94201
G1 X145.393 Y155.679 E4.00664
G1 X145.661 Y156.386 E4.07127
G1 X145.753 Y157.137 E4.13589
G1 X145.661 Y157.887 E4.20052
G1 X145.393 Y158.594 E4.26515
G1 X144.964 Y159.217 E4.32978
G1 X144.398 Y159.718 E4.39441
G1 X143.728 Y160.069 E4.45904
G1 X142.994 Y160.250 E4.52367
G1 X142.238 Y160.250 E4.58830
G1 X141.504 Y160.069 E4.65293
G1 X141.273 Y159.948 E4.67524
G1 X141.510 Y159.367 F4800.000
G1 F1800.000
G1 X141.192 Y159.200 E4.70595
G1 X140.739 Y158.799 E4.75761
G1 X140.396 Y158.302 E4.80926
G1 X140.182 Y157.737 E4.86092
G1 X140.109 Y157.137 E4.91258
G1 X140.182 Y156.537 E4.96424
G1 X140.396 Y155.972 E5.01590
G1 X140.739 Y155.474 E5.06756
G1 X141.192 Y155.073 E5.11922
G1 X141.727 Y154.793 E5.17088
G1 X142.314 Y154.648 E5.22254
G1 X142.918 Y154.648 E5.27419
G1 X143.505 Y154.793 E5.32585
G1 X144.040 Y155.073 E5.37751
G1 X144.493 Y155.474 E5.42917
G1 X144.836 Y155.972 E5.48083
G1 X145.050 Y156.537 E5.53249
G1 X145.123 Y157.137 E5.58415
G1 X145.050 Y157.737 E5.63581
G1 X144.836 Y158.302 E5.68747
G1 X144.493 Y158.799 E5.73912
G1 X144.040 Y159.200 E5.79078
G1 X143.505 Y159.481 E5.84244
G1 X142.918 Y159.625 E5.89410
G1 X142.314 Y159.625 E5.94576
G1 X141.727 Y159.481 E5.99742
G1 X141.563 Y159.395 E6.01324
G1 X141.800 Y158.814 F4800.000
G1 F1800.000
G1 X141.549 Y158.682 E6.03746
G1 X141.211 Y158.382 E6.07615
G1 X140.954 Y158.009 E6.11484
G1 X140.793 Y157.586 E6.15353
G1 X140.738 Y157.137 E6.19222
G1 X140.793 Y156.687 E6.23090
