; generated by Slic3r 1.3.1-dev (Build 48d5b11) on 2019-08-22 at 04:06:56

; Printer Config Notes: 
; ""
; 
; external perimeters extrusion width = 0.44mm (1.19mm^3/s)
; perimeters extrusion width = 0.40mm (2.14mm^3/s)
; infill extrusion width = 0.40mm (4.28mm^3/s)
; solid infill extrusion width = 0.40mm (1.43mm^3/s)
; top infill extrusion width = 0.56mm (1.55mm^3/s)

M107
M190 S75 ; set bed temperature and wait for it to be reached
M104 S230 ; set temperature
G28 X0 Y0  ;move X/Y to min endstops
G28 Z0     ;move Z to min endstops
G1 Z15.0 F3600 ;move the platform down 15mm
;Put printing message on LCD screen
M117 Printing...

; Filament gcode

M109 S230 ; set temperature and wait for it to be reached
G21 ; set units to millimeters
G90 ; use absolute coordinates
M82 ; use absolute distances for extrusion
G92 E0
G92 E0
G1 Z0.350 F4800.000
G1 E-2.00000 F2400.00000
G92 E0
G1 X72.816 Y137.351 F4800.000
G1 E2.00000 F2400.00000
G1 F1800.000
G1 X75.201 Y136.820 E2.20878
G1 X119.417 Y136.820 E5.98810
G1 X171.273 Y137.200 E10.42060
G1 X173.345 Y137.612 E10.60110
G1 X175.118 Y138.758 E10.78161
G1 X176.344 Y140.478 E10.96212
G1 X176.826 Y142.233 E11.11767
G1 X179.273 Y165.355 E13.10506
G1 X182.580 Y210.175 E16.94640
G1 X182.595 Y210.589 E16.98177
G1 X182.595 Y224.089 E18.13567
G1 X182.199 Y226.163 E18.31618
G1 X181.065 Y227.945 E18.49668
G1 X180.239 Y228.666 E18.59044
G1 X177.438 Y230.666 E18.88461
G1 X175.520 Y231.549 E19.06512
G1 X174.291 Y231.712 E19.17109
G1 X121.422 Y232.851 E23.69107
G1 X115.902 Y232.853 E24.16284
G1 X115.149 Y232.802 E24.22736
G1 X100.348 Y230.802 E25.50395
G1 X98.508 Y230.219 E25.66890
G1 X77.333 Y219.219 E27.70845
G1 X75.675 Y217.911 E27.88896
G1 X74.616 Y216.084 E28.06947
G1 X74.355 Y215.000 E28.16480
G1 X71.232 Y192.468 E30.10907
G1 X71.184 Y191.935 E30.15481
G1 X70.171 Y168.138 E32.19071
G1 X69.578 Y145.090 E34.16136
G1 X69.576 Y142.445 E34.38742
G1 X69.972 Y140.371 E34.56793
G1 X71.106 Y138.589 E34.74843
G1 X72.768 Y137.386 E34.92381
G1 E32.92381 F2400.00000
G92 E0
G1 X114.975 Y156.345 F4800.000
G1 E2.00000 F2400.00000
G1 F1800.000
G1 X112.776 Y156.345 E2.18793
G1 X112.776 Y154.045 E2.38456
G1 X114.975 Y154.045 E2.57249
G1 X114.975 Y156.285 E2.76398
G1 E0.76398 F2400.00000
G92 E0
G1 X101.077 Y154.036 F4800.000
G1 E2.00000 F2400.00000
G1 F1800.000
G1 X101.022 Y154.345 E2.02688
G1 X97.975 Y154.345 E2.28728
G1 X97.975 Y151.261 E2.55089
G1 X98.261 Y151.191 E2.57602
G1 X98.755 Y152.137 E2.66725
G1 X99.692 Y153.179 E2.78705
G1 X100.826 Y153.944 E2.90392
G1 X101.020 Y154.015 E2.92160
G1 E0.92160 F2400.00000
G92 E0
G1 X100.829 Y154.152 F4800.000
G1 X98.828 Y153.493 F4800.000
G1 X98.452 Y152.512 F4800.000
G1 X97.890 Y149.555 F4800.000
G1 X98.048 Y146.989 F4800.000
G1 X98.260 Y146.703 F4800.000
G1 E2.00000 F2400.00000
G1 F1800.000
G1 X97.975 Y146.632 E2.02504
G1 X97.975 Y144.045 E2.24615
G1 X100.205 Y144.045 E2.43675
G1 X100.286 Y144.310 E2.46046
G1 X99.692 Y144.711 E2.52171
G1 X98.778 Y145.727 E2.63857
G1 X98.288 Y146.650 E2.72784
G1 E0.72784 F2400.00000
G92 E0
G1 X97.350 Y143.970 F4800.000
G1 E2.00000 F2400.00000
G1 F1800.000
G1 X76.175 Y143.970 E3.80991
G1 X76.175 Y143.420 E3.85694
G1 X118.401 Y143.420 E7.46609
G1 X118.401 Y144.470 E7.55585
G1 X105.501 Y144.470 E8.65842
G1 X104.662 Y144.132 E8.73579
G1 X103.459 Y143.964 E8.83954
G1 X102.252 Y144.091 E8.94330
G1 X101.112 Y144.507 E9.04706
G1 X100.106 Y145.186 E9.15081
G1 X99.294 Y146.088 E9.25457
G1 X98.724 Y147.160 E9.35833
G1 X98.430 Y148.338 E9.46208
G1 X98.430 Y149.552 E9.56584
G1 X98.723 Y150.726 E9.66929
G1 X99.272 Y151.778 E9.77069
G1 X100.106 Y152.704 E9.87718
G1 X101.112 Y153.383 E9.98094
G1 X102.252 Y153.799 E10.08470
G1 X103.459 Y153.927 E10.18845
G1 X104.662 Y153.758 E10.29221
G1 X105.501 Y153.420 E10.36957
G1 X118.401 Y153.420 E11.47214
G1 X118.401 Y154.970 E11.60465
G1 X115.600 Y154.970 E11.84405
G1 X115.600 Y156.970 E12.01500
G1 X112.151 Y156.970 E12.30975
G1 X112.151 Y154.970 E12.48070
G1 X97.350 Y154.970 E13.74579
G1 X97.350 Y144.030 E14.68087
G1 X96.726 Y144.595 F4800.000
G1 F1800.000
G1 X75.551 Y144.595 E16.49078
G1 X75.551 Y142.795 E16.64463
G1 X119.026 Y142.795 E20.36060
G1 X119.026 Y145.095 E20.55719
G1 X105.380 Y145.095 E21.72354
G1 X104.499 Y144.740 E21.80471
G1 X103.449 Y144.593 E21.89535
G1 X102.394 Y144.705 E21.98600
G1 X101.398 Y145.068 E22.07664
G1 X100.519 Y145.661 E22.16729
G1 X99.809 Y146.449 E22.25793
G1 X99.312 Y147.386 E22.34858
G1 X99.055 Y148.415 E22.43922
G1 X99.055 Y149.475 E22.52987
G1 X99.311 Y150.503 E22.62040
G1 X99.790 Y151.419 E22.70870
G1 X100.519 Y152.229 E22.80188
G1 X101.398 Y152.823 E22.89252
G1 X102.394 Y153.186 E22.98317
G1 X103.449 Y153.297 E23.07381
G1 X104.499 Y153.150 E23.16446
G1 X105.380 Y152.795 E23.24563
G1 X119.026 Y152.795 E24.41197
G1 X119.026 Y155.595 E24.65130
G1 X116.225 Y155.595 E24.89070
G1 X116.225 Y157.595 E25.06165
G1 X111.526 Y157.595 E25.46322
G1 X111.526 Y155.595 E25.63417
G1 X96.726 Y155.595 E26.89926
G1 X96.726 Y144.655 E27.83434
G1 X96.603 Y144.214 F4800.000
G1 X98.288 Y144.858 F4800.000
G1 F1800.000
G1 X99.561 Y144.387 E27.84399
G1 X98.769 Y144.357 F4800.000
G1 F1800.000
G1 X98.297 Y145.850 E27.88497
G1 X98.050 Y146.972 F4800.000
G1 F1800.000
G1 X97.987 Y147.481 E27.92803
G1 F1800.000
G1 X97.925 Y147.990 E27.96472
G1 F1800.000
G1 X97.890 Y148.300 E27.98318
G1 F1800.000
G1 X97.894 Y149.646 E28.05316
G1 F1800.000
G1 X97.956 Y150.156 E28.08356
G1 F1800.000
G1 X98.019 Y150.666 E28.12038
G1 F1800.000
G1 X98.050 Y150.921 E28.14199
G1 E26.14199 F2400.00000
G92 E0
G1 X98.667 Y152.833 F4800.000
G1 E2.00000 F2400.00000
G1 F1800.000
G1 X98.534 Y152.966 E2.01842
G1 X98.861 Y153.654 F4800.000
G1 F1800.000
G1 X98.728 Y153.787 E2.03683
G1 X99.714 Y153.615 F4800.000
G1 F1800.000
G1 X99.874 Y153.755 E2.03814
G1 F1800.000
G1 X100.194 Y154.033 E2.04497
G1 X101.357 Y154.245 F4800.000
G1 F1800.000
G1 X101.842 Y154.330 E2.08427
G1 F1800.000
G1 X102.152 Y154.381 E2.10555
G1 F1800.000
G1 X103.013 Y154.426 E2.15659
G1 F1800.000
G1 X103.494 Y154.449 E2.17921
G1 F1800.000
G1 X104.139 Y154.404 E2.21754
G1 F1800.000
G1 X104.784 Y154.359 E2.26381
G1 F1800.000
G1 X104.972 Y154.327 E2.27905
G1 F1800.000
G1 X105.198 Y154.283 E2.30034
G1 F1800.000
G1 X105.425 Y154.239 E2.32441
G1 F1800.000
G1 X105.652 Y154.195 E2.35126
G1 X112.464 Y154.195 E3.14349
G1 X113.467 Y154.604 F4800.000
G1 F1800.000
G1 X113.335 Y154.736 E3.16163
G1 X113.335 Y155.736 E3.25829
G1 X114.416 Y154.654 E3.40617
G1 X114.416 Y155.654 E3.50283
G1 X114.284 Y155.787 E3.52098
G1 X115.287 Y154.195 F4800.000
G1 F1800.000
G1 X118.088 Y154.195 E3.84671
G1 E1.84671 F2400.00000
G92 E0
G1 X115.575 Y154.195 F4800.000
G1 X113.876 Y155.144 F4800.000
G1 X112.176 Y154.195 F4800.000
G1 X105.652 Y154.195 F4800.000
G1 X103.408 Y154.447 F4800.000
G1 X100.829 Y154.152 F4800.000
G1 X98.828 Y153.493 F4800.000
G1 X98.077 Y151.060 F4800.000
G1 X97.890 Y149.555 F4800.000
G1 X98.048 Y146.989 F4800.000
G1 X98.689 Y144.759 F4800.000
G1 X100.782 Y144.013 F4800.000
G1 X103.434 Y143.692 F4800.000
G1 X105.603 Y143.945 F4800.000
G1 X118.088 Y143.945 F4800.000
G1 E2.00000 F2400.00000
G1 F1800.000
G1 X105.603 Y143.945 E2.59810
G1 X105.363 Y143.898 E2.60983
G1 F1800.000
G1 X105.122 Y143.852 E2.61844
G1 F1800.000
G1 X104.882 Y143.805 E2.62392
G1 F1800.000
G1 X104.624 Y143.772 E2.62642
G1 E0.62642 F2400.00000
G92 E0
G1 X102.128 Y143.767 F4800.000
G1 E2.00000 F2400.00000
G1 F1800.000
G1 X101.851 Y143.816 E2.00216
G1 F1800.000
G1 X101.574 Y143.865 E2.00796
G1 F1800.000
G1 X101.297 Y143.914 E2.01739
G1 F1800.000
G1 X101.020 Y143.963 E2.03045
G1 F1800.000
G1 X100.545 Y144.086 E2.05963
G1 E0.05963 F2400.00000
G92 E0
G1 X103.888 Y150.863 F4800.000
G1 X103.376 Y148.945 F4800.000
G1 X122.023 Y148.945 F4800.000
G1 X124.496 Y150.445 F4800.000
G1 X129.687 Y155.636 F4800.000
G1 X127.378 Y157.945 F4800.000
G1 X123.854 Y161.044 F4800.000
G1 X123.323 Y163.947 F4800.000
G1 X123.296 Y171.899 F4800.000
G1 X105.515 Y171.899 F4800.000
G1 X105.515 Y170.399 F4800.000
G1 X113.367 Y176.999 F4800.000
G1 E2.00000 F2400.00000
G1 F1800.000
G1 X115.566 Y176.999 E2.18793
G1 X115.566 Y179.299 E2.38456
G1 X113.367 Y179.299 E2.57249
G1 X113.367 Y177.059 E2.76398
G1 E0.76398 F2400.00000
G92 E0
G1 X101.667 Y176.989 F4800.000
G1 E2.00000 F2400.00000
G1 F1800.000
G1 X101.613 Y177.299 E2.02688
G1 X98.566 Y177.299 E2.28728
G1 X98.566 Y174.215 E2.55089
G1 X98.852 Y174.145 E2.57602
G1 X99.346 Y175.091 E2.66725
G1 X100.283 Y176.133 E2.78705
G1 X101.416 Y176.898 E2.90392
G1 X101.611 Y176.969 E2.92160
G1 E0.92160 F2400.00000
G92 E0
G1 X101.419 Y177.105 F4800.000
G1 X99.419 Y176.446 F4800.000
G1 X99.042 Y175.466 F4800.000
G1 X98.481 Y172.509 F4800.000
G1 X98.639 Y169.942 F4800.000
G1 X98.850 Y169.656 F4800.000
G1 E2.00000 F2400.00000
G1 F1800.000
G1 X98.566 Y169.585 E2.02504
G1 X98.566 Y166.999 E2.24615
G1 X100.796 Y166.999 E2.43675
G1 X100.877 Y167.264 E2.46046
G1 X100.283 Y167.665 E2.52171
G1 X99.369 Y168.681 E2.63857
G1 X98.878 Y169.603 E2.72784
G1 E0.72784 F2400.00000
G92 E0
G1 X97.941 Y166.924 F4800.000
G1 E2.00000 F2400.00000
G1 F1800.000
G1 X76.766 Y166.924 E3.80991
G1 X76.766 Y166.374 E3.85694
G1 X118.991 Y166.374 E7.46609
G1 X118.991 Y167.424 E7.55585
G1 X106.092 Y167.424 E8.65842
G1 X105.252 Y167.085 E8.73579
G1 X104.050 Y166.917 E8.83954
G1 X102.843 Y167.045 E8.94330
G1 X101.703 Y167.460 E9.04706
G1 X100.696 Y168.140 E9.15081
G1 X99.884 Y169.042 E9.25457
G1 X99.315 Y170.114 E9.35833
G1 X99.021 Y171.292 E9.46208
G1 X99.021 Y172.506 E9.56584
G1 X99.314 Y173.680 E9.66929
G1 X99.863 Y174.732 E9.77069
G1 X100.696 Y175.658 E9.87718
G1 X101.703 Y176.337 E9.98094
G1 X102.843 Y176.753 E10.08470
G1 X104.050 Y176.880 E10.18845
G1 X105.252 Y176.712 E10.29221
G1 X106.092 Y176.374 E10.36957
G1 X118.991 Y176.374 E11.47214
G1 X118.991 Y177.924 E11.60465
G1 X116.190 Y177.924 E11.84405
G1 X116.190 Y179.924 E12.01500
G1 X112.742 Y179.924 E12.30975
G1 X112.742 Y177.924 E12.48070
G1 X97.941 Y177.924 E13.74579
G1 X97.941 Y166.984 E14.68087
G1 X97.316 Y167.549 F4800.000
G1 F1800.000
G1 X76.141 Y167.549 E16.49078
G1 X76.141 Y165.749 E16.64463
G1 X119.616 Y165.749 E20.36060
G1 X119.616 Y168.049 E20.55719
G1 X105.971 Y168.049 E21.72354
G1 X105.090 Y167.694 E21.80471
G1 X104.040 Y167.547 E21.89535
G1 X102.985 Y167.658 E21.98600
G1 X101.989 Y168.021 E22.07664
G1 X101.110 Y168.615 E22.16729
G1 X100.400 Y169.403 E22.25793
G1 X99.903 Y170.339 E22.34858
G1 X99.646 Y171.368 E22.43922
G1 X99.646 Y172.429 E22.52987
G1 X99.902 Y173.457 E22.62040
G1 X100.380 Y174.372 E22.70870
G1 X101.110 Y175.183 E22.80188
G1 X101.989 Y175.776 E22.89252
G1 X102.985 Y176.139 E22.98317
G1 X104.040 Y176.251 E23.07381
G1 X105.090 Y176.104 E23.16446
G1 X105.971 Y175.749 E23.24563
G1 X119.616 Y175.749 E24.41197
G1 X119.616 Y178.549 E24.65130
G1 X116.815 Y178.549 E24.89070
G1 X116.815 Y180.549 E25.06165
G1 X112.117 Y180.549 E25.46322
G1 X112.117 Y178.549 E25.63417
G1 X97.316 Y178.549 E26.89926
G1 X97.316 Y167.609 E27.83434
G1 X97.194 Y167.168 F4800.000
G1 X98.878 Y167.811 F4800.000
G1 F1800.000
G1 X100.152 Y167.341 E27.84399
G1 X99.360 Y167.311 F4800.000
G1 F1800.000
G1 X98.887 Y168.804 E27.88497
G1 X98.641 Y169.926 F4800.000
G1 F1800.000
G1 X98.578 Y170.435 E27.92803
G1 F1800.000
G1 X98.516 Y170.943 E27.96472
G1 F1800.000
G1 X98.481 Y171.253 E27.98318
G1 F1800.000
G1 X98.485 Y172.600 E28.05316
G1 F1800.000
G1 X98.547 Y173.110 E28.08356
G1 F1800.000
G1 X98.610 Y173.620 E28.12038
G1 F1800.000
G1 X98.641 Y173.875 E28.14199
G1 E26.14199 F2400.00000
G92 E0
G1 X99.257 Y175.787 F4800.000
G1 E2.00000 F2400.00000
G1 F1800.000
G1 X99.125 Y175.920 E2.01842
G1 X99.452 Y176.608 F4800.000
G1 F1800.000
G1 X99.319 Y176.740 E2.03683
G1 X100.305 Y176.569 F4800.000
G1 F1800.000
G1 X100.465 Y176.708 E2.03814
G1 F1800.000
G1 X100.785 Y176.987 E2.04497
G1 X101.948 Y177.198 F4800.000
G1 F1800.000
G1 X102.432 Y177.284 E2.08427
G1 F1800.000
G1 X102.743 Y177.335 E2.10555
G1 F1800.000
G1 X103.603 Y177.380 E2.15659
G1 F1800.000
G1 X104.084 Y177.402 E2.17921
G1 F1800.000
G1 X104.730 Y177.357 E2.21754
G1 F1800.000
G1 X105.375 Y177.312 E2.26381
G1 F1800.000
G1 X105.562 Y177.281 E2.27905
G1 F1800.000
G1 X105.789 Y177.237 E2.30034
G1 F1800.000
G1 X106.016 Y177.193 E2.32441
G1 F1800.000
G1 X106.242 Y177.149 E2.35126
G1 X113.054 Y177.149 E3.14349
G1 X114.058 Y177.557 F4800.000
G1 F1800.000
G1 X113.925 Y177.690 E3.16163
G1 X113.925 Y178.689 E3.25829
G1 X115.007 Y177.608 E3.40617
G1 X115.007 Y178.608 E3.50283
G1 X114.874 Y178.740 E3.52098
G1 X115.878 Y177.149 F4800.000
G1 F1800.000
G1 X118.679 Y177.149 E3.84671
G1 E1.84671 F2400.00000
G92 E0
G1 X116.165 Y177.149 F4800.000
G1 X114.466 Y178.098 F4800.000
G1 X112.767 Y177.149 F4800.000
G1 X106.242 Y177.149 F4800.000
G1 X103.998 Y177.401 F4800.000
G1 X101.419 Y177.105 F4800.000
G1 X99.419 Y176.446 F4800.000
G1 X98.668 Y174.014 F4800.000
G1 X98.481 Y172.509 F4800.000
G1 X98.639 Y169.942 F4800.000
G1 X99.280 Y167.712 F4800.000
G1 X101.373 Y166.967 F4800.000
G1 X104.025 Y166.646 F4800.000
G1 X106.194 Y166.899 F4800.000
G1 X118.679 Y166.899 F4800.000
G1 E2.00000 F2400.00000
G1 F1800.000
G1 X106.194 Y166.899 E2.59810
G1 X105.953 Y166.852 E2.60983
G1 F1800.000
G1 X105.713 Y166.805 E2.61844
G1 F1800.000
G1 X105.472 Y166.759 E2.62392
G1 F1800.000
G1 X105.215 Y166.725 E2.62642
G1 E0.62642 F2400.00000
G92 E0
G1 X102.718 Y166.721 F4800.000
G1 E2.00000 F2400.00000
G1 F1800.000
G1 X102.441 Y166.770 E2.00216
G1 F1800.000
G1 X102.165 Y166.819 E2.00796
G1 F1800.000
G1 X101.888 Y166.867 E2.01739
G1 F1800.000
G1 X101.611 Y166.916 E2.03045
G1 F1800.000
G1 X101.135 Y167.040 E2.05963
G1 E0.05963 F2400.00000
G92 E0
G1 X104.479 Y173.816 F4800.000
G1 X103.966 Y171.899 F4800.000
G1 X123.296 Y171.899 F4800.000
G1 X131.037 Y179.518 F4800.000
G1 X126.364 Y183.777 F4800.000
G1 X124.856 Y187.196 F4800.000
G1 X124.546 Y188.589 F4800.000
G1 X124.546 Y194.196 F4800.000
G1 X124.246 Y195.696 F4800.000
G1 X106.527 Y195.696 F4800.000
G1 X106.527 Y194.196 F4800.000
G1 X114.380 Y200.796 F4800.000
G1 E2.00000 F2400.00000
G1 F1800.000
G1 X116.578 Y200.796 E2.18793
G1 X116.578 Y203.096 E2.38456
G1 X114.380 Y203.096 E2.57249
G1 X114.380 Y200.856 E2.76398
G1 E0.76398 F2400.00000
G92 E0
G1 X102.680 Y200.787 F4800.000
G1 E2.00000 F2400.00000
G1 F1800.000
G1 X102.625 Y201.096 E2.02688
G1 X99.579 Y201.096 E2.28728
G1 X99.579 Y198.012 E2.55089
G1 X99.864 Y197.942 E2.57602
G1 X100.358 Y198.888 E2.66725
G1 X101.296 Y199.930 E2.78705
G1 X102.429 Y200.695 E2.90392
G1 X102.624 Y200.766 E2.92160
G1 E0.92160 F2400.00000
G92 E0
G1 X102.432 Y200.903 F4800.000
G1 X100.431 Y200.244 F4800.000
G1 X100.055 Y199.263 F4800.000
G1 X99.494 Y196.306 F4800.000
G1 X99.651 Y193.740 F4800.000
G1 X99.863 Y193.454 F4800.000
G1 E2.00000 F2400.00000
G1 F1800.000
G1 X99.579 Y193.383 E2.02504
G1 X99.579 Y190.796 E2.24615
G1 X101.809 Y190.796 E2.43675
G1 X101.890 Y191.061 E2.46046
G1 X101.296 Y191.462 E2.52171
G1 X100.381 Y192.478 E2.63857
G1 X99.891 Y193.401 E2.72784
G1 E0.72784 F2400.00000
G92 E0
G1 X98.954 Y190.721 F4800.000
G1 E2.00000 F2400.00000
G1 F1800.000
G1 X77.779 Y190.721 E3.80991
G1 X77.779 Y190.171 E3.85694
G1 X120.004 Y190.171 E7.46609
G1 X120.004 Y191.221 E7.55585
G1 X107.105 Y191.221 E8.65842
G1 X106.265 Y190.883 E8.73579
G1 X105.063 Y190.715 E8.83954
G1 X103.856 Y190.842 E8.94330
G1 X102.715 Y191.258 E9.04706
G1 X101.709 Y191.937 E9.15081
G1 X100.897 Y192.839 E9.25457
G1 X100.327 Y193.911 E9.35833
G1 X100.034 Y195.089 E9.46208
G1 X100.034 Y196.303 E9.56584
G1 X100.327 Y197.478 E9.66929
G1 X100.876 Y198.529 E9.77069
G1 X101.709 Y199.455 E9.87718
G1 X102.715 Y200.134 E9.98094
G1 X103.856 Y200.550 E10.08470
G1 X105.063 Y200.678 E10.18845
G1 X106.265 Y200.510 E10.29221
G1 X107.105 Y200.171 E10.36957
G1 X120.004 Y200.171 E11.47214
G1 X120.004 Y201.721 E11.60465
G1 X117.203 Y201.721 E11.84405
G1 X117.203 Y203.721 E12.01500
G1 X113.755 Y203.721 E12.30975
G1 X113.755 Y201.721 E12.48070
G1 X98.954 Y201.721 E13.74579
G1 X98.954 Y190.781 E14.68087
G1 X98.329 Y191.346 F4800.000
G1 F1800.000
G1 X77.154 Y191.346 E16.49078
G1 X77.154 Y189.546 E16.64463
G1 X120.629 Y189.546 E20.36060
G1 X120.629 Y191.846 E20.55719
