; generated by Slic3r 1.3.0 on 2019-06-14 at 10:42:06

; Printer Config Notes: 
; ""
; 
; external perimeters extrusion width = 0.44mm (1.19mm^3/s)
; perimeters extrusion width = 0.56mm (3.10mm^3/s)
; infill extrusion width = 0.50mm (5.48mm^3/s)
; solid infill extrusion width = 0.56mm (2.07mm^3/s)
; top infill extrusion width = 0.56mm (1.55mm^3/s)

;G28 ; home all axes
G1 Z5 F5000 ; lift nozzle
; Filament gcode

G21 ; set units to millimeters
G90 ; use absolute coordinates
M82 ; use absolute distances for extrusion
G92 E0
G1 Z0.400 F4800.000
G1 E-1.00000 F2400.00000
G92 E0
G1 X53.363 Y84.168 F4800.000
G1 E1.00000 F2400.00000
G1 F1800
G1 X55.662 Y82.885 E1.09196
G1 X58.712 Y82.333 E1.20024
G1 X108.712 Y82.333 E2.94662
G1 X111.315 Y82.731 E3.03858
G1 X113.680 Y83.888 E3.13053
G1 X115.592 Y85.698 E3.22249
G1 X116.875 Y87.997 E3.31444
G1 X117.427 Y91.047 E3.42273
G1 X117.427 Y113.047 E4.19114
G1 X117.029 Y115.650 E4.28309
G1 X115.872 Y118.015 E4.37505
G1 X114.062 Y119.926 E4.46700
G1 X111.763 Y121.210 E4.55896
G1 X108.712 Y121.761 E4.66724
G1 X58.712 Y121.761 E6.41362
G1 X56.110 Y121.364 E6.50558
G1 X53.745 Y120.207 E6.59754
G1 X51.833 Y118.397 E6.68949
G1 X50.550 Y116.098 E6.78145
G1 X49.998 Y113.047 E6.88973
G1 X49.998 Y91.047 E7.65814
G1 X50.396 Y88.445 E7.75009
G1 X51.553 Y86.080 E7.84205
G1 X53.322 Y84.212 E7.93191
G1 X54.544 Y85.349 F4800.000
G1 F1800
G1 X55.823 Y84.070 E7.99622
G1 X111.602 Y84.070 E9.98026
G1 X115.689 Y88.157 E10.18583
G1 X115.689 Y115.937 E11.17393
G1 X111.602 Y120.024 E11.37951
G1 X55.823 Y120.024 E13.36354
G1 X51.736 Y115.937 E13.56912
G1 X51.736 Y88.157 E14.55722
G1 X54.502 Y85.391 E14.69635
G1 X55.058 Y85.863 F4800.000
G1 F1800
G1 X56.124 Y84.798 E14.74995
G1 X111.301 Y84.798 E16.71255
G1 X114.962 Y88.459 E16.89670
G1 X114.962 Y115.636 E17.86337
G1 X111.301 Y119.297 E18.04752
G1 X56.124 Y119.297 E20.01012
G1 X52.463 Y115.636 E20.19427
G1 X52.463 Y88.459 E21.16094
G1 X55.016 Y85.906 E21.28936
G1 X55.573 Y86.378 F4800.000
G1 F1800
G1 X56.425 Y85.525 E21.33224
G1 X111.000 Y85.525 E23.27341
G1 X114.235 Y88.760 E23.43613
G1 X114.235 Y115.335 E24.38137
G1 X111.000 Y118.569 E24.54409
G1 X56.425 Y118.569 E26.48526
G1 X53.190 Y115.335 E26.64798
G1 X53.190 Y88.760 E27.59322
G1 X55.530 Y86.420 E27.71092
G1 X56.087 Y86.892 F4800.000
G1 F1800
G1 X56.726 Y86.252 E27.74309
G1 X110.699 Y86.252 E29.66283
G1 X113.507 Y89.061 E29.80412
G1 X113.507 Y115.033 E30.72793
G1 X110.699 Y117.842 E30.86922
G1 X56.726 Y117.842 E32.78896
G1 X53.918 Y115.033 E32.93025
G1 X53.918 Y89.061 E33.85406
G1 X56.044 Y86.934 E33.96104
G1 X56.601 Y87.406 F4800.000
G1 F1800
G1 X57.028 Y86.980 E33.98250
G1 X110.397 Y86.980 E35.88081
G1 X112.780 Y89.362 E36.00067
G1 X112.780 Y114.732 E36.90305
G1 X110.397 Y117.115 E37.02291
G1 X57.028 Y117.115 E38.92122
G1 X54.645 Y114.732 E39.04108
G1 X54.645 Y89.362 E39.94345
G1 X56.559 Y87.448 E40.03972
G1 X57.115 Y87.920 F4800.000
G1 F1800
G1 X57.329 Y87.707 E40.05046
G1 X110.096 Y87.707 E41.92735
G1 X112.053 Y89.664 E42.02577
G1 X112.053 Y114.431 E42.90672
G1 X110.096 Y116.388 E43.00515
G1 X57.329 Y116.388 E44.88203
G1 X55.372 Y114.431 E44.98046
G1 X55.372 Y89.664 E45.86141
G1 X57.073 Y87.963 E45.94697
G1 X57.630 Y88.435 F4800.000
G1 F1800
G1 X109.795 Y88.434 E47.80244
G1 X111.326 Y89.965 E47.87943
G1 X111.326 Y114.130 E48.73895
G1 X109.795 Y115.660 E48.81595
G1 X57.630 Y115.660 E50.67140
G1 X56.099 Y114.130 E50.74840
G1 X56.099 Y89.965 E51.60792
G1 X57.587 Y88.477 E51.68276
G1 X57.931 Y89.161 F4800.000
G1 F1800
G1 X109.494 Y89.161 E53.51678
G1 X110.598 Y90.266 E53.57235
G1 X110.598 Y113.828 E54.41044
G1 X109.494 Y114.933 E54.46601
G1 X57.931 Y114.933 E56.30003
G1 X56.827 Y113.828 E56.35560
G1 X56.827 Y90.266 E57.19369
G1 X57.889 Y89.204 E57.24712
G1 X58.233 Y89.889 F4800.000
G1 F1800
G1 X109.192 Y89.889 E59.05971
G1 X109.871 Y90.567 E59.09385
G1 X109.871 Y113.527 E59.91051
G1 X109.192 Y114.206 E59.94465
G1 X58.233 Y114.206 E61.75724
G1 X57.554 Y113.527 E61.79138
G1 X57.554 Y90.567 E62.60804
G1 X58.190 Y89.931 E62.64004
G1 X58.534 Y90.616 F4800.000
G1 F1800
G1 X108.891 Y90.616 E64.43120
G1 X109.144 Y90.869 E64.44391
G1 X109.144 Y113.226 E65.23914
G1 X108.891 Y113.479 E65.25185
G1 X58.534 Y113.479 E67.04301
G1 X58.281 Y113.226 E67.05572
G1 X58.281 Y90.869 E67.85095
G1 X58.491 Y90.658 E67.86152
G1 E66.86152 F2400.00000
G92 E0
G1 X108.312 Y112.647 F4800.000
G1 E1.00000 F2400.00000
G1 F1800
G1 X59.112 Y112.647 E2.71844
G1 X59.112 Y91.447 E3.45891
G1 X108.312 Y91.447 E5.17735
G1 X108.312 Y112.587 E5.91573
G1 X107.916 Y112.593 F4800.000
G1 X107.598 Y111.933 F4800.000
G1 F1800
G1 X85.841 Y111.933 E6.67566
G1 X86.256 Y111.332 E6.70117
G1 X86.501 Y110.685 E6.72535
G1 X86.585 Y109.997 E6.74954
G1 X86.502 Y109.319 E6.77340
G1 X86.257 Y108.664 E6.79782
G1 X85.762 Y107.947 E6.82824
G1 X87.247 Y107.168 E6.88682
G1 X88.370 Y106.173 E6.93921
G1 X89.222 Y104.939 E6.99160
G1 X89.575 Y104.008 E7.02639
G1 X90.031 Y104.411 E7.04765
G1 X90.644 Y104.733 E7.07183
G1 X91.316 Y104.899 E7.09602
G1 X92.009 Y104.899 E7.12020
G1 X92.681 Y104.733 E7.14439
G1 X93.286 Y104.415 E7.16825
G1 X93.811 Y103.954 E7.19268
G1 X94.206 Y103.382 E7.21694
G1 X94.448 Y102.743 E7.24080
G1 X94.535 Y102.049 E7.26523
G1 X94.451 Y101.360 E7.28949
G1 X94.206 Y100.712 E7.31367
G1 X93.812 Y100.142 E7.33786
G1 X93.301 Y99.689 E7.36172
G1 X92.683 Y99.362 E7.38615
G1 X92.009 Y99.196 E7.41041
G1 X91.316 Y99.196 E7.43460
G1 X90.644 Y99.362 E7.45878
G1 X90.039 Y99.679 E7.48264
G1 X89.578 Y100.084 E7.50406
G1 X89.221 Y99.153 E7.53888
G1 X88.370 Y97.921 E7.59118
G1 X87.247 Y96.926 E7.64357
G1 X85.762 Y96.147 E7.70214
G1 X86.256 Y95.432 E7.73249
G1 X86.501 Y94.785 E7.75667
G1 X86.585 Y94.097 E7.78086
G1 X86.502 Y93.419 E7.80472
G1 X86.257 Y92.764 E7.82914
G1 X85.841 Y92.161 E7.85473
G1 X107.598 Y92.161 E8.61466
G1 X107.598 Y111.873 E9.30315
G1 X106.884 Y111.219 F4800.000
G1 F1800
G1 X87.062 Y111.219 E9.99547
G1 X87.200 Y110.857 E10.00900
G1 X87.304 Y109.997 E10.03924
G1 X87.201 Y109.148 E10.06911
G1 X86.841 Y108.188 E10.10494
G1 X87.656 Y107.760 E10.13707
G1 X88.908 Y106.650 E10.19552
G1 X89.933 Y105.166 E10.25851
G1 X90.389 Y105.406 E10.27650
G1 X91.230 Y105.613 E10.30674
G1 X92.095 Y105.613 E10.33698
G1 X92.936 Y105.406 E10.36723
G1 X93.693 Y105.008 E10.39710
G1 X94.349 Y104.432 E10.42758
G1 X94.843 Y103.716 E10.45795
G1 X95.146 Y102.917 E10.48782
G1 X95.255 Y102.051 E10.51830
G1 X95.150 Y101.188 E10.54867
G1 X94.843 Y100.378 E10.57891
G1 X94.351 Y99.665 E10.60916
G1 X93.711 Y99.098 E10.63903
G1 X92.940 Y98.690 E10.66951
G1 X92.095 Y98.482 E10.69988
G1 X91.230 Y98.482 E10.73012
G1 X90.389 Y98.689 E10.76036
G1 X89.933 Y98.928 E10.77835
G1 X88.908 Y97.444 E10.84134
G1 X87.656 Y96.334 E10.89979
G1 X86.840 Y95.906 E10.93198
G1 X87.200 Y94.957 E10.96743
G1 X87.304 Y94.097 E10.99768
G1 X87.201 Y93.248 E11.02755
G1 X87.061 Y92.876 E11.04145
G1 X106.884 Y92.876 E11.73381
G1 X106.884 Y111.159 E12.37241
G1 E11.37241 F2400.00000
G92 E0
G1 X81.584 Y111.933 F4800.000
G1 E1.00000 F2400.00000
G1 F1800
G1 X59.827 Y111.933 E1.75993
G1 X59.827 Y92.161 E2.45051
G1 X81.584 Y92.161 E3.21045
G1 X81.169 Y92.762 E3.23595
G1 X80.924 Y93.410 E3.26014
G1 X80.840 Y94.097 E3.28433
G1 X80.922 Y94.775 E3.30819
G1 X81.168 Y95.430 E3.33261
G1 X81.663 Y96.147 E3.36303
G1 X80.178 Y96.926 E3.42160
G1 X79.055 Y97.921 E3.47400
G1 X78.203 Y99.156 E3.52639
G1 X77.850 Y100.087 E3.56118
G1 X77.394 Y99.683 E3.58244
G1 X76.781 Y99.362 E3.60662
G1 X76.118 Y99.198 E3.63048
G1 X75.418 Y99.195 E3.65491
G1 X74.744 Y99.362 E3.67917
G1 X74.139 Y99.679 E3.70303
G1 X73.614 Y100.141 E3.72746
G1 X73.219 Y100.712 E3.75172
G1 X72.974 Y101.360 E3.77591
G1 X72.890 Y102.047 E3.80009
G1 X72.972 Y102.725 E3.82395
G1 X73.218 Y103.380 E3.84838
G1 X73.612 Y103.952 E3.87264
G1 X74.131 Y104.411 E3.89683
G1 X74.744 Y104.733 E3.92101
G1 X75.416 Y104.899 E3.94520
G1 X76.109 Y104.899 E3.96938
G1 X76.781 Y104.733 E3.99357
G1 X77.386 Y104.415 E4.01743
G1 X77.846 Y104.011 E4.03885
G1 X78.204 Y104.941 E4.07367
G1 X79.055 Y106.173 E4.12597
G1 X80.178 Y107.168 E4.17836
G1 X81.663 Y107.947 E4.23693
G1 X81.169 Y108.662 E4.26727
G1 X80.924 Y109.310 E4.29146
G1 X80.840 Y109.997 E4.31564
G1 X80.922 Y110.675 E4.33951
G1 X81.168 Y111.330 E4.36393
G1 X81.550 Y111.884 E4.38742
G1 X80.363 Y111.219 F4800.000
G1 F1800
G1 X60.541 Y111.219 E5.07978
G1 X60.541 Y92.876 E5.72047
G1 X80.362 Y92.876 E6.41280
G1 X80.225 Y93.238 E6.42632
G1 X80.121 Y94.097 E6.45657
G1 X80.224 Y94.946 E6.48644
G1 X80.584 Y95.907 E6.52226
G1 X79.769 Y96.334 E6.55440
G1 X78.516 Y97.444 E6.61285
G1 X77.492 Y98.928 E6.67584
G1 X77.036 Y98.689 E6.69382
G1 X76.206 Y98.484 E6.72369
G1 X75.333 Y98.481 E6.75418
G1 X74.489 Y98.689 E6.78455
G1 X73.732 Y99.086 E6.81442
G1 X73.076 Y99.662 E6.84490
G1 X72.582 Y100.378 E6.87527
G1 X72.275 Y101.188 E6.90551
G1 X72.171 Y102.047 E6.93575
G1 X72.274 Y102.896 E6.96562
G1 X72.580 Y103.713 E6.99611
G1 X73.074 Y104.429 E7.02648
G1 X73.722 Y105.003 E7.05672
G1 X74.489 Y105.406 E7.08696
G1 X75.330 Y105.613 E7.11721
G1 X76.195 Y105.613 E7.14745
G1 X77.036 Y105.406 E7.17769
G1 X77.492 Y105.166 E7.19568
G1 X78.516 Y106.650 E7.25866
G1 X79.769 Y107.760 E7.31711
G1 X80.585 Y108.188 E7.34930
G1 X80.225 Y109.138 E7.38476
G1 X80.121 Y109.997 E7.41500
G1 X80.224 Y110.846 E7.44487
G1 X80.342 Y111.163 E7.45668
G1 E6.45668 F2400.00000
G92 E0
G1 X79.553 Y110.588 F4800.000
G1 X78.070 Y109.094 F4800.000
G1 X81.424 Y107.991 F4800.000
G1 X83.344 Y107.887 F4800.000
G1 E1.00000 F2400.00000
G1 F1800
G1 X83.298 Y107.510 E1.01326
G1 X83.049 Y107.510 E1.02195
G1 X81.761 Y107.193 E1.06829
G1 X80.586 Y106.576 E1.11462
G1 X79.593 Y105.696 E1.16096
G1 X78.840 Y104.605 E1.20726
G1 X78.372 Y103.389 E1.25279
G1 X78.252 Y102.399 E1.28760
G1 X77.873 Y102.399 E1.30086
G1 X77.853 Y102.562 E1.30661
G1 X77.669 Y103.048 E1.32473
G1 X77.373 Y103.476 E1.34289
G1 X76.979 Y103.823 E1.36126
G1 X76.526 Y104.060 E1.37911
G1 X76.022 Y104.184 E1.39724
G1 X75.503 Y104.184 E1.41537
G1 X74.999 Y104.060 E1.43350
G1 X74.539 Y103.819 E1.45162
G1 X74.151 Y103.475 E1.46975
G1 X73.856 Y103.047 E1.48791
G1 X73.671 Y102.555 E1.50627
G1 X73.610 Y102.047 E1.52413
G1 X73.672 Y101.532 E1.54226
G1 X73.856 Y101.047 E1.56038
G1 X74.151 Y100.619 E1.57854
G1 X74.546 Y100.272 E1.59691
G1 X74.999 Y100.034 E1.61476
G1 X75.504 Y99.910 E1.63292
G1 X76.030 Y99.912 E1.65128
G1 X76.526 Y100.034 E1.66914
G1 X76.985 Y100.275 E1.68727
G1 X77.374 Y100.620 E1.70540
G1 X77.669 Y101.047 E1.72352
G1 X77.853 Y101.532 E1.74165
G1 X77.873 Y101.695 E1.74739
G1 X78.252 Y101.695 E1.76065
G1 X78.369 Y100.730 E1.79460
G1 X78.840 Y99.490 E1.84094
G1 X79.593 Y98.398 E1.88727
G1 X80.586 Y97.518 E1.93361
G1 X81.761 Y96.902 E1.97994
G1 X83.049 Y96.584 E2.02628
G1 X83.298 Y96.584 E2.03497
G1 X83.344 Y96.208 E2.04823
G1 X82.949 Y96.110 E2.06244
G1 X82.489 Y95.869 E2.08056
G1 X82.101 Y95.525 E2.09869
G1 X81.806 Y95.097 E2.11685
G1 X81.621 Y94.605 E2.13521
G1 X81.560 Y94.097 E2.15307
G1 X81.622 Y93.582 E2.17120
G1 X81.806 Y93.097 E2.18932
G1 X82.101 Y92.669 E2.20748
G1 X82.496 Y92.322 E2.22585
G1 X82.949 Y92.084 E2.24370
G1 X83.453 Y91.960 E2.26183
G1 X83.972 Y91.960 E2.27996
G1 X84.476 Y92.084 E2.29809
G1 X84.935 Y92.325 E2.31621
G1 X85.324 Y92.670 E2.33434
G1 X85.619 Y93.097 E2.35250
G1 X85.804 Y93.590 E2.37086
G1 X85.865 Y94.097 E2.38872
G1 X85.803 Y94.612 E2.40685
G1 X85.619 Y95.098 E2.42497
G1 X85.324 Y95.525 E2.44310
G1 X84.935 Y95.869 E2.46123
G1 X84.476 Y96.110 E2.47936
G1 X84.081 Y96.208 E2.49356
G1 X84.127 Y96.584 E2.50682
G1 X84.376 Y96.584 E2.51551
G1 X85.664 Y96.902 E2.56185
G1 X86.838 Y97.518 E2.60819
G1 X87.831 Y98.398 E2.65452
G1 X88.585 Y99.489 E2.70082
G1 X89.053 Y100.706 E2.74635
G1 X89.173 Y101.695 E2.78117
G1 X89.552 Y101.695 E2.79443
G1 X89.572 Y101.532 E2.80017
G1 X89.756 Y101.047 E2.81830
G1 X90.051 Y100.619 E2.83645
G1 X90.446 Y100.272 E2.85482
G1 X90.899 Y100.034 E2.87267
G1 X91.403 Y99.910 E2.89080
G1 X91.922 Y99.910 E2.90893
G1 X92.427 Y100.034 E2.92708
G1 X92.891 Y100.281 E2.94545
G1 X93.274 Y100.620 E2.96331
G1 X93.569 Y101.047 E2.98143
G1 X93.753 Y101.532 E2.99956
G1 X93.815 Y102.048 E3.01772
G1 X93.750 Y102.570 E3.03608
G1 X93.569 Y103.048 E3.05394
G1 X93.273 Y103.476 E3.07209
G1 X92.879 Y103.823 E3.09046
G1 X92.426 Y104.060 E3.10832
G1 X91.922 Y104.184 E3.12644
G1 X91.403 Y104.184 E3.14457
G1 X90.899 Y104.060 E3.16270
G1 X90.439 Y103.819 E3.18083
G1 X90.051 Y103.475 E3.19896
G1 X89.756 Y103.047 E3.21711
G1 X89.505 Y102.377 E3.24211
G1 X89.171 Y102.417 E3.25386
G1 X89.055 Y103.364 E3.28719
G1 X88.585 Y104.605 E3.33352
G1 X87.831 Y105.696 E3.37986
G1 X86.838 Y106.576 E3.42620
G1 X85.664 Y107.193 E3.47253
G1 X84.376 Y107.510 E3.51887
G1 X84.127 Y107.510 E3.52756
G1 X84.081 Y107.887 E3.54082
G1 X84.476 Y107.984 E3.55502
G1 X84.935 Y108.225 E3.57315
G1 X85.324 Y108.570 E3.59128
G1 X85.619 Y108.997 E3.60943
G1 X85.804 Y109.490 E3.62780
G1 X85.865 Y109.997 E3.64565
G1 X85.803 Y110.512 E3.66378
G1 X85.619 Y110.998 E3.68191
G1 X85.323 Y111.426 E3.70007
G1 X84.929 Y111.773 E3.71843
G1 X84.476 Y112.010 E3.73629
G1 X83.971 Y112.135 E3.75444
G1 X83.445 Y112.133 E3.77281
G1 X82.949 Y112.010 E3.79066
G1 X82.489 Y111.769 E3.80879
G1 X82.101 Y111.425 E3.82692
G1 X81.806 Y110.997 E3.84508
G1 X81.621 Y110.505 E3.86344
G1 X81.560 Y109.997 E3.88130
G1 X81.622 Y109.482 E3.89943
G1 X81.806 Y108.997 E3.91755
G1 X82.101 Y108.570 E3.93568
G1 X82.489 Y108.225 E3.95381
G1 X82.949 Y107.984 E3.97194
G1 X83.286 Y107.901 E3.98404
G1 X83.091 Y107.604 F4800.000
G1 X82.249 Y107.861 F4800.000
G1 F1800
G1 X82.293 Y107.803 E3.98440
G1 X82.221 Y107.752 E3.98483
G1 X82.091 Y107.702 E3.98550
G1 F1800
G1 X81.961 Y107.653 E3.98576
G1 X82.249 Y107.861 F4800.000
G1 F1800
G1 X82.064 Y108.069 E3.98625
G1 E2.98625 F2400.00000
G92 E0
G1 X85.204 Y107.752 F4800.000
G1 E1.00000 F2400.00000
G1 F1800
G1 X85.132 Y107.803 E1.00043
G1 X85.275 Y107.972 E1.00149
G1 F1800
G1 X85.361 Y108.069 E1.00171
G1 X85.204 Y107.752 F4800.000
G1 F1800
G1 X85.464 Y107.653 E1.00223
G1 E0.00223 F2400.00000
G92 E0
G1 X85.432 Y107.868 F4800.000
G1 X89.347 Y109.097 F4800.000
G1 X87.248 Y111.102 F4800.000
G1 X85.920 Y111.898 F4800.000
G1 X85.525 Y112.047 F4800.000
G1 X85.364 Y111.922 F4800.000
G1 E1.00000 F2400.00000
G1 F1800
G1 X85.169 Y112.139 E1.00054
G1 F1800
G1 X84.998 Y112.290 E1.00177
G1 E0.00177 F2400.00000
G92 E0
G1 X82.427 Y112.290 F4800.000
G1 E1.00000 F2400.00000
G1 F1800
G1 X82.150 Y112.023 E1.00208
G1 F1800
G1 X82.064 Y111.926 E1.00230
G1 E0.00230 F2400.00000
G92 E0
G1 X79.387 Y110.581 F4800.000
G1 E1.00000 F2400.00000
G1 F1800
G1 X79.539 Y110.429 E1.00766
G1 X79.477 Y109.921 E1.02592
G1 X79.541 Y109.393 E1.04493
G1 X78.354 Y110.581 E1.10490
G1 X77.321 Y110.581 E1.14181
G1 X79.560 Y108.341 E1.25493
G1 X79.436 Y108.276 E1.25993
G1 X78.989 Y107.880 E1.28129
G1 X76.288 Y110.580 E1.41773
G1 X75.255 Y110.581 E1.45464
G1 X78.441 Y107.395 E1.61560
G1 X78.054 Y107.052 E1.63407
G1 X77.930 Y106.872 E1.64185
G1 X74.222 Y110.581 E1.82919
G1 X73.189 Y110.581 E1.86610
G1 X77.508 Y106.261 E2.08432
G1 X77.335 Y106.010 E2.09521
G1 X76.527 Y106.209 E2.12494
G1 X72.156 Y110.581 E2.34577
G1 X71.123 Y110.581 E2.38268
G1 X75.452 Y106.251 E2.60141
G1 X75.319 Y106.251 E2.60618
G1 X74.597 Y106.073 E2.63273
G1 X70.090 Y110.581 E2.86045
G1 X69.057 Y110.581 E2.89735
G1 X73.867 Y105.770 E3.14038
G1 X73.389 Y105.519 E3.15966
G1 X73.228 Y105.376 E3.16736
G1 X68.024 Y110.581 E3.43028
G1 X66.991 Y110.581 E3.46718
G1 X72.680 Y104.891 E3.75462
G1 X72.611 Y104.830 E3.75790
G1 X72.242 Y104.296 E3.78110
G1 X65.958 Y110.581 E4.09862
G1 X64.925 Y110.581 E4.13552
G1 X71.886 Y103.619 E4.48723
G1 X71.651 Y102.991 E4.51119
G1 X71.632 Y102.840 E4.51664
G1 X63.892 Y110.581 E4.90772
G1 X62.859 Y110.581 E4.94463
G1 X71.535 Y101.904 E5.38299
G1 X71.652 Y100.940 E5.41769
G1 X71.766 Y100.640 E5.42913
G1 X61.826 Y110.581 E5.93134
G1 X61.179 Y110.581 E5.95444
G1 X61.179 Y110.194 E5.96825
G1 X77.859 Y93.514 E6.81096
G1 X76.826 Y93.514 E6.84787
G1 X61.179 Y109.161 E7.63840
G1 X61.179 Y108.128 E7.67530
G1 X75.793 Y93.514 E8.41364
G1 X74.760 Y93.514 E8.45054
G1 X61.179 Y107.095 E9.13669
