; generated by Slic3r 1.3.1-dev (Build 48d5b11) on 2019-06-14 at 10:18:45

; Printer Config Notes: 
; ""
; 
; external perimeters extrusion width = 0.44mm (1.19mm^3/s)
; perimeters extrusion width = 0.40mm (2.14mm^3/s)
; infill extrusion width = 0.40mm (4.28mm^3/s)
; solid infill extrusion width = 0.40mm (1.43mm^3/s)
; top infill extrusion width = 0.56mm (1.55mm^3/s)

;G28 ; home all axes
;G1 Z5 F5000 ; lift nozzle
; Filament gcode

G21 ; set units to millimeters
G90 ; use absolute coordinates
M82 ; use absolute distances for extrusion
G92 E0
G92 E0
G1 Z0.350 F4800.000
G1 E-1.00000 F2400.00000
G92 E0
G1 X101.471 Y126.725 F4800.000
G1 E1.00000 F2400.00000
G1 F1800.000
G1 X101.920 Y126.489 E1.04148
G1 X102.412 Y126.368 E1.08296
G1 X102.919 Y126.368 E1.12444
G1 X103.411 Y126.489 E1.16592
G1 X103.860 Y126.725 E1.20740
G1 X104.239 Y127.061 E1.24888
G1 X104.527 Y127.478 E1.29037
G1 X104.707 Y127.952 E1.33185
G1 X104.768 Y128.455 E1.37333
G1 X104.707 Y128.958 E1.41481
G1 X104.527 Y129.432 E1.45629
G1 X104.239 Y129.849 E1.49777
G1 X103.860 Y130.185 E1.53925
G1 X103.411 Y130.421 E1.58073
G1 X102.919 Y130.542 E1.62221
G1 X102.412 Y130.542 E1.66369
G1 X101.920 Y130.421 E1.70517
G1 X101.471 Y130.185 E1.74665
G1 X101.091 Y129.849 E1.78814
G1 X100.804 Y129.432 E1.82962
G1 X100.624 Y128.958 E1.87110
G1 X100.563 Y128.455 E1.91258
G1 X100.624 Y127.952 E1.95406
G1 X100.804 Y127.478 E1.99554
G1 X101.091 Y127.061 E2.03702
G1 X101.426 Y126.764 E2.07359
G1 X101.471 Y126.725 F4800.000
G1 E1.07359 F2400.00000
G92 E0
G1 X96.289 Y121.899 F4800.000
G1 E1.00000 F2400.00000
G1 F1800.000
G1 X95.910 Y122.235 E1.04148
G1 X95.461 Y122.471 E1.08296
G1 X94.969 Y122.592 E1.12444
G1 X94.462 Y122.592 E1.16592
G1 X93.970 Y122.471 E1.20740
G1 X93.521 Y122.235 E1.24889
G1 X93.141 Y121.899 E1.29037
G1 X92.854 Y121.482 E1.33185
G1 X92.674 Y121.008 E1.37333
G1 X92.613 Y120.505 E1.41481
G1 X92.674 Y120.002 E1.45629
G1 X92.854 Y119.528 E1.49777
G1 X93.141 Y119.111 E1.53925
G1 X93.521 Y118.775 E1.58073
G1 X93.970 Y118.539 E1.62221
G1 X94.462 Y118.418 E1.66369
G1 X94.969 Y118.418 E1.70517
G1 X95.461 Y118.539 E1.74665
G1 X95.910 Y118.775 E1.78814
G1 X96.289 Y119.111 E1.82962
G1 X96.577 Y119.528 E1.87110
G1 X96.757 Y120.002 E1.91258
G1 X96.818 Y120.505 E1.95406
G1 X96.757 Y121.008 E1.99554
G1 X96.577 Y121.482 E2.03702
G1 X96.323 Y121.850 E2.07359
G1 X96.289 Y121.899 F4800.000
G1 X97.366 Y121.768 F4800.000
G1 F1800.000
G1 X97.213 Y120.505 E2.17775
G1 X97.371 Y119.200 E2.28532
G1 X97.837 Y117.971 E2.39289
G1 X98.584 Y116.889 E2.50046
G1 X99.568 Y116.018 E2.60804
G1 X100.732 Y115.407 E2.71561
G1 X102.008 Y115.092 E2.82318
G1 X103.322 Y115.092 E2.93075
G1 X104.599 Y115.407 E3.03832
G1 X105.763 Y116.018 E3.14590
G1 X106.747 Y116.889 E3.25347
G1 X107.493 Y117.971 E3.36104
G1 X107.959 Y119.200 E3.46861
G1 X108.118 Y120.505 E3.57618
G1 X107.959 Y121.810 E3.68375
G1 X107.493 Y123.039 E3.79133
G1 X106.747 Y124.121 E3.89890
G1 X105.763 Y124.992 E4.00647
G1 X104.599 Y125.603 E4.11404
G1 X103.322 Y125.918 E4.22161
G1 X102.008 Y125.918 E4.32918
G1 X100.732 Y125.603 E4.43676
G1 X99.568 Y124.992 E4.54433
G1 X98.584 Y124.121 E4.65190
G1 X97.837 Y123.039 E4.75947
G1 X97.378 Y121.827 E4.86555
G1 X96.982 Y121.656 F4800.000
G1 X96.595 Y123.287 F4800.000
G1 F1800.000
G1 X96.722 Y123.624 E4.89502
G1 X97.642 Y124.955 E5.02743
G1 X98.853 Y126.028 E5.15984
G1 X99.904 Y126.580 E5.25704
G1 X99.689 Y126.893 E5.28810
G1 X99.401 Y127.650 E5.35442
G1 X99.304 Y128.455 E5.42074
G1 X99.401 Y129.259 E5.48706
G1 X99.646 Y129.905 E5.54358
G1 X79.265 Y129.905 E7.21151
G1 X79.265 Y111.105 E8.75008
G1 X99.646 Y111.105 E10.41801
G1 X99.401 Y111.750 E10.47453
G1 X99.304 Y112.555 E10.54085
G1 X99.401 Y113.359 E10.60717
G1 X99.689 Y114.117 E10.67348
G1 X99.904 Y114.429 E10.70455
G1 X98.853 Y114.981 E10.80175
G1 X97.642 Y116.054 E10.93416
G1 X96.722 Y117.386 E11.06657
G1 X96.595 Y117.723 E11.09604
G1 X95.907 Y117.362 E11.15958
G1 X95.120 Y117.168 E11.22590
G1 X94.310 Y117.168 E11.29222
G1 X93.523 Y117.362 E11.35854
G1 X92.806 Y117.738 E11.42486
G1 X92.199 Y118.276 E11.49117
G1 X91.739 Y118.943 E11.55749
G1 X91.451 Y119.700 E11.62381
G1 X91.354 Y120.505 E11.69013
G1 X91.451 Y121.309 E11.75645
G1 X91.739 Y122.067 E11.82277
G1 X92.199 Y122.734 E11.88908
G1 X92.806 Y123.271 E11.95540
G1 X93.523 Y123.648 E12.02172
G1 X94.310 Y123.842 E12.08804
G1 X95.120 Y123.842 E12.15436
G1 X95.907 Y123.648 E12.22068
G1 X96.542 Y123.315 E12.27931
G1 X96.861 Y122.227 F4800.000
G1 F1800.000
G1 X97.280 Y123.331 E12.37595
G1 X98.113 Y124.538 E12.49594
G1 X99.210 Y125.510 E12.61593
G1 X100.509 Y126.192 E12.73592
G1 X100.995 Y126.312 E12.77690
G1 X100.620 Y126.643 E12.81783
G1 X100.246 Y127.185 E12.87173
G1 X100.013 Y127.801 E12.92563
G1 X99.933 Y128.455 E12.97953
G1 X100.013 Y129.109 E13.03343
G1 X100.246 Y129.725 E13.08733
G1 X100.802 Y130.530 E13.16742
G1 X78.640 Y130.530 E14.98108
G1 X78.640 Y110.480 E16.62192
G1 X100.802 Y110.480 E18.43559
G1 X100.246 Y111.285 E18.51568
G1 X100.013 Y111.901 E18.56958
G1 X99.933 Y112.555 E18.62348
G1 X100.013 Y113.209 E18.67738
G1 X100.246 Y113.825 E18.73128
G1 X100.620 Y114.367 E18.78518
G1 X100.995 Y114.698 E18.82611
G1 X100.509 Y114.818 E18.86709
G1 X99.210 Y115.499 E18.98708
G1 X98.113 Y116.472 E19.10707
G1 X97.280 Y117.678 E19.22706
G1 X96.861 Y118.783 E19.32370
G1 X96.267 Y118.256 E19.38863
G1 X95.684 Y117.950 E19.44253
G1 X95.045 Y117.793 E19.49643
G1 X94.386 Y117.793 E19.55033
G1 X93.746 Y117.950 E19.60423
G1 X93.163 Y118.256 E19.65813
G1 X92.670 Y118.693 E19.71203
G1 X92.296 Y119.235 E19.76593
G1 X92.063 Y119.851 E19.81983
G1 X91.983 Y120.505 E19.87372
G1 X92.063 Y121.159 E19.92762
G1 X92.296 Y121.775 E19.98152
G1 X92.670 Y122.317 E20.03542
G1 X93.163 Y122.753 E20.08932
G1 X93.746 Y123.059 E20.14322
G1 X94.386 Y123.217 E20.19712
G1 X95.045 Y123.217 E20.25102
G1 X95.684 Y123.059 E20.30492
G1 X96.267 Y122.753 E20.35882
G1 X96.816 Y122.267 E20.41884
G1 E19.41884 F2400.00000
G92 E0
G1 X96.612 Y123.240 F4800.000
G1 X95.313 Y126.880 F4800.000
G1 X93.282 Y126.791 F4800.000
G1 X91.423 Y126.445 F4800.000
G1 X88.424 Y125.326 F4800.000
G1 X85.579 Y123.591 F4800.000
G1 X85.398 Y122.116 F4800.000
G1 X85.398 Y118.894 F4800.000
G1 X85.579 Y117.418 F4800.000
G1 X88.363 Y115.716 F4800.000
G1 X90.279 Y114.903 F4800.000
G1 X91.786 Y114.479 F4800.000
G1 X93.053 Y114.247 F4800.000
G1 X95.241 Y114.164 F4800.000
G1 X97.085 Y113.435 F4800.000
G1 X99.614 Y114.369 F4800.000
G1 X100.946 Y114.684 F4800.000
G1 X101.471 Y114.285 F4800.000
G1 E1.00000 F2400.00000
G1 F1800.000
G1 X101.091 Y113.949 E1.04148
G1 X100.804 Y113.532 E1.08296
G1 X100.624 Y113.058 E1.12444
G1 X100.563 Y112.555 E1.16592
G1 X100.624 Y112.052 E1.20740
G1 X100.804 Y111.578 E1.24888
G1 X101.091 Y111.161 E1.29037
G1 X101.471 Y110.825 E1.33185
G1 X101.920 Y110.589 E1.37333
G1 X102.412 Y110.468 E1.41481
G1 X102.919 Y110.468 E1.45629
G1 X103.411 Y110.589 E1.49777
G1 X103.860 Y110.825 E1.53925
G1 X104.239 Y111.161 E1.58073
G1 X104.527 Y111.578 E1.62221
G1 X104.707 Y112.052 E1.66369
G1 X104.768 Y112.555 E1.70517
G1 X104.707 Y113.058 E1.74665
G1 X104.527 Y113.532 E1.78814
G1 X104.239 Y113.949 E1.82962
G1 X103.860 Y114.285 E1.87110
G1 X103.411 Y114.521 E1.91258
G1 X102.919 Y114.642 E1.95406
G1 X102.412 Y114.642 E1.99554
G1 X101.920 Y114.521 E2.03702
G1 X101.524 Y114.313 E2.07359
G1 X101.471 Y114.285 F4800.000
G1 E1.07359 F2400.00000
G92 E0
G1 X100.946 Y114.684 F4800.000
G1 X109.224 Y119.273 F4800.000
G1 X108.854 Y119.382 F4800.000
G1 E1.00000 F2400.00000
G1 F1800.000
G1 X109.041 Y119.111 E1.02696
G1 X109.421 Y118.775 E1.06844
G1 X109.870 Y118.539 E1.10992
G1 X110.362 Y118.418 E1.15140
G1 X110.869 Y118.418 E1.19288
G1 X111.361 Y118.539 E1.23436
G1 X111.810 Y118.775 E1.27584
G1 X112.189 Y119.111 E1.31732
G1 X112.477 Y119.528 E1.35880
G1 X112.657 Y120.002 E1.40029
G1 X112.718 Y120.505 E1.44177
G1 X112.657 Y121.008 E1.48325
G1 X112.477 Y121.482 E1.52473
G1 X112.189 Y121.899 E1.56621
G1 X111.810 Y122.235 E1.60769
G1 X111.361 Y122.471 E1.64917
G1 X110.869 Y122.592 E1.69065
G1 X110.362 Y122.592 E1.73213
G1 X109.870 Y122.471 E1.77361
G1 X109.421 Y122.235 E1.81509
G1 X109.041 Y121.899 E1.85657
G1 X108.754 Y121.482 E1.89806
G1 X108.574 Y121.008 E1.93954
G1 X108.513 Y120.505 E1.98102
G1 X108.574 Y120.002 E2.02250
G1 X108.754 Y119.528 E2.06398
G1 X108.820 Y119.431 E2.07359
G1 X108.696 Y119.093 F4800.000
G1 X108.736 Y117.723 F4800.000
G1 F1800.000
G1 X108.608 Y117.386 E2.10307
G1 X107.689 Y116.054 E2.23547
G1 X106.478 Y114.981 E2.36788
G1 X105.426 Y114.429 E2.46509
G1 X105.642 Y114.117 E2.49615
G1 X105.929 Y113.359 E2.56247
G1 X106.027 Y112.555 E2.62878
G1 X105.929 Y111.750 E2.69510
G1 X105.684 Y111.105 E2.75162
G1 X126.065 Y111.105 E4.41956
G1 X126.065 Y129.905 E5.95812
G1 X105.684 Y129.905 E7.62606
G1 X105.929 Y129.259 E7.68258
G1 X106.027 Y128.455 E7.74889
G1 X105.929 Y127.650 E7.81521
G1 X105.642 Y126.893 E7.88153
G1 X105.426 Y126.580 E7.91259
G1 X106.478 Y126.028 E8.00979
G1 X107.689 Y124.955 E8.14220
G1 X108.608 Y123.624 E8.27461
G1 X108.736 Y123.287 E8.30409
G1 X109.423 Y123.648 E8.36763
G1 X110.210 Y123.842 E8.43395
G1 X111.020 Y123.842 E8.50027
G1 X111.807 Y123.648 E8.56658
G1 X112.525 Y123.271 E8.63290
G1 X113.131 Y122.734 E8.69922
G1 X113.592 Y122.067 E8.76554
G1 X113.879 Y121.309 E8.83186
G1 X113.977 Y120.505 E8.89818
G1 X113.879 Y119.700 E8.96449
G1 X113.592 Y118.943 E9.03081
G1 X113.131 Y118.276 E9.09713
G1 X112.525 Y117.738 E9.16345
G1 X111.807 Y117.362 E9.22977
G1 X111.020 Y117.168 E9.29609
G1 X110.210 Y117.168 E9.36240
G1 X109.423 Y117.362 E9.42872
G1 X108.789 Y117.695 E9.48735
G1 X108.469 Y118.783 F4800.000
G1 F1800.000
G1 X108.051 Y117.678 E9.58399
G1 X107.218 Y116.472 E9.70399
G1 X106.120 Y115.499 E9.82398
G1 X104.822 Y114.818 E9.94397
G1 X104.336 Y114.698 E9.98494
G1 X104.710 Y114.367 E10.02587
G1 X105.084 Y113.825 E10.07977
G1 X105.318 Y113.209 E10.13367
G1 X105.397 Y112.555 E10.18757
G1 X105.318 Y111.901 E10.24147
G1 X105.084 Y111.285 E10.29537
G1 X104.528 Y110.480 E10.37547
G1 X126.690 Y110.480 E12.18913
G1 X126.690 Y130.530 E13.82997
G1 X104.528 Y130.530 E15.64363
G1 X105.084 Y129.725 E15.72373
G1 X105.318 Y129.109 E15.77763
G1 X105.397 Y128.455 E15.83153
G1 X105.318 Y127.801 E15.88543
G1 X105.084 Y127.185 E15.93932
G1 X104.710 Y126.643 E15.99322
G1 X104.336 Y126.312 E16.03416
G1 X104.822 Y126.192 E16.07513
G1 X106.120 Y125.510 E16.19512
G1 X107.218 Y124.538 E16.31511
G1 X108.051 Y123.331 E16.43510
G1 X108.469 Y122.227 E16.53175
G1 X109.063 Y122.753 E16.59668
G1 X109.646 Y123.059 E16.65057
G1 X110.286 Y123.217 E16.70447
G1 X110.945 Y123.217 E16.75837
G1 X111.584 Y123.059 E16.81227
G1 X112.167 Y122.753 E16.86617
G1 X112.660 Y122.317 E16.92007
G1 X113.034 Y121.775 E16.97397
G1 X113.268 Y121.159 E17.02787
G1 X113.347 Y120.505 E17.08177
G1 X113.268 Y119.851 E17.13567
G1 X113.034 Y119.235 E17.18957
G1 X112.660 Y118.693 E17.24347
G1 X112.167 Y118.256 E17.29737
G1 X111.584 Y117.950 E17.35127
G1 X110.945 Y117.793 E17.40517
G1 X110.286 Y117.793 E17.45907
G1 X109.646 Y117.950 E17.51297
G1 X109.063 Y118.256 E17.56687
G1 X108.514 Y118.743 E17.62689
G1 E16.62689 F2400.00000
G92 E0
G1 X127.315 Y109.855 F4800.000
G1 E1.00000 F2400.00000
G1 F1800.000
G1 X127.315 Y131.155 E2.74312
G1 X78.015 Y131.155 E6.77767
G1 X78.015 Y109.855 E8.52079
G1 X127.255 Y109.855 E12.55042
G1 X127.164 Y110.225 F4800.000
G1 E11.55042 F2400.00000
G92 E0
G1 X125.374 Y129.347 F4800.000
G1 E1.00000 F2400.00000
G1 F1800.000
G1 X125.507 Y129.214 E1.01544
G1 X125.507 Y128.325 E1.08857
G1 X124.486 Y129.347 E1.20744
G1 X123.597 Y129.347 E1.28057
G1 X125.507 Y127.437 E1.50286
G1 X125.507 Y126.548 E1.57599
G1 X122.708 Y129.347 E1.90170
G1 X121.820 Y129.347 E1.97483
G1 X125.507 Y125.659 E2.40396
G1 X125.507 Y124.771 E2.47709
G1 X120.931 Y129.347 E3.00965
G1 X120.042 Y129.347 E3.08278
G1 X125.507 Y123.882 E3.71875
G1 X125.507 Y122.993 E3.79188
G1 X119.154 Y129.347 E4.53128
G1 X118.265 Y129.347 E4.60441
G1 X125.507 Y122.105 E5.44723
G1 X125.507 Y121.216 E5.52037
G1 X117.376 Y129.347 E6.46661
G1 X116.488 Y129.347 E6.53974
G1 X125.507 Y120.327 E7.58940
G1 X125.507 Y119.439 E7.66254
G1 X115.599 Y129.347 E8.81562
G1 X114.710 Y129.347 E8.88875
G1 X125.507 Y118.550 E10.14526
G1 X125.507 Y117.661 E10.21839
G1 X113.822 Y129.347 E11.57833
G1 X112.933 Y129.347 E11.65146
G1 X125.507 Y116.773 E13.11481
G1 X125.507 Y115.884 E13.18794
G1 X112.044 Y129.347 E14.75472
G1 X111.156 Y129.347 E14.82785
G1 X125.507 Y114.995 E16.49805
G1 X125.507 Y114.107 E16.57118
G1 X110.267 Y129.347 E18.34480
G1 X109.378 Y129.347 E18.41793
G1 X125.507 Y113.218 E20.29497
G1 X125.507 Y112.329 E20.36810
G1 X108.490 Y129.347 E22.34857
G1 X107.601 Y129.347 E22.42170
G1 X125.284 Y111.663 E24.47968
G1 X124.396 Y111.663 E24.55281
G1 X114.358 Y121.701 E25.72104
G1 X114.424 Y121.526 E25.73644
G1 X114.532 Y120.638 E25.81004
G1 X123.507 Y111.663 E26.85458
G1 X122.618 Y111.663 E26.92771
G1 X114.450 Y119.831 E27.87832
G1 X114.424 Y119.616 E27.89618
G1 X114.246 Y119.147 E27.93747
G1 X121.730 Y111.663 E28.80842
G1 X120.841 Y111.663 E28.88155
G1 X113.962 Y118.542 E29.68209
G1 X113.599 Y118.016 E29.73466
G1 X119.952 Y111.663 E30.47402
G1 X119.064 Y111.663 E30.54715
G1 X113.147 Y117.580 E31.23572
G1 X112.816 Y117.287 E31.27211
G1 X112.643 Y117.196 E31.28823
G1 X118.175 Y111.663 E31.93209
G1 X117.286 Y111.663 E32.00522
G1 X112.060 Y116.890 E32.61348
G1 X111.964 Y116.840 E32.62237
G1 X111.368 Y116.693 E32.67288
G1 X116.398 Y111.663 E33.25820
G1 X115.509 Y111.663 E33.33133
G1 X110.563 Y116.609 E33.90695
G1 X110.068 Y116.609 E33.94769
G1 X109.546 Y116.738 E33.99196
G1 X114.620 Y111.663 E34.58256
G1 X113.732 Y111.663 E34.65569
G1 X108.746 Y116.649 E35.23589
G1 X108.383 Y116.123 E35.28846
G1 X112.843 Y111.663 E35.80747
G1 X111.954 Y111.663 E35.88060
G1 X107.999 Y115.619 E36.34097
G1 X107.528 Y115.202 E36.39278
G1 X111.066 Y111.663 E36.80456
G1 X110.177 Y111.663 E36.87769
G1 X107.056 Y114.784 E37.24089
G1 X106.769 Y114.530 E37.27247
G1 X106.542 Y114.410 E37.29362
G1 X109.288 Y111.663 E37.61331
G1 X108.400 Y111.663 E37.68644
G1 X106.466 Y113.597 E37.91148
G1 X106.586 Y112.588 E37.99505
G1 X107.511 Y111.663 E38.10272
G1 X106.622 Y111.663 E38.17585
G1 X106.490 Y111.796 E38.19128
G1 E37.19128 F2400.00000
G92 E0
G1 X109.105 Y124.288 F4800.000
G1 E1.00000 F2400.00000
G1 F1800.000
G1 X108.946 Y124.204 E1.01478
G1 X108.406 Y124.987 E1.09306
G1 X109.238 Y124.155 E1.18988
G1 X109.944 Y124.337 E1.24993
G1 X106.500 Y127.781 E1.65075
G1 X106.590 Y128.521 E1.71207
G1 X106.582 Y128.588 E1.71765
G1 X110.770 Y124.401 E2.20505
G1 X111.163 Y124.401 E2.23738
G1 X111.821 Y124.238 E2.29315
G1 X106.712 Y129.347 E2.88764
G1 E1.88764 F2400.00000
G92 E0
G1 X106.296 Y127.097 F4800.000
G1 E1.00000 F2400.00000
G1 F1800.000
G1 X106.999 Y126.394 E1.08183
G1 X108.226 Y125.307 E1.21675
G1 X108.538 Y124.855 E1.26194
G1 E0.26194 F2400.00000
G92 E0
G1 X108.603 Y121.878 F4800.000
G1 E1.00000 F2400.00000
G1 F1800.000
G1 X108.406 Y121.655 E1.00147
G1 F1800.000
G1 X108.310 Y121.516 E1.00352
G1 E0.00352 F2400.00000
G92 E0
G1 X108.310 Y119.494 F4800.000
G1 E1.00000 F2400.00000
G1 F1800.000
G1 X108.406 Y119.355 E1.00205
G1 F1800.000
G1 X108.603 Y119.131 E1.00352
G1 E0.00352 F2400.00000
G92 E0
G1 X104.271 Y110.723 F4800.000
G1 E1.00000 F2400.00000
G1 F1800.000
G1 X103.740 Y110.167 E1.00379
G1 X104.042 Y110.325 F4800.000
G1 F1800.000
G1 X103.310 Y110.204 E1.00961
G1 X102.020 Y110.204 F4800.000
G1 F1800.000
G1 X101.289 Y110.325 E1.01486
G1 X101.591 Y110.167 F4800.000
G1 F1800.000
G1 X101.059 Y110.723 E1.02219
G1 E0.02219 F2400.00000
G92 E0
G1 X96.728 Y119.131 F4800.000
G1 E1.00000 F2400.00000
G1 F1800.000
G1 X96.821 Y119.236 E1.00069
G1 F1800.000
G1 X97.021 Y119.494 E1.00466
G1 E0.00466 F2400.00000
G92 E0
G1 X97.021 Y121.516 F4800.000
G1 E1.00000 F2400.00000
G1 F1800.000
G1 X96.821 Y121.773 E1.00397
G1 F1800.000
G1 X96.728 Y121.878 E1.00466
G1 E0.00466 F2400.00000
G92 E0
G1 X96.093 Y116.855 F4800.000
G1 E1.00000 F2400.00000
G1 F1800.000
G1 X96.925 Y116.023 E1.09680
G1 X96.384 Y116.805 E1.17507
G1 X96.225 Y116.722 E1.18984
G1 E0.18984 F2400.00000
G92 E0
