; generated by Slic3r 1.3.0 on 2019-06-14 at 22:35:28

; Printer Config Notes: 
; ""
; 
; external perimeters extrusion width = 0.44mm (1.19mm^3/s)
; perimeters extrusion width = 0.56mm (3.10mm^3/s)
; infill extrusion width = 0.50mm (5.48mm^3/s)
; solid infill extrusion width = 0.56mm (2.07mm^3/s)
; top infill extrusion width = 0.56mm (1.55mm^3/s)

;G28 ; home all axes
G1 Z5 F5000 ; lift nozzle
; Filament gcode

G21 ; set units to millimeters
G90 ; use absolute coordinates
M82 ; use absolute distances for extrusion
G92 E0
G1 Z0.400 F4800.000
G1 E-1.00000 F2400.00000
G92 E0
G1 X51.745 Y77.460 F4800.000
G1 E1.00000 F2400.00000
G1 F1800
G1 X51.897 Y77.364 E1.00626
G1 X53.655 Y76.518 E1.07441
G1 X53.824 Y76.458 E1.08067
G1 X55.726 Y76.024 E1.14883
G1 X56.880 Y75.949 E1.18921
G1 X104.880 Y75.949 E2.86574
G1 X106.034 Y76.024 E2.90612
G1 X107.936 Y76.458 E2.97427
G1 X108.105 Y76.518 E2.98053
G1 X109.863 Y77.364 E3.04869
G1 X110.015 Y77.460 E3.05495
G1 X111.540 Y78.676 E3.12310
G1 X111.667 Y78.803 E3.12936
G1 X112.943 Y80.423 E3.20140
G1 X113.826 Y82.238 E3.27189
G1 X113.885 Y82.407 E3.27814
G1 X114.319 Y84.310 E3.34631
G1 X114.339 Y84.488 E3.35256
G1 X114.394 Y85.464 E3.38669
G1 X114.394 Y105.464 E4.08525
G1 X114.319 Y106.617 E4.12562
G1 X113.885 Y108.520 E4.19378
G1 X113.826 Y108.689 E4.20004
G1 X112.979 Y110.447 E4.26820
G1 X112.884 Y110.599 E4.27446
G1 X111.667 Y112.124 E4.34261
G1 X111.541 Y112.251 E4.34886
G1 X110.015 Y113.468 E4.41703
G1 X109.863 Y113.563 E4.42328
G1 X108.105 Y114.409 E4.49143
G1 X107.936 Y114.469 E4.49769
G1 X106.033 Y114.903 E4.56585
G1 X104.880 Y114.978 E4.60623
G1 X56.880 Y114.978 E6.28276
G1 X55.726 Y114.903 E6.32314
G1 X53.824 Y114.469 E6.39130
G1 X53.654 Y114.409 E6.39757
G1 X51.897 Y113.563 E6.46571
G1 X51.745 Y113.468 E6.47197
G1 X50.140 Y112.172 E6.54401
G1 X48.876 Y110.599 E6.61450
G1 X48.781 Y110.447 E6.62076
G1 X47.934 Y108.689 E6.68891
G1 X47.875 Y108.520 E6.69517
G1 X47.441 Y106.617 E6.76332
G1 X47.366 Y105.464 E6.80371
G1 X47.366 Y85.464 E7.50226
G1 X47.441 Y84.310 E7.54264
G1 X47.875 Y82.407 E7.61080
G1 X47.934 Y82.238 E7.61706
G1 X48.781 Y80.480 E7.68521
G1 X48.876 Y80.328 E7.69147
G1 X50.092 Y78.803 E7.75962
G1 X50.219 Y78.676 E7.76589
G1 X51.698 Y77.497 E7.83194
G1 X52.966 Y78.551 F4800.000
G1 F1800
G1 X53.430 Y78.031 E7.85672
G1 X56.293 Y77.709 E7.95922
G1 X56.684 Y77.687 E7.97314
G1 X105.076 Y77.687 E9.69437
G1 X105.466 Y77.709 E9.70830
G1 X106.228 Y77.795 E9.73557
G1 X106.992 Y77.969 E9.76344
G1 X107.901 Y78.287 E9.79768
G1 X108.607 Y78.627 E9.82556
G1 X109.422 Y79.139 E9.85981
G1 X110.035 Y79.628 E9.88768
G1 X110.716 Y80.308 E9.92191
G1 X111.204 Y80.921 E9.94979
G1 X111.716 Y81.736 E9.98404
G1 X112.056 Y82.442 E10.01191
G1 X112.374 Y83.351 E10.04615
G1 X112.549 Y84.115 E10.07403
G1 X112.635 Y84.877 E10.10130
G1 X112.657 Y85.268 E10.11522
G1 X112.657 Y105.659 E10.84053
G1 X112.635 Y106.050 E10.85445
G1 X112.549 Y106.812 E10.88172
G1 X112.374 Y107.576 E10.90959
G1 X112.056 Y108.485 E10.94384
G1 X111.716 Y109.191 E10.97172
G1 X111.204 Y110.006 E11.00595
G1 X110.716 Y110.619 E11.03383
G1 X110.035 Y111.299 E11.06807
G1 X109.422 Y111.788 E11.09594
G1 X108.607 Y112.300 E11.13019
G1 X107.901 Y112.640 E11.15806
G1 X106.992 Y112.958 E11.19230
G1 X106.228 Y113.132 E11.22018
G1 X105.466 Y113.218 E11.24745
G1 X105.076 Y113.240 E11.26137
G1 X56.684 Y113.240 E12.98261
G1 X56.293 Y113.218 E12.99654
G1 X55.531 Y113.132 E13.02381
G1 X54.767 Y112.958 E13.05168
G1 X53.858 Y112.640 E13.08593
G1 X53.153 Y112.300 E13.11380
G1 X52.338 Y111.788 E13.14804
G1 X51.725 Y111.299 E13.17591
G1 X51.369 Y110.943 E13.19383
G1 X51.044 Y110.618 E13.21016
G1 X50.555 Y110.006 E13.23803
G1 X50.043 Y109.191 E13.27228
G1 X49.703 Y108.485 E13.30015
G1 X49.385 Y107.576 E13.33439
G1 X49.211 Y106.812 E13.36226
G1 X49.125 Y106.050 E13.38954
G1 X49.103 Y105.659 E13.40346
G1 X49.103 Y85.268 E14.12876
G1 X49.125 Y84.877 E14.14268
G1 X49.448 Y82.014 E14.24518
G1 X50.388 Y81.173 E14.29006
G1 X50.555 Y80.921 E14.30081
G1 X51.044 Y80.309 E14.32868
G1 X51.725 Y79.628 E14.36292
G1 X52.337 Y79.139 E14.39080
G1 X52.589 Y78.972 E14.40154
G1 X52.926 Y78.595 E14.41951
G1 X53.508 Y79.035 F4800.000
G1 F1800
G1 X53.787 Y78.723 E14.43441
G1 X56.355 Y78.434 E14.52631
G1 X56.705 Y78.414 E14.53878
G1 X105.055 Y78.414 E16.25856
G1 X105.405 Y78.434 E16.27103
G1 X106.106 Y78.513 E16.29613
G1 X106.791 Y78.669 E16.32110
G1 X107.622 Y78.960 E16.35243
G1 X108.255 Y79.264 E16.37740
G1 X109.001 Y79.733 E16.40874
G1 X109.550 Y80.171 E16.43371
G1 X110.172 Y80.794 E16.46504
G1 X110.610 Y81.343 E16.49001
G1 X111.079 Y82.089 E16.52135
G1 X111.383 Y82.721 E16.54632
G1 X111.674 Y83.553 E16.57765
G1 X111.831 Y84.237 E16.60262
G1 X111.910 Y84.938 E16.62772
G1 X111.929 Y85.288 E16.64019
G1 X111.929 Y105.639 E17.36404
G1 X111.910 Y105.989 E17.37652
G1 X111.831 Y106.690 E17.40160
G1 X111.674 Y107.374 E17.42657
G1 X111.383 Y108.206 E17.45792
G1 X111.079 Y108.839 E17.48289
G1 X110.610 Y109.584 E17.51422
G1 X110.173 Y110.133 E17.53919
G1 X109.550 Y110.756 E17.57052
G1 X109.001 Y111.194 E17.59549
G1 X108.255 Y111.663 E17.62683
G1 X107.622 Y111.967 E17.65180
G1 X106.791 Y112.258 E17.68313
G1 X106.106 Y112.414 E17.70810
G1 X105.405 Y112.493 E17.73320
G1 X105.055 Y112.513 E17.74567
G1 X56.705 Y112.513 E19.46546
G1 X56.354 Y112.493 E19.47793
G1 X55.653 Y112.414 E19.50302
G1 X54.969 Y112.258 E19.52799
G1 X54.137 Y111.967 E19.55933
G1 X53.505 Y111.663 E19.58430
G1 X52.759 Y111.194 E19.61563
G1 X52.210 Y110.756 E19.64060
G1 X51.883 Y110.429 E19.65707
G1 X51.587 Y110.133 E19.67194
G1 X51.149 Y109.584 E19.69691
G1 X50.681 Y108.838 E19.72825
G1 X50.376 Y108.206 E19.75321
G1 X50.085 Y107.374 E19.78455
G1 X49.929 Y106.690 E19.80952
G1 X49.850 Y105.989 E19.83461
G1 X49.830 Y105.639 E19.84708
G1 X49.830 Y85.288 E20.57094
G1 X49.850 Y84.938 E20.58340
G1 X50.139 Y82.371 E20.67530
G1 X50.950 Y81.647 E20.71396
G1 X51.150 Y81.343 E20.72690
G1 X51.587 Y80.794 E20.75187
G1 X52.210 Y80.171 E20.78321
G1 X52.759 Y79.733 E20.80817
G1 X53.063 Y79.533 E20.82112
G1 X53.468 Y79.080 E20.84274
G1 X54.050 Y79.520 F4800.000
G1 F1800
G1 X54.145 Y79.414 E20.84777
G1 X56.416 Y79.159 E20.92906
G1 X56.725 Y79.141 E20.94008
G1 X105.035 Y79.141 E22.65841
G1 X105.984 Y79.231 E22.69234
G1 X106.589 Y79.369 E22.71440
G1 X107.343 Y79.633 E22.74283
G1 X107.902 Y79.902 E22.76489
G1 X108.579 Y80.327 E22.79333
G1 X109.064 Y80.714 E22.81539
G1 X109.629 Y81.279 E22.84382
G1 X110.016 Y81.764 E22.86588
G1 X110.441 Y82.441 E22.89432
G1 X110.710 Y83.000 E22.91638
G1 X110.974 Y83.754 E22.94481
G1 X111.113 Y84.359 E22.96687
G1 X111.185 Y84.999 E22.98979
G1 X111.202 Y85.309 E23.00081
G1 X111.202 Y105.618 E23.72321
G1 X111.113 Y106.568 E23.75713
G1 X110.975 Y107.173 E23.77919
G1 X110.710 Y107.927 E23.80763
G1 X110.441 Y108.486 E23.82969
G1 X110.016 Y109.163 E23.85812
G1 X109.629 Y109.648 E23.88018
G1 X109.064 Y110.213 E23.90862
G1 X108.579 Y110.600 E23.93068
G1 X107.902 Y111.025 E23.95911
G1 X107.344 Y111.294 E23.98117
G1 X106.589 Y111.558 E24.00960
G1 X105.984 Y111.696 E24.03167
G1 X105.035 Y111.786 E24.06559
G1 X56.725 Y111.786 E25.78393
G1 X55.775 Y111.696 E25.81785
G1 X55.171 Y111.558 E25.83991
G1 X54.416 Y111.294 E25.86835
G1 X53.857 Y111.025 E25.89041
G1 X53.181 Y110.600 E25.91884
G1 X52.696 Y110.213 E25.94090
G1 X52.130 Y109.648 E25.96934
G1 X51.744 Y109.163 E25.99140
G1 X51.318 Y108.486 E26.01983
G1 X51.049 Y107.927 E26.04189
G1 X50.785 Y107.173 E26.07032
G1 X50.647 Y106.568 E26.09239
G1 X50.558 Y105.618 E26.12631
G1 X50.558 Y85.309 E26.84871
G1 X50.575 Y84.999 E26.85973
G1 X50.831 Y82.728 E26.94102
G1 X51.511 Y82.121 E26.97346
G1 X51.744 Y81.764 E26.98860
G1 X52.130 Y81.279 E27.01066
G1 X52.696 Y80.714 E27.03910
G1 X53.180 Y80.327 E27.06116
G1 X53.537 Y80.094 E27.07630
G1 X54.010 Y79.565 E27.10157
G1 X54.502 Y80.106 F4800.000
G1 F1800
G1 X56.477 Y79.884 E27.17226
G1 X56.745 Y79.869 E27.18183
G1 X105.014 Y79.869 E28.89871
G1 X105.862 Y79.949 E28.92901
G1 X106.387 Y80.069 E28.94817
G1 X107.065 Y80.306 E28.97369
G1 X107.550 Y80.539 E28.99285
G1 X108.158 Y80.921 E29.01838
G1 X108.579 Y81.257 E29.03754
G1 X109.086 Y81.765 E29.06306
G1 X109.422 Y82.186 E29.08221
G1 X109.804 Y82.793 E29.10775
G1 X110.038 Y83.279 E29.12690
G1 X110.275 Y83.956 E29.15243
G1 X110.394 Y84.481 E29.17158
G1 X110.460 Y85.060 E29.19232
G1 X110.475 Y85.329 E29.20189
G1 X110.475 Y105.598 E29.92284
G1 X110.394 Y106.446 E29.95313
G1 X110.275 Y106.971 E29.97229
G1 X110.037 Y107.649 E29.99782
G1 X109.804 Y108.134 E30.01698
G1 X109.422 Y108.741 E30.04250
G1 X109.086 Y109.162 E30.06166
G1 X108.579 Y109.670 E30.08718
G1 X108.158 Y110.006 E30.10634
G1 X107.550 Y110.388 E30.13187
G1 X107.065 Y110.621 E30.15102
G1 X106.387 Y110.858 E30.17655
G1 X105.862 Y110.978 E30.19571
G1 X105.014 Y111.058 E30.22601
G1 X56.745 Y111.058 E31.94289
G1 X55.897 Y110.978 E31.97318
G1 X55.372 Y110.858 E31.99234
G1 X54.695 Y110.621 E32.01787
G1 X54.210 Y110.388 E32.03703
G1 X53.602 Y110.006 E32.06255
G1 X53.181 Y109.670 E32.08171
G1 X52.673 Y109.162 E32.10724
G1 X52.338 Y108.741 E32.12639
G1 X51.956 Y108.134 E32.15192
G1 X51.722 Y107.648 E32.17108
G1 X51.485 Y106.971 E32.19660
G1 X51.365 Y106.446 E32.21576
G1 X51.285 Y105.598 E32.24606
G1 X51.285 Y85.329 E32.96701
G1 X51.300 Y85.060 E32.97657
G1 X51.522 Y83.086 E33.04726
G1 X52.072 Y82.594 E33.07348
G1 X52.338 Y82.186 E33.09082
G1 X52.673 Y81.765 E33.10997
G1 X53.181 Y81.257 E33.13550
G1 X53.602 Y80.921 E33.15466
G1 X54.011 Y80.656 E33.17200
G1 X54.462 Y80.151 E33.19608
G1 X54.859 Y80.798 F4800.000
G1 F1800
G1 X56.766 Y80.596 E33.26428
G1 X104.994 Y80.596 E34.97971
G1 X105.740 Y80.667 E35.00637
G1 X106.186 Y80.769 E35.02263
G1 X106.786 Y80.979 E35.04524
G1 X107.198 Y81.177 E35.06150
G1 X107.736 Y81.515 E35.08412
G1 X108.093 Y81.800 E35.10037
G1 X108.543 Y82.250 E35.12299
G1 X108.828 Y82.607 E35.13924
G1 X109.166 Y83.146 E35.16187
G1 X109.365 Y83.557 E35.17812
G1 X109.575 Y84.158 E35.20074
G1 X109.676 Y84.603 E35.21699
G1 X109.735 Y85.122 E35.23555
G1 X109.747 Y85.349 E35.24366
G1 X109.747 Y105.578 E35.96316
G1 X109.676 Y106.324 E35.98983
G1 X109.575 Y106.769 E36.00608
G1 X109.365 Y107.370 E36.02870
G1 X109.166 Y107.781 E36.04496
G1 X108.828 Y108.320 E36.06757
G1 X108.543 Y108.677 E36.08383
G1 X108.093 Y109.127 E36.10645
G1 X107.736 Y109.412 E36.12270
G1 X107.198 Y109.750 E36.14532
G1 X106.786 Y109.948 E36.16157
G1 X106.186 Y110.158 E36.18419
G1 X105.740 Y110.260 E36.20044
G1 X104.994 Y110.331 E36.22711
G1 X56.766 Y110.331 E37.94254
G1 X56.019 Y110.260 E37.96921
G1 X55.574 Y110.158 E37.98546
G1 X54.974 Y109.948 E38.00809
G1 X54.562 Y109.750 E38.02433
G1 X54.024 Y109.412 E38.04695
G1 X53.666 Y109.127 E38.06320
G1 X53.217 Y108.677 E38.08583
G1 X52.932 Y108.320 E38.10208
G1 X52.593 Y107.781 E38.12470
G1 X52.395 Y107.370 E38.14095
G1 X52.185 Y106.769 E38.16357
G1 X52.083 Y106.324 E38.17982
G1 X52.025 Y105.806 E38.19838
G1 X52.012 Y105.578 E38.20650
G1 X52.012 Y85.349 E38.92600
G1 X52.214 Y83.443 E38.99419
G1 X52.633 Y83.068 E39.01419
G1 X52.932 Y82.607 E39.03373
G1 X53.217 Y82.250 E39.04997
G1 X53.666 Y81.800 E39.07260
G1 X54.024 Y81.515 E39.08885
G1 X54.444 Y81.251 E39.10650
G1 X54.819 Y80.842 E39.12625
G1 X55.216 Y81.489 F4800.000
G1 F1800
G1 X56.786 Y81.323 E39.18239
G1 X104.974 Y81.323 E40.89637
G1 X105.618 Y81.385 E40.91941
G1 X105.984 Y81.469 E40.93276
G1 X106.507 Y81.652 E40.95247
G1 X106.845 Y81.815 E40.96582
G1 X107.315 Y82.110 E40.98554
G1 X107.608 Y82.343 E40.99888
G1 X108.000 Y82.735 E41.01859
G1 X108.234 Y83.029 E41.03194
G1 X108.529 Y83.498 E41.05166
G1 X108.692 Y83.836 E41.06500
G1 X108.875 Y84.359 E41.08472
G1 X108.958 Y84.725 E41.09806
G1 X109.010 Y85.183 E41.11444
G1 X109.020 Y105.557 E41.83915
G1 X108.958 Y106.202 E41.86218
G1 X108.875 Y106.568 E41.87553
G1 X108.692 Y107.091 E41.89525
G1 X108.529 Y107.429 E41.90859
G1 X108.234 Y107.898 E41.92831
G1 X108.000 Y108.192 E41.94165
G1 X107.608 Y108.584 E41.96137
G1 X107.315 Y108.818 E41.97472
G1 X106.845 Y109.112 E41.99443
G1 X106.507 Y109.275 E42.00778
G1 X105.984 Y109.458 E42.02749
G1 X105.618 Y109.542 E42.04084
G1 X104.974 Y109.604 E42.06388
G1 X56.786 Y109.604 E43.77786
G1 X56.141 Y109.542 E43.80090
G1 X55.776 Y109.458 E43.81424
G1 X55.252 Y109.275 E43.83396
G1 X54.914 Y109.112 E43.84730
G1 X54.445 Y108.818 E43.86702
G1 X54.152 Y108.584 E43.88036
G1 X53.760 Y108.192 E43.90008
G1 X53.526 Y107.898 E43.91343
G1 X53.231 Y107.429 E43.93314
G1 X53.068 Y107.091 E43.94649
G1 X52.885 Y106.568 E43.96620
G1 X52.802 Y106.202 E43.97955
G1 X52.750 Y105.744 E43.99593
G1 X52.739 Y85.370 E44.72063
G1 X52.906 Y83.800 E44.77678
G1 X53.194 Y83.542 E44.79055
G1 X53.526 Y83.029 E44.81229
G1 X53.760 Y82.735 E44.82563
G1 X54.152 Y82.343 E44.84535
G1 X54.445 Y82.109 E44.85869
G1 X54.917 Y81.813 E44.87854
G1 X55.176 Y81.534 E44.89207
G1 X55.574 Y82.181 F4800.000
G1 F1800
G1 X56.807 Y82.050 E44.93616
G1 X104.953 Y82.050 E46.64869
G1 X105.496 Y82.103 E46.66810
G1 X105.782 Y82.169 E46.67854
G1 X106.228 Y82.325 E46.69535
G1 X106.493 Y82.452 E46.70579
G1 X106.893 Y82.704 E46.72260
G1 X107.123 Y82.887 E46.73304
G1 X107.457 Y83.221 E46.74985
G1 X107.640 Y83.450 E46.76029
G1 X107.891 Y83.850 E46.77711
G1 X108.019 Y84.115 E46.78754
G1 X108.175 Y84.561 E46.80436
G1 X108.240 Y84.847 E46.81480
G1 X108.285 Y85.244 E46.82900
G1 X108.293 Y105.537 E47.55080
G1 X108.240 Y106.080 E47.57021
G1 X108.175 Y106.366 E47.58065
G1 X108.019 Y106.812 E47.59746
G1 X107.891 Y107.077 E47.60790
G1 X107.640 Y107.477 E47.62471
G1 X107.457 Y107.706 E47.63515
G1 X107.123 Y108.040 E47.65196
G1 X106.893 Y108.223 E47.66240
G1 X106.493 Y108.475 E47.67921
G1 X106.229 Y108.602 E47.68965
G1 X105.782 Y108.758 E47.70646
G1 X105.496 Y108.824 E47.71690
G1 X104.953 Y108.877 E47.73631
G1 X56.807 Y108.877 E49.44884
G1 X56.263 Y108.824 E49.46825
G1 X55.977 Y108.758 E49.47869
G1 X55.531 Y108.602 E49.49550
G1 X55.267 Y108.475 E49.50594
G1 X54.867 Y108.224 E49.52275
G1 X54.637 Y108.041 E49.53319
G1 X54.303 Y107.706 E49.55000
G1 X54.120 Y107.477 E49.56044
G1 X53.868 Y107.077 E49.57725
G1 X53.741 Y106.812 E49.58769
G1 X53.585 Y106.366 E49.60450
G1 X53.520 Y106.080 E49.61494
G1 X53.475 Y105.683 E49.62914
G1 X53.467 Y85.390 E50.35095
G1 X53.597 Y84.157 E50.39504
G1 X53.785 Y83.990 E50.40400
G1 X54.120 Y83.450 E50.42658
G1 X54.303 Y83.221 E50.43702
G1 X54.637 Y82.887 E50.45383
G1 X54.867 Y82.704 E50.46427
G1 X55.346 Y82.414 E50.48419
G1 X55.534 Y82.226 E50.49365
G1 X55.931 Y82.873 F4800.000
G1 F1800
G1 X56.827 Y82.778 E50.52570
G1 X104.933 Y82.778 E52.23677
G1 X105.374 Y82.821 E52.25256
G1 X105.581 Y82.869 E52.26009
G1 X105.950 Y82.998 E52.27399
G1 X106.141 Y83.090 E52.28153
G1 X106.472 Y83.298 E52.29544
G1 X106.637 Y83.430 E52.30297
G1 X106.914 Y83.706 E52.31687
G1 X107.046 Y83.872 E52.32441
G1 X107.254 Y84.203 E52.33832
G1 X107.346 Y84.394 E52.34585
G1 X107.475 Y84.763 E52.35975
G1 X107.522 Y84.969 E52.36729
G1 X107.560 Y85.305 E52.37931
G1 X107.566 Y105.516 E53.09821
G1 X107.522 Y105.958 E53.11399
G1 X107.475 Y106.164 E53.12153
G1 X107.346 Y106.533 E53.13543
G1 X107.254 Y106.724 E53.14297
G1 X107.046 Y107.055 E53.15687
G1 X106.914 Y107.221 E53.16441
G1 X106.637 Y107.497 E53.17831
G1 X106.472 Y107.629 E53.18585
G1 X106.141 Y107.837 E53.19975
G1 X105.950 Y107.929 E53.20729
G1 X105.581 Y108.058 E53.22119
G1 X105.374 Y108.106 E53.22873
G1 X104.933 Y108.149 E53.24451
G1 X56.827 Y108.149 E54.95559
G1 X56.385 Y108.106 E54.97137
G1 X56.179 Y108.058 E54.97890
G1 X55.810 Y107.929 E54.99281
G1 X55.619 Y107.837 E55.00034
G1 X55.288 Y107.629 E55.01425
G1 X55.122 Y107.497 E55.02178
G1 X54.846 Y107.221 E55.03569
G1 X54.714 Y107.055 E55.04322
G1 X54.506 Y106.724 E55.05713
G1 X54.414 Y106.533 E55.06466
G1 X54.285 Y106.164 E55.07857
G1 X54.238 Y105.958 E55.08610
G1 X54.200 Y105.622 E55.09812
G1 X54.194 Y85.411 E55.81702
G1 X54.289 Y84.515 E55.84907
G1 X54.423 Y84.375 E55.85594
G1 X54.506 Y84.203 E55.86276
G1 X54.714 Y83.872 E55.87666
G1 X54.846 Y83.706 E55.88420
G1 X55.122 Y83.430 E55.89810
G1 X55.288 Y83.298 E55.90564
G1 X55.619 Y83.090 E55.91954
G1 X55.792 Y83.007 E55.92635
G1 X55.891 Y82.917 E55.93110
G1 X56.288 Y83.564 F4800.000
G1 F1800
