; generated by Slic3r 1.3.0 on 2019-06-16 at 06:20:08

; Printer Config Notes: 
; ""
; 
; external perimeters extrusion width = 0.44mm (1.19mm^3/s)
; perimeters extrusion width = 0.56mm (3.10mm^3/s)
; infill extrusion width = 0.50mm (5.48mm^3/s)
; solid infill extrusion width = 0.56mm (2.07mm^3/s)
; top infill extrusion width = 0.56mm (1.55mm^3/s)

;G28 ; home all axes
G1 Z5 F5000 ; lift nozzle
; Filament gcode

G21 ; set units to millimeters
G90 ; use absolute coordinates
M82 ; use absolute distances for extrusion
G92 E0
G1 Z0.400 F4800.000
G1 E-1.00000 F2400.00000
G92 E0
G1 X60.454 Y69.625 F4800.000
G1 E1.00000 F2400.00000
G1 F1800
G1 X62.753 Y68.342 E1.09196
G1 X65.804 Y67.790 E1.20024
G1 X100.304 Y67.790 E2.40524
G1 X102.906 Y68.188 E2.49720
G1 X105.271 Y69.345 E2.58915
G1 X107.183 Y71.155 E2.68111
G1 X108.466 Y73.454 E2.77307
G1 X109.011 Y76.152 E2.86922
G1 X109.998 Y100.573 E3.72288
G1 X110.005 Y106.925 E3.94474
G1 X109.914 Y108.183 E3.98877
G1 X108.164 Y120.183 E4.41234
G1 X107.395 Y122.700 E4.50430
G1 X105.909 Y124.874 E4.59625
G1 X103.438 Y126.719 E4.70396
G1 X95.438 Y130.719 E5.01637
G1 X92.932 Y131.527 E5.10832
G1 X91.541 Y131.639 E5.15708
G1 X76.541 Y131.639 E5.68100
G1 X73.938 Y131.241 E5.77295
G1 X72.644 Y130.719 E5.82171
G1 X64.644 Y126.719 E6.13411
G1 X62.494 Y125.200 E6.22607
G1 X60.896 Y123.107 E6.31802
G1 X59.918 Y120.183 E6.42574
G1 X58.168 Y108.183 E6.84930
G1 X58.084 Y107.277 E6.88107
G1 X57.097 Y82.856 E7.73472
G1 X57.090 Y76.504 E7.95658
G1 X57.487 Y73.902 E8.04854
G1 X58.644 Y71.537 E8.14049
G1 X60.413 Y69.669 E8.23035
G1 X61.635 Y70.806 F4800.000
G1 F1800
G1 X62.914 Y69.528 E8.29467
G1 X103.194 Y69.528 E9.72738
G1 X107.281 Y73.615 E9.93296
G1 X107.281 Y83.772 E10.29424
G1 X106.389 Y86.145 E10.38441
G1 X105.579 Y87.070 E10.42814
G1 X105.531 Y87.200 E10.43307
G1 X105.531 Y95.216 E10.71819
G1 X105.589 Y95.356 E10.72359
G1 X108.268 Y98.035 E10.85835
G1 X108.268 Y108.192 E11.21964
G1 X107.376 Y110.565 E11.30980
G1 X106.566 Y111.491 E11.35353
G1 X106.518 Y111.621 E11.35847
G1 X106.518 Y121.815 E11.72107
G1 X102.431 Y125.902 E11.92665
G1 X98.021 Y125.902 E12.08352
G1 X97.848 Y125.997 E12.09054
G1 X96.501 Y128.153 E12.18093
G1 X93.345 Y129.902 E12.30928
G1 X74.737 Y129.902 E12.97116
G1 X71.581 Y128.153 E13.09950
G1 X70.234 Y125.997 E13.18989
G1 X70.061 Y125.902 E13.19692
G1 X65.651 Y125.902 E13.35378
G1 X61.564 Y121.815 E13.55936
G1 X61.564 Y111.621 E13.92196
G1 X61.515 Y111.491 E13.92690
G1 X60.706 Y110.565 E13.97063
G1 X59.814 Y108.192 E14.06079
G1 X59.814 Y98.035 E14.42208
G1 X60.519 Y97.330 E14.45753
G1 X60.577 Y97.190 E14.46293
G1 X60.577 Y87.200 E14.81827
G1 X60.528 Y87.070 E14.82321
G1 X59.719 Y86.145 E14.86694
G1 X58.827 Y83.772 E14.95710
G1 X58.827 Y73.615 E15.31839
G1 X61.593 Y70.849 E15.45752
G1 X62.150 Y71.320 F4800.000
G1 F1800
G1 X63.215 Y70.255 E15.51112
G1 X102.892 Y70.255 E16.92240
G1 X106.553 Y73.916 E17.10655
G1 X106.553 Y83.640 E17.45242
G1 X105.755 Y85.765 E17.53319
G1 X104.852 Y86.797 E17.58194
G1 X104.803 Y86.927 E17.58687
G1 X104.803 Y95.517 E17.89242
G1 X104.861 Y95.657 E17.89783
G1 X107.540 Y98.336 E18.03259
G1 X107.540 Y108.060 E18.37846
G1 X106.742 Y110.186 E18.45922
G1 X105.839 Y111.217 E18.50797
G1 X105.790 Y111.347 E18.51291
G1 X105.790 Y121.514 E18.87452
G1 X102.130 Y125.174 E19.05867
G1 X97.618 Y125.174 E19.21915
G1 X97.445 Y125.270 E19.22618
G1 X95.984 Y127.608 E19.32422
G1 X93.157 Y129.174 E19.43918
G1 X74.925 Y129.174 E20.08768
G1 X72.098 Y127.608 E20.20265
G1 X70.637 Y125.270 E20.30069
G1 X70.464 Y125.174 E20.30771
G1 X65.952 Y125.174 E20.46820
G1 X62.291 Y121.514 E20.65235
G1 X62.291 Y111.347 E21.01396
G1 X62.243 Y111.217 E21.01889
G1 X61.340 Y110.186 E21.06764
G1 X60.541 Y108.060 E21.14841
G1 X60.541 Y98.336 E21.49428
G1 X61.386 Y97.491 E21.53678
G1 X61.386 Y97.175 E21.54804
G1 X61.304 Y97.093 E21.55216
G1 X61.304 Y86.927 E21.91377
G1 X61.255 Y86.797 E21.91871
G1 X60.353 Y85.765 E21.96746
G1 X59.554 Y83.640 E22.04822
G1 X59.554 Y73.916 E22.39410
G1 X62.107 Y71.363 E22.52251
G1 E21.52251 F2400.00000
G92 E0
G1 X62.415 Y97.175 F4800.000
G1 E1.00000 F2400.00000
G1 F1800
G1 X62.032 Y96.792 E1.01928
G1 X62.032 Y86.653 E1.37990
G1 X61.983 Y86.524 E1.38483
G1 X60.987 Y85.386 E1.43860
G1 X60.282 Y83.508 E1.50997
G1 X60.282 Y74.217 E1.84042
G1 X63.516 Y70.982 E2.00314
G1 X102.591 Y70.982 E3.39300
G1 X105.826 Y74.217 E3.55571
G1 X105.826 Y83.508 E3.88617
G1 X105.120 Y85.386 E3.95754
G1 X104.125 Y86.524 E4.01131
G1 X104.076 Y86.653 E4.01624
G1 X104.076 Y95.818 E4.34223
G1 X104.134 Y95.959 E4.34763
G1 X106.813 Y98.638 E4.48239
G1 X106.813 Y107.928 E4.81285
G1 X106.107 Y109.806 E4.88422
G1 X105.112 Y110.944 E4.93799
G1 X105.063 Y111.074 E4.94292
G1 X105.063 Y121.212 E5.30354
G1 X101.828 Y124.447 E5.46625
G1 X97.214 Y124.447 E5.63036
G1 X97.042 Y124.543 E5.63739
G1 X95.467 Y127.063 E5.74308
G1 X92.969 Y128.447 E5.84466
G1 X75.113 Y128.447 E6.47979
G1 X72.615 Y127.063 E6.58137
G1 X71.040 Y124.543 E6.68706
G1 X70.867 Y124.447 E6.69409
G1 X66.254 Y124.447 E6.85819
G1 X63.019 Y121.212 E7.02091
G1 X63.019 Y111.074 E7.38153
G1 X62.970 Y110.944 E7.38646
G1 X61.974 Y109.806 E7.44023
G1 X61.269 Y107.928 E7.51160
G1 X61.269 Y98.638 E7.84206
G1 X62.415 Y97.491 E7.89971
G1 X62.415 Y97.235 E7.90883
G1 X62.929 Y96.661 F4800.000
G1 F1800
G1 X62.759 Y96.491 E7.91740
G1 X62.759 Y86.380 E8.27701
G1 X62.710 Y86.250 E8.28195
G1 X61.622 Y85.006 E8.34074
G1 X61.009 Y83.375 E8.40271
G1 X61.009 Y74.518 E8.71775
G1 X63.818 Y71.709 E8.85904
G1 X102.290 Y71.709 E10.22746
G1 X105.099 Y74.518 E10.36875
G1 X105.099 Y83.375 E10.68379
G1 X104.486 Y85.006 E10.74576
G1 X103.397 Y86.250 E10.80455
G1 X103.349 Y86.380 E10.80949
G1 X103.349 Y96.120 E11.15591
G1 X103.407 Y96.260 E11.16131
G1 X106.086 Y98.939 E11.29607
G1 X106.086 Y107.796 E11.61111
G1 X105.473 Y109.427 E11.67308
G1 X104.385 Y110.671 E11.73187
G1 X104.336 Y110.801 E11.73681
G1 X104.336 Y120.911 E12.09642
G1 X101.527 Y123.720 E12.23771
G1 X96.811 Y123.720 E12.40545
G1 X96.639 Y123.816 E12.41247
G1 X94.950 Y126.518 E12.52581
G1 X92.781 Y127.720 E12.61401
G1 X75.301 Y127.720 E13.23576
G1 X73.132 Y126.518 E13.32396
G1 X71.443 Y123.816 E13.43730
G1 X71.270 Y123.720 E13.44433
G1 X66.555 Y123.720 E13.61206
G1 X63.746 Y120.911 E13.75335
G1 X63.746 Y110.801 E14.11296
G1 X63.697 Y110.671 E14.11790
G1 X62.609 Y109.427 E14.17669
G1 X61.996 Y107.796 E14.23866
G1 X61.996 Y98.939 E14.55370
G1 X63.443 Y97.491 E14.62651
G1 X63.443 Y97.175 E14.63776
G1 X62.972 Y96.703 E14.66150
G1 E13.66150 F2400.00000
G92 E0
G1 X63.679 Y96.504 F4800.000
G1 X63.679 Y85.960 F4800.000
G1 X62.804 Y83.256 F4800.000
G1 X62.804 Y74.504 F4800.000
G1 X62.975 Y73.676 F4800.000
G1 X63.804 Y73.504 F4800.000
G1 X102.304 Y73.504 F4800.000
G1 X103.760 Y74.035 F4800.000
G1 X103.797 Y74.504 F4800.000
G1 X103.797 Y83.256 F4800.000
G1 X103.586 Y84.378 F4800.000
G1 X102.922 Y86.146 F4800.000
G1 X102.922 Y96.556 F4800.000
G1 X102.620 Y96.857 F4800.000
G1 E1.00000 F2400.00000
G1 F1800
G1 X102.976 Y96.857 E1.01265
G1 X105.359 Y99.240 E1.13251
G1 X105.359 Y107.664 E1.43214
G1 X104.839 Y109.047 E1.48471
G1 X103.657 Y110.398 E1.54852
G1 X103.609 Y110.527 E1.55346
G1 X103.609 Y120.610 E1.91208
G1 X101.226 Y122.993 E2.03194
G1 X96.408 Y122.993 E2.20329
G1 X96.236 Y123.088 E2.21031
G1 X94.433 Y125.973 E2.33130
G1 X92.593 Y126.993 E2.40613
G1 X75.489 Y126.993 E3.01449
G1 X73.649 Y125.973 E3.08932
G1 X71.846 Y123.088 E3.21031
G1 X71.674 Y122.993 E3.21733
G1 X66.856 Y122.993 E3.38869
G1 X64.473 Y120.610 E3.50855
G1 X64.473 Y110.527 E3.86717
G1 X64.424 Y110.398 E3.87210
G1 X63.243 Y109.047 E3.93591
G1 X62.723 Y107.664 E3.98848
G1 X62.723 Y99.240 E4.28811
G1 X64.472 Y97.491 E4.37607
G1 X64.472 Y97.175 E4.38733
G1 X63.486 Y96.189 E4.43691
G1 X63.486 Y86.107 E4.79554
G1 X63.437 Y85.977 E4.80047
G1 X62.256 Y84.627 E4.86428
G1 X61.736 Y83.243 E4.91685
G1 X61.736 Y74.820 E5.21648
G1 X64.119 Y72.437 E5.33634
G1 X101.989 Y72.437 E6.68333
G1 X104.371 Y74.820 E6.80319
G1 X104.371 Y83.243 E7.10282
G1 X103.852 Y84.627 E7.15539
G1 X102.670 Y85.977 E7.21920
G1 X102.621 Y86.107 E7.22413
G1 X102.621 Y96.189 E7.58275
G1 X102.425 Y96.386 E7.59265
G1 X102.597 Y96.802 E7.60866
G1 X100.864 Y97.585 F4800.000
G1 F1800
G1 X102.675 Y97.585 E7.67305
G1 X104.631 Y99.541 E7.77148
G1 X104.631 Y107.532 E8.05569
G1 X104.204 Y108.668 E8.09886
G1 X102.930 Y110.124 E8.16770
G1 X102.881 Y110.254 E8.17263
G1 X102.881 Y120.309 E8.53026
G1 X100.925 Y122.265 E8.62869
G1 X96.005 Y122.265 E8.80366
G1 X95.832 Y122.361 E8.81069
G1 X93.916 Y125.428 E8.93932
G1 X92.405 Y126.265 E9.00077
G1 X75.677 Y126.265 E9.59576
G1 X74.166 Y125.428 E9.65721
G1 X72.249 Y122.361 E9.78584
G1 X72.077 Y122.265 E9.79286
G1 X67.157 Y122.265 E9.96784
G1 X65.201 Y120.309 E10.06627
G1 X65.201 Y110.254 E10.42390
G1 X65.152 Y110.124 E10.42883
G1 X63.877 Y108.668 E10.49766
G1 X63.451 Y107.532 E10.54083
G1 X63.451 Y99.541 E10.82505
G1 X65.500 Y97.491 E10.92816
G1 X65.500 Y97.175 E10.93941
G1 X64.213 Y95.888 E11.00416
G1 X64.213 Y85.834 E11.36178
G1 X64.165 Y85.704 E11.36672
G1 X62.890 Y84.247 E11.43555
G1 X62.463 Y83.111 E11.47872
G1 X62.463 Y75.121 E11.76293
G1 X64.420 Y73.164 E11.86136
G1 X101.687 Y73.164 E13.18692
G1 X103.644 Y75.121 E13.28535
G1 X103.644 Y83.111 E13.56957
G1 X103.217 Y84.247 E13.61274
G1 X101.943 Y85.704 E13.68157
G1 X101.894 Y85.834 E13.68650
G1 X101.894 Y95.888 E14.04413
G1 X100.669 Y97.113 E14.10576
G1 X100.841 Y97.529 E14.12177
G1 E13.12177 F2400.00000
G92 E0
G1 X100.554 Y97.715 F4800.000
G1 X94.833 Y97.715 F4800.000
G1 X94.220 Y98.312 F4800.000
G1 E1.00000 F2400.00000
G1 F1800
G1 X102.373 Y98.312 E1.29002
G1 X103.904 Y99.843 E1.36702
G1 X103.904 Y107.400 E1.63582
G1 X103.570 Y108.289 E1.66959
G1 X102.203 Y109.851 E1.74344
G1 X102.154 Y109.981 E1.74838
G1 X102.154 Y120.007 E2.10501
G1 X100.623 Y121.538 E2.18201
G1 X95.602 Y121.538 E2.36060
G1 X95.429 Y121.634 E2.36763
G1 X93.399 Y124.883 E2.50391
G1 X92.217 Y125.538 E2.55198
G1 X75.865 Y125.538 E3.13359
G1 X74.683 Y124.883 E3.18166
G1 X72.652 Y121.634 E3.31794
G1 X72.480 Y121.538 E3.32497
G1 X67.459 Y121.538 E3.50357
G1 X65.928 Y120.007 E3.58056
G1 X65.928 Y109.981 E3.93720
G1 X65.879 Y109.851 E3.94213
G1 X64.512 Y108.288 E4.01598
G1 X64.178 Y107.400 E4.04975
G1 X64.178 Y99.843 E4.31855
G1 X65.709 Y98.312 E4.39555
G1 X71.888 Y98.312 E4.61535
G1 X72.106 Y97.918 E4.63135
G1 X71.665 Y97.213 E4.66093
G1 X71.493 Y97.118 E4.66795
G1 X66.471 Y97.118 E4.84655
G1 X64.941 Y95.587 E4.92355
G1 X64.941 Y85.560 E5.28018
G1 X64.892 Y85.430 E5.28512
G1 X63.525 Y83.868 E5.35897
G1 X63.191 Y82.979 E5.39274
G1 X63.191 Y75.422 E5.66154
G1 X64.721 Y73.891 E5.73854
G1 X101.386 Y73.891 E7.04267
G1 X102.917 Y75.422 E7.11967
G1 X102.917 Y82.979 E7.38847
G1 X102.583 Y83.868 E7.42224
G1 X101.216 Y85.430 E7.49609
G1 X101.167 Y85.560 E7.50102
G1 X101.167 Y95.587 E7.85766
G1 X99.636 Y97.118 E7.93465
G1 X94.615 Y97.118 E8.11325
G1 X94.442 Y97.213 E8.12028
G1 X94.001 Y97.918 E8.14986
G1 X94.190 Y98.259 E8.16372
G1 X92.907 Y99.039 F4800.000
G1 F1800
G1 X102.072 Y99.039 E8.48970
G1 X103.177 Y100.144 E8.54527
G1 X103.177 Y107.268 E8.79865
G1 X102.936 Y107.909 E8.82303
G1 X101.476 Y109.578 E8.90190
G1 X101.427 Y109.708 E8.90683
G1 X101.427 Y112.620 E9.01042
G1 X101.366 Y112.681 E9.01347
G1 X101.366 Y112.997 E9.02472
G1 X101.427 Y113.058 E9.02777
G1 X101.427 Y119.706 E9.26426
G1 X100.322 Y120.811 E9.31983
G1 X95.199 Y120.811 E9.50205
G1 X95.026 Y120.907 E9.50907
G1 X92.882 Y124.338 E9.65300
G1 X92.029 Y124.811 E9.68770
G1 X76.053 Y124.811 E10.25592
G1 X75.200 Y124.338 E10.29061
G1 X73.055 Y120.907 E10.43455
G1 X72.883 Y120.811 E10.44157
G1 X67.760 Y120.811 E10.62379
G1 X66.655 Y119.706 E10.67936
G1 X66.655 Y109.708 E11.03500
G1 X66.606 Y109.578 E11.03993
G1 X65.146 Y107.909 E11.11880
G1 X64.905 Y107.268 E11.14317
G1 X64.905 Y100.144 E11.39656
G1 X66.010 Y99.039 E11.45213
G1 X73.200 Y99.039 E11.70788
G1 X73.418 Y98.646 E11.72388
G1 X72.068 Y96.486 E11.81447
G1 X71.896 Y96.390 E11.82150
G1 X66.773 Y96.390 E12.00372
G1 X65.668 Y95.286 E12.05929
G1 X65.668 Y85.287 E12.41492
G1 X65.619 Y85.157 E12.41986
G1 X64.159 Y83.488 E12.49873
G1 X63.918 Y82.847 E12.52310
G1 X63.918 Y75.723 E12.77649
G1 X65.023 Y74.619 E12.83206
G1 X101.085 Y74.619 E14.11476
G1 X102.190 Y75.723 E14.17033
G1 X102.190 Y82.847 E14.42371
G1 X101.949 Y83.488 E14.44808
G1 X100.488 Y85.157 E14.52696
G1 X100.440 Y85.287 E14.53189
G1 X100.440 Y88.199 E14.63547
G1 X100.379 Y88.260 E14.63853
G1 X100.379 Y88.576 E14.64978
G1 X100.440 Y88.637 E14.65283
G1 X100.440 Y95.286 E14.88931
G1 X99.335 Y96.390 E14.94488
G1 X94.212 Y96.390 E15.12711
G1 X94.039 Y96.486 E15.13413
G1 X92.689 Y98.646 E15.22472
G1 X92.878 Y98.987 E15.23859
G1 X91.595 Y99.766 F4800.000
G1 F1800
G1 X101.771 Y99.766 E15.60052
G1 X102.449 Y100.445 E15.63466
G1 X102.449 Y107.135 E15.87263
G1 X102.301 Y107.530 E15.88760
G1 X100.748 Y109.305 E15.97150
G1 X100.699 Y109.434 E15.97643
G1 X100.699 Y112.319 E16.07902
G1 X100.338 Y112.681 E16.09722
G1 X100.338 Y112.997 E16.10848
G1 X100.699 Y113.359 E16.12668
G1 X100.699 Y119.405 E16.34174
G1 X100.021 Y120.084 E16.37587
G1 X94.796 Y120.084 E16.56172
G1 X94.623 Y120.179 E16.56874
G1 X92.365 Y123.793 E16.72032
G1 X91.840 Y124.084 E16.74164
G1 X76.241 Y124.084 E17.29648
G1 X75.717 Y123.793 E17.31780
G1 X73.459 Y120.179 E17.46938
G1 X73.286 Y120.084 E17.47640
G1 X68.061 Y120.084 E17.66224
G1 X67.382 Y119.405 E17.69638
G1 X67.382 Y109.434 E18.05102
G1 X67.334 Y109.305 E18.05596
G1 X65.780 Y107.530 E18.13985
G1 X65.632 Y107.135 E18.15482
G1 X65.632 Y100.445 E18.39279
G1 X66.311 Y99.766 E18.42693
G1 X74.512 Y99.766 E18.71865
G1 X74.730 Y99.373 E18.73465
G1 X72.471 Y95.759 E18.88625
G1 X72.299 Y95.663 E18.89327
G1 X67.074 Y95.663 E19.07911
G1 X66.395 Y94.984 E19.11325
G1 X66.395 Y85.014 E19.46789
G1 X66.346 Y84.884 E19.47283
G1 X64.793 Y83.109 E19.55672
G1 X64.645 Y82.715 E19.57169
G1 X64.645 Y76.025 E19.80966
G1 X65.324 Y75.346 E19.84380
G1 X100.784 Y75.346 E21.10507
G1 X101.462 Y76.025 E21.13921
G1 X101.462 Y82.715 E21.37718
G1 X101.314 Y83.109 E21.39216
G1 X99.761 Y84.884 E21.47605
G1 X99.712 Y85.014 E21.48098
G1 X99.712 Y87.898 E21.58357
G1 X99.350 Y88.260 E21.60178
G1 X99.350 Y88.576 E21.61303
G1 X99.712 Y88.938 E21.63124
G1 X99.712 Y94.984 E21.84629
G1 X99.034 Y95.663 E21.88043
G1 X93.809 Y95.663 E22.06627
G1 X93.636 Y95.759 E22.07330
G1 X91.377 Y99.373 E22.22490
G1 X91.566 Y99.714 E22.23876
G1 E21.23876 F2400.00000
G92 E0
G1 X88.756 Y88.104 F4800.000
G1 X90.291 Y88.987 F4800.000
G1 E1.00000 F2400.00000
G1 F1800
G1 X98.732 Y88.987 E1.30024
G1 X98.985 Y89.239 E1.31295
G1 X98.985 Y94.683 E1.50657
G1 X98.732 Y94.936 E1.51928
G1 X93.406 Y94.936 E1.70874
G1 X93.233 Y95.031 E1.71577
G1 X90.860 Y98.828 E1.87500
G1 X90.665 Y98.936 E1.88293
G1 X75.442 Y98.936 E2.42440
G1 X75.247 Y98.828 E2.43233
G1 X72.875 Y95.031 E2.59156
G1 X72.702 Y94.936 E2.59859
G1 X67.375 Y94.936 E2.78805
G1 X67.122 Y94.683 E2.80076
G1 X67.122 Y84.741 E3.15441
G1 X67.074 Y84.611 E3.15934
G1 X65.428 Y82.729 E3.24825
G1 X65.372 Y82.583 E3.25383
G1 X65.372 Y76.326 E3.47638
G1 X65.625 Y76.073 E3.48909
G1 X100.482 Y76.073 E4.72893
G1 X100.735 Y76.326 E4.74164
G1 X100.735 Y82.583 E4.96420
G1 X100.680 Y82.729 E4.96977
G1 X99.034 Y84.611 E5.05868
G1 X98.985 Y84.741 E5.06362
G1 X98.985 Y87.597 E5.16521
G1 X98.732 Y87.849 E5.17792
G1 X90.529 Y87.849 E5.46970
G1 X90.283 Y87.628 E5.48148
G1 X90.115 Y86.024 E5.53884
G1 X89.652 Y84.588 E5.59248
G1 X88.878 Y83.248 E5.64754
G1 X87.866 Y82.130 E5.70119
G1 X86.644 Y81.247 E5.75483
G1 X85.264 Y80.637 E5.80848
G1 X83.788 Y80.328 E5.86212
G1 X82.320 Y80.328 E5.91435
G1 X80.843 Y80.637 E5.96800
G1 X79.464 Y81.247 E6.02164
G1 X78.241 Y82.130 E6.07529
G1 X77.206 Y83.280 E6.13035
G1 X76.455 Y84.588 E6.18399
G1 X75.993 Y86.024 E6.23764
G1 X75.840 Y87.524 E6.29128
G1 X76.001 Y89.024 E6.34493
G1 X76.455 Y90.420 E6.39716
G1 X77.206 Y91.729 E6.45080
G1 X78.212 Y92.852 E6.50445
G1 X79.429 Y93.742 E6.55809
G1 X80.805 Y94.359 E6.61174
G1 X82.280 Y94.677 E6.66538
G1 X83.828 Y94.677 E6.72044
G1 X85.302 Y94.359 E6.77409
G1 X86.678 Y93.742 E6.82773
G1 X87.896 Y92.852 E6.88138
