; generated by Slic3r 1.3.0 on 2019-06-15 at 20:20:07

; Printer Config Notes: 
; ""
; 
; external perimeters extrusion width = 0.44mm (1.19mm^3/s)
; perimeters extrusion width = 0.40mm (2.14mm^3/s)
; infill extrusion width = 0.40mm (4.28mm^3/s)
; solid infill extrusion width = 0.40mm (1.43mm^3/s)
; top infill extrusion width = 0.56mm (1.55mm^3/s)

;G28 ; home all axes
;G1 Z5 F5000 ; lift nozzle
; Filament gcode

G21 ; set units to millimeters
G90 ; use absolute coordinates
M82 ; use absolute distances for extrusion
G92 E0
G1 Z0.350 F4800.000
G1 E-1.00000 F2400.00000
G92 E0
G1 X99.525 Y128.680 F4800.000
G1 E1.00000 F2400.00000
G1 F1800
G1 X100.744 Y128.421 E1.10196
G1 X102.512 Y127.633 E1.26036
G1 X104.078 Y126.496 E1.41876
G1 X105.373 Y125.057 E1.57716
G1 X106.341 Y123.381 E1.73556
G1 X106.423 Y123.129 E1.75728
G1 X111.783 Y123.129 E2.19593
G1 X111.783 Y125.015 E2.35033
G1 X106.996 Y125.015 E2.74208
G1 X104.496 Y129.015 E3.12810
G1 X99.560 Y129.015 E3.53202
G1 X99.531 Y128.739 E3.55473
G1 E2.55473 F2400.00000
G92 E0
G1 X98.934 Y128.912 F4800.000
G1 X96.832 Y128.912 F4800.000
G1 X94.832 Y128.691 F4800.000
G1 X91.862 Y127.945 F4800.000
G1 X89.528 Y124.933 F4800.000
G1 X88.542 Y123.963 F4800.000
G1 X86.496 Y122.502 F4800.000
G1 X86.313 Y119.309 F4800.000
G1 X86.654 Y115.015 F4800.000
G1 X86.614 Y113.716 F4800.000
G1 X90.499 Y111.754 F4800.000
G1 X93.023 Y110.924 F4800.000
G1 X95.022 Y110.509 F4800.000
G1 X96.978 Y110.311 F4800.000
G1 X98.934 Y110.319 F4800.000
G1 X100.922 Y110.538 F4800.000
G1 X103.023 Y110.999 F4800.000
G1 X105.263 Y111.753 F4800.000
G1 X109.151 Y113.716 F4800.000
G1 X109.111 Y115.046 F4800.000
G1 X106.964 Y117.929 F4800.000
G1 E1.00000 F2400.00000
G1 F1800
G1 X106.939 Y117.690 E1.01966
G1 X106.341 Y115.849 E1.17806
G1 X105.373 Y114.173 E1.33646
G1 X104.078 Y112.735 E1.49486
G1 X102.512 Y111.597 E1.65326
G1 X100.744 Y110.810 E1.81166
G1 X99.525 Y110.551 E1.91362
G1 X99.560 Y110.215 E1.94125
G1 X113.533 Y110.215 E3.08472
G1 X113.533 Y114.014 E3.39563
G1 X111.783 Y116.014 E3.61311
G1 X111.783 Y117.929 E3.76983
G1 X107.024 Y117.929 E4.15928
G1 E3.15928 F2400.00000
G92 E0
G1 X109.111 Y115.046 F4800.000
G1 X109.151 Y113.716 F4800.000
G1 X105.263 Y111.753 F4800.000
G1 X102.741 Y110.923 F4800.000
G1 X98.934 Y110.319 F4800.000
G1 X96.832 Y110.319 F4800.000
G1 X96.240 Y110.551 F4800.000
G1 E1.00000 F2400.00000
G1 F1800
G1 X95.022 Y110.810 E1.10196
G1 X93.253 Y111.597 E1.26036
G1 X91.687 Y112.735 E1.41884
G1 X90.387 Y114.182 E1.57799
G1 X89.425 Y115.849 E1.73555
G1 X88.826 Y117.690 E1.89395
G1 X88.624 Y119.615 E2.05235
G1 X88.826 Y121.540 E2.21075
G1 X89.425 Y123.381 E2.36915
G1 X90.392 Y125.057 E2.52755
G1 X91.687 Y126.496 E2.68595
G1 X93.253 Y127.633 E2.84435
G1 X95.022 Y128.421 E3.00275
G1 X96.240 Y128.680 E3.10472
G1 X96.205 Y129.015 E3.13234
G1 X91.269 Y129.015 E3.53626
G1 X88.769 Y125.015 E3.92228
G1 X83.982 Y125.015 E4.31403
G1 X83.982 Y116.014 E5.05067
G1 X82.232 Y114.014 E5.26815
G1 X82.232 Y110.215 E5.57906
G1 X96.205 Y110.215 E6.72253
G1 X96.234 Y110.491 E6.74524
G1 E5.74524 F2400.00000
G92 E0
G1 X96.832 Y110.319 F4800.000
G1 X98.934 Y110.319 F4800.000
G1 X102.741 Y110.923 F4800.000
G1 X105.263 Y111.753 F4800.000
G1 X109.151 Y113.716 F4800.000
G1 X109.111 Y115.046 F4800.000
G1 X106.401 Y118.554 F4800.000
G1 E1.00000 F2400.00000
G1 F1800
G1 X106.324 Y117.821 E1.06033
G1 X105.767 Y116.105 E1.20798
G1 X104.865 Y114.542 E1.35563
G1 X103.657 Y113.202 E1.50328
G1 X102.198 Y112.141 E1.65093
G1 X100.550 Y111.407 E1.79858
G1 X98.785 Y111.032 E1.94623
G1 X96.981 Y111.032 E2.09388
G1 X95.216 Y111.407 E2.24154
G1 X93.568 Y112.141 E2.38919
G1 X92.107 Y113.202 E2.53689
G1 X90.896 Y114.551 E2.68528
G1 X89.999 Y116.105 E2.83212
G1 X89.441 Y117.821 E2.97977
G1 X89.252 Y119.615 E3.12742
G1 X89.441 Y121.409 E3.27507
G1 X89.999 Y123.125 E3.42273
G1 X90.901 Y124.688 E3.57038
G1 X92.108 Y126.029 E3.71803
G1 X93.568 Y127.089 E3.86568
G1 X95.216 Y127.823 E4.01333
G1 X96.981 Y128.198 E4.16098
G1 X98.785 Y128.198 E4.30863
G1 X100.550 Y127.823 E4.45628
G1 X102.198 Y127.089 E4.60393
G1 X103.657 Y126.029 E4.75158
G1 X104.865 Y124.688 E4.89923
G1 X105.767 Y123.125 E5.04688
G1 X105.969 Y122.504 E5.10038
G1 X112.408 Y122.504 E5.62732
G1 X112.408 Y125.640 E5.88401
G1 X107.342 Y125.640 E6.29854
G1 X104.842 Y129.640 E6.68457
G1 X90.923 Y129.640 E7.82368
G1 X88.423 Y125.640 E8.20970
G1 X83.358 Y125.640 E8.62424
G1 X83.358 Y116.249 E9.39280
G1 X81.608 Y114.249 E9.61029
G1 X81.608 Y109.590 E9.99155
G1 X114.158 Y109.590 E12.65535
G1 X114.158 Y114.249 E13.03661
G1 X112.408 Y116.249 E13.25409
G1 X112.408 Y118.554 E13.44273
G1 X106.461 Y118.554 E13.92937
G1 X105.839 Y119.179 F4800.000
G1 F1800
G1 X105.710 Y117.951 E14.03037
G1 X105.193 Y116.360 E14.16727
G1 X104.356 Y114.912 E14.30417
G1 X103.237 Y113.669 E14.44107
G1 X101.884 Y112.685 E14.57797
G1 X100.355 Y112.005 E14.71487
G1 X98.719 Y111.657 E14.85177
G1 X97.046 Y111.657 E14.98867
G1 X95.410 Y112.005 E15.12557
G1 X93.882 Y112.685 E15.26248
G1 X92.528 Y113.669 E15.39939
G1 X91.404 Y114.920 E15.53704
G1 X90.573 Y116.360 E15.67316
G1 X90.056 Y117.951 E15.81006
G1 X89.881 Y119.615 E15.94696
G1 X90.056 Y121.279 E16.08387
G1 X90.573 Y122.870 E16.22077
G1 X91.409 Y124.319 E16.35767
G1 X92.528 Y125.562 E16.49457
G1 X93.882 Y126.545 E16.63147
G1 X95.410 Y127.225 E16.76837
G1 X97.046 Y127.573 E16.90527
G1 X98.719 Y127.573 E17.04217
G1 X100.355 Y127.225 E17.17907
G1 X101.884 Y126.545 E17.31597
G1 X103.237 Y125.562 E17.45288
G1 X104.356 Y124.319 E17.58978
G1 X105.193 Y122.870 E17.72668
G1 X105.515 Y121.879 E17.81195
G1 X113.033 Y121.879 E18.42719
G1 X113.033 Y126.265 E18.78615
G1 X107.689 Y126.265 E19.22348
G1 X105.189 Y130.265 E19.60951
G1 X90.577 Y130.265 E20.80530
G1 X88.077 Y126.265 E21.19133
G1 X82.733 Y126.265 E21.62866
G1 X82.733 Y116.484 E22.42915
G1 X80.983 Y114.484 E22.64663
G1 X80.983 Y108.965 E23.09825
G1 X114.783 Y108.965 E25.86432
G1 X114.783 Y114.484 E26.31594
G1 X113.033 Y116.484 E26.53342
G1 X113.033 Y119.179 E26.75399
G1 X105.899 Y119.179 E27.33781
G1 X105.970 Y118.801 F4800.000
G1 E26.33781 F2400.00000
G92 E0
G1 X109.111 Y115.046 F4800.000
G1 X109.151 Y113.716 F4800.000
G1 X105.263 Y111.753 F4800.000
G1 X103.023 Y110.999 F4800.000
G1 X100.922 Y110.538 F4800.000
G1 X98.934 Y110.319 F4800.000
G1 X96.832 Y110.319 F4800.000
G1 X94.832 Y110.539 F4800.000
G1 X92.741 Y110.999 F4800.000
G1 X90.499 Y111.754 F4800.000
G1 X86.614 Y113.716 F4800.000
G1 X86.654 Y115.015 F4800.000
G1 X86.313 Y119.309 F4800.000
G1 X86.496 Y122.502 F4800.000
G1 X88.542 Y123.963 F4800.000
G1 X89.528 Y124.933 F4800.000
G1 X91.862 Y127.945 F4800.000
G1 X94.832 Y128.691 F4800.000
G1 X96.978 Y128.919 F4800.000
G1 X100.743 Y128.721 F4800.000
G1 X103.024 Y128.231 F4800.000
G1 X103.903 Y127.945 F4800.000
G1 X104.550 Y127.252 F4800.000
G1 X106.238 Y124.933 F4800.000
G1 X107.039 Y124.086 F4800.000
G1 X106.781 Y123.820 F4800.000
G1 E1.00000 F2400.00000
G1 F1800
G1 X106.914 Y123.687 E1.01718
G1 X107.903 Y123.687 E1.10785
G1 X107.134 Y124.457 E1.20757
G1 X108.123 Y124.457 E1.29824
G1 X108.893 Y123.687 E1.39797
G1 X109.882 Y123.687 E1.48864
G1 X109.113 Y124.457 E1.58836
G1 X110.102 Y124.457 E1.67903
G1 X110.872 Y123.687 E1.77876
G1 X111.224 Y123.687 E1.81107
G1 X111.224 Y124.324 E1.86943
G1 X111.092 Y124.457 E1.88662
G1 E0.88662 F2400.00000
G92 E0
G1 X106.376 Y124.703 F4800.000
G1 E1.00000 F2400.00000
G1 F1800
G1 X105.943 Y125.424 E1.07356
G1 X105.694 Y125.761 E1.11016
G1 F1800
G1 X105.282 Y126.307 E1.17554
G1 E0.17554 F2400.00000
G92 E0
G1 X104.216 Y128.324 F4800.000
G1 E1.00000 F2400.00000
G1 F1800
G1 X104.083 Y128.457 E1.01564
G1 X103.182 Y128.457 F4800.000
G1 F1800
G1 X104.930 Y126.709 E1.22187
G1 X104.813 Y126.620 E1.23413
G1 X104.565 Y126.896 E1.26510
G1 X102.892 Y128.111 E1.43754
G1 X102.414 Y128.324 E1.48121
G1 X102.282 Y128.457 E1.49685
G1 E0.49685 F2400.00000
G92 E0
G1 X99.189 Y128.468 F4800.000
G1 E1.00000 F2400.00000
G1 F1800
G1 X98.946 Y128.769 E1.03278
G1 F1800
G1 X98.825 Y128.919 E1.05155
G1 X96.940 Y128.919 E1.23476
G1 X96.698 Y128.618 E1.27230
G1 F1800
G1 X96.577 Y128.468 E1.28869
G1 E0.28869 F2400.00000
G92 E0
G1 X93.351 Y128.457 F4800.000
G1 E1.00000 F2400.00000
G1 F1800
G1 X93.484 Y128.324 E1.01815
G1 X93.006 Y128.111 E1.06884
G1 X92.801 Y127.962 E1.09336
G1 X92.306 Y128.457 E1.16106
G1 X91.549 Y128.457 E1.23430
G1 X91.438 Y128.279 E1.25457
G1 X92.195 Y127.522 E1.35816
G1 X91.590 Y127.083 E1.43060
G1 X91.036 Y127.636 E1.50635
G1 X90.634 Y126.993 E1.57977
G1 X90.767 Y126.860 E1.59799
G1 X90.484 Y126.307 F4800.000
G1 F1800
G1 X90.072 Y125.761 E1.66653
G1 F1800
G1 X89.823 Y125.424 E1.70458
G1 X89.389 Y124.703 E1.78103
G1 X89.067 Y124.194 F4800.000
G1 F1800
G1 X89.200 Y124.061 E1.79651
G1 X88.917 Y123.570 E1.84318
G1 X88.889 Y123.483 E1.85070
G1 X87.915 Y124.457 E1.96406
G1 X87.026 Y124.457 E2.03730
G1 X88.671 Y122.812 E2.22883
G1 X88.452 Y122.141 E2.28694
G1 X86.137 Y124.457 E2.55664
G1 X85.247 Y124.457 E2.62987
G1 X88.261 Y121.443 E2.98086
G1 X88.177 Y120.638 E3.04749
G1 X84.541 Y124.274 E3.47088
G1 X84.541 Y123.385 E3.54411
G1 X88.092 Y119.834 E3.95766
G1 X88.062 Y119.549 E3.98124
G1 X88.130 Y118.907 E4.03440
G1 X84.541 Y122.495 E4.45232
G1 X84.541 Y121.606 E4.52555
G1 X88.234 Y117.913 E4.95563
G1 X88.278 Y117.493 E4.99040
G1 X88.525 Y116.733 E5.05627
G1 X84.541 Y120.717 E5.52028
G1 X84.541 Y119.828 E5.59351
G1 X89.020 Y115.348 E6.11517
G1 X89.945 Y113.747 E6.26745
G1 X91.332 Y112.202 E6.43841
G1 X93.006 Y110.987 E6.60874
G1 X93.484 Y110.774 E6.65187
G1 X92.706 Y110.774 E6.71596
G1 X84.541 Y118.938 E7.66683
G1 X84.541 Y118.049 E7.74006
G1 X91.816 Y110.774 E8.58736
G1 X90.927 Y110.774 E8.66059
G1 X84.541 Y117.160 E9.40433
G1 X84.541 Y116.270 E9.47756
G1 X90.038 Y110.774 E10.11773
G1 X89.149 Y110.774 E10.19096
G1 X84.324 Y115.598 E10.75281
G1 X83.909 Y115.124 E10.80471
G1 X88.259 Y110.774 E11.31132
G1 X87.370 Y110.774 E11.38455
G1 X83.494 Y114.649 E11.83593
G1 X83.079 Y114.175 E11.88782
G1 X86.481 Y110.774 E12.28397
G1 X85.592 Y110.774 E12.35720
G1 X82.791 Y113.574 E12.68335
G1 X82.791 Y112.685 E12.75658
G1 X84.702 Y110.774 E12.97917
G1 X83.813 Y110.774 E13.05240
G1 X82.791 Y111.796 E13.17142
G1 X82.791 Y110.906 E13.24465
G1 X82.924 Y110.774 E13.26011
G1 E12.26011 F2400.00000
G92 E0
G1 X96.577 Y110.762 F4800.000
G1 E1.00000 F2400.00000
G1 F1800
G1 X96.698 Y110.612 E1.01639
G1 F1800
G1 X96.940 Y110.311 E1.05392
G1 X98.825 Y110.311 E1.23714
G1 X98.946 Y110.461 E1.25590
G1 F1800
G1 X99.189 Y110.762 E1.28868
G1 E0.28868 F2400.00000
G92 E0
G1 X102.281 Y110.906 F4800.000
G1 E1.00000 F2400.00000
G1 F1800
G1 X102.414 Y110.774 E1.01560
G1 X103.313 Y110.774 E1.09036
G1 X102.880 Y111.206 E1.14128
G1 X103.400 Y111.584 E1.19480
G1 X104.211 Y110.774 E1.29021
G1 X105.110 Y110.774 E1.36497
G1 X103.921 Y111.962 E1.50488
G1 X104.439 Y112.342 E1.55837
G1 X106.008 Y110.774 E1.74295
G1 X106.907 Y110.774 E1.81771
G1 X104.865 Y112.815 E2.05793
G1 X105.291 Y113.288 E2.11087
G1 X107.805 Y110.774 E2.40672
G1 X108.704 Y110.774 E2.48148
G1 X105.717 Y113.761 E2.83297
G1 X105.815 Y113.870 E2.84522
G1 X106.068 Y114.308 E2.88728
G1 X109.602 Y110.774 E3.30316
G1 X110.501 Y110.774 E3.37792
G1 X106.397 Y114.877 E3.86082
G1 X106.726 Y115.447 E3.91555
G1 X111.399 Y110.774 E4.46548
G1 X112.298 Y110.774 E4.54024
G1 X106.986 Y116.085 E5.16519
G1 X107.207 Y116.763 E5.22452
G1 X112.974 Y110.995 E5.90318
G1 X112.974 Y111.894 E5.97794
G1 X107.498 Y117.370 E6.62238
G1 X108.396 Y117.370 E6.69714
G1 X112.974 Y112.792 E7.23586
G1 X112.974 Y113.691 E7.31062
G1 X109.295 Y117.370 E7.74361
G1 X110.193 Y117.370 E7.81837
G1 X111.224 Y116.339 E7.93971
G1 X111.224 Y117.238 E8.01447
G1 X111.092 Y117.370 E8.03008
G1 Z0.550 F4800.000
G1 X106.383 Y118.575 F4800.000
G1 F1800
G1 X106.304 Y117.825 E8.05022
G1 X105.748 Y116.113 E8.09832
G1 X104.848 Y114.555 E8.14641
G1 X103.644 Y113.217 E8.19451
G1 X102.187 Y112.159 E8.24260
G1 X100.543 Y111.427 E8.29070
G1 X98.783 Y111.053 E8.33880
G1 X96.983 Y111.053 E8.38689
G1 X95.222 Y111.427 E8.43499
G1 X93.578 Y112.159 E8.48309
G1 X92.122 Y113.217 E8.53118
G1 X90.918 Y114.555 E8.57928
G1 X90.018 Y116.113 E8.62737
G1 X89.461 Y117.825 E8.67547
G1 X89.273 Y119.615 E8.72357
G1 X89.461 Y121.405 E8.77166
G1 X90.018 Y123.117 E8.81976
G1 X90.918 Y124.676 E8.86785
G1 X92.105 Y125.994 E8.91527
G1 X93.577 Y127.071 E8.96399
G1 X95.222 Y127.803 E9.01213
G1 X96.983 Y128.177 E9.06022
G1 X98.783 Y128.177 E9.10832
G1 X100.543 Y127.803 E9.15642
G1 X102.187 Y127.071 E9.20451
G1 X103.644 Y126.013 E9.25261
G1 X104.848 Y124.676 E9.30070
G1 X105.748 Y123.117 E9.34880
G1 X105.954 Y122.483 E9.36661
G1 X112.429 Y122.483 E9.53963
G1 X112.429 Y125.661 E9.62456
G1 X107.354 Y125.661 E9.76016
G1 X104.854 Y129.661 E9.88621
G1 X90.912 Y129.661 E10.25878
G1 X88.412 Y125.661 E10.38483
G1 X83.337 Y125.661 E10.52043
G1 X83.337 Y116.257 E10.77174
G1 X81.587 Y114.257 E10.84275
G1 X81.587 Y109.569 E10.96801
G1 X114.179 Y109.569 E11.83893
G1 X114.179 Y114.257 E11.96419
G1 X112.429 Y116.257 E12.03520
G1 X112.429 Y118.575 E12.09714
G1 X106.443 Y118.575 E12.25710
G1 X106.061 Y118.932 F4800.000
G1 F1800
G1 X105.953 Y117.900 E12.28483
G1 X105.420 Y116.259 E12.33092
G1 X104.557 Y114.766 E12.37701
G1 X103.403 Y113.484 E12.42310
G1 X102.008 Y112.470 E12.46919
G1 X100.432 Y111.769 E12.51528
G1 X98.745 Y111.410 E12.56137
G1 X97.020 Y111.410 E12.60746
G1 X95.333 Y111.769 E12.65355
G1 X93.758 Y112.470 E12.69964
G1 X92.362 Y113.484 E12.74573
G1 X91.208 Y114.766 E12.79182
G1 X90.346 Y116.259 E12.83791
G1 X89.813 Y117.900 E12.88400
G1 X89.632 Y119.615 E12.93009
G1 X89.813 Y121.331 E12.97618
G1 X90.346 Y122.971 E13.02227
G1 X91.208 Y124.465 E13.06836
G1 X92.345 Y125.728 E13.11378
G1 X93.757 Y126.760 E13.16050
G1 X95.333 Y127.462 E13.20662
G1 X97.020 Y127.820 E13.25271
G1 X98.745 Y127.820 E13.29880
G1 X100.432 Y127.462 E13.34489
G1 X102.008 Y126.760 E13.39098
G1 X103.403 Y125.746 E13.43707
G1 X104.557 Y124.465 E13.48316
G1 X105.420 Y122.971 E13.52925
G1 X105.694 Y122.126 E13.55299
G1 X112.786 Y122.126 E13.74248
G1 X112.786 Y126.018 E13.84649
G1 X107.552 Y126.018 E13.98635
G1 X105.052 Y130.018 E14.11240
G1 X90.714 Y130.018 E14.49555
G1 X88.214 Y126.018 E14.62159
G1 X82.980 Y126.018 E14.76145
G1 X82.980 Y116.391 E15.01872
G1 X81.230 Y114.391 E15.08973
G1 X81.230 Y109.212 E15.22811
G1 X114.536 Y109.212 E16.11812
G1 X114.536 Y114.391 E16.25650
G1 X112.786 Y116.391 E16.32752
G1 X112.786 Y118.932 E16.39542
G1 X106.121 Y118.932 E16.57350
G1 X105.722 Y119.309 F4800.000
G1 F900
G1 X105.582 Y117.979 E16.61325
G1 X105.073 Y116.414 E16.66215
G1 X104.251 Y114.989 E16.71104
G1 X103.150 Y113.766 E16.75994
G1 X101.818 Y112.798 E16.80884
G1 X100.315 Y112.129 E16.85774
G1 X98.705 Y111.787 E16.90664
G1 X97.060 Y111.787 E16.95553
G1 X95.450 Y112.129 E17.00443
G1 X93.947 Y112.798 E17.05333
G1 X92.616 Y113.766 E17.10223
G1 X91.515 Y114.989 E17.15112
G1 X90.692 Y116.414 E17.20002
G1 X90.183 Y117.979 E17.24892
G1 X90.011 Y119.615 E17.29782
G1 X90.183 Y121.252 E17.34672
G1 X90.692 Y122.817 E17.39561
G1 X91.515 Y124.242 E17.44451
G1 X92.600 Y125.447 E17.49269
G1 X93.947 Y126.432 E17.54228
G1 X95.450 Y127.101 E17.59119
G1 X97.060 Y127.443 E17.64009
G1 X98.705 Y127.443 E17.68899
G1 X100.315 Y127.101 E17.73788
G1 X101.818 Y126.432 E17.78678
G1 X103.150 Y125.465 E17.83568
G1 X104.251 Y124.242 E17.88458
G1 X105.073 Y122.817 E17.93348
G1 X105.420 Y121.749 E17.96684
G1 X113.163 Y121.749 E18.19691
G1 X113.163 Y126.395 E18.33498
G1 X107.761 Y126.395 E18.49550
G1 X105.261 Y130.395 E18.63567
G1 X90.505 Y130.395 E19.07415
G1 X88.005 Y126.395 E19.21432
G1 X82.603 Y126.395 E19.37484
G1 X82.603 Y116.533 E19.66792
G1 X80.853 Y114.533 E19.74689
G1 X80.853 Y108.835 E19.91619
G1 X114.913 Y108.835 E20.92830
G1 X114.913 Y114.533 E21.09760
G1 X113.163 Y116.533 E21.17657
G1 X113.163 Y119.309 E21.25907
G1 X105.782 Y119.309 E21.47840
G1 X105.853 Y118.931 F4800.000
G1 X106.638 Y117.911 F4800.000
G1 F1200
G1 X106.982 Y118.256 E21.49142
G1 X107.488 Y118.256 E21.50495
G1 X106.460 Y117.227 E21.54385
G1 X106.216 Y116.478 E21.56492
G1 X107.993 Y118.256 E21.63217
G1 X108.499 Y118.256 E21.64570
