; generated by Slic3r 1.3.0 on 2019-06-16 at 06:19:12

; Printer Config Notes: 
; ""
; 
; external perimeters extrusion width = 0.44mm (1.19mm^3/s)
; perimeters extrusion width = 0.56mm (3.10mm^3/s)
; infill extrusion width = 0.50mm (5.48mm^3/s)
; solid infill extrusion width = 0.56mm (2.07mm^3/s)
; top infill extrusion width = 0.56mm (1.55mm^3/s)

;G28 ; home all axes
G1 Z5 F5000 ; lift nozzle
; Filament gcode

G21 ; set units to millimeters
G90 ; use absolute coordinates
M82 ; use absolute distances for extrusion
G92 E0
G1 Z0.400 F4800.000
G1 E-1.00000 F2400.00000
G92 E0
G1 X57.622 Y78.123 F4800.000
G1 E1.00000 F2400.00000
G1 F1800
G1 X59.920 Y76.840 E1.09196
G1 X62.971 Y76.288 E1.20024
G1 X97.471 Y76.288 E2.40524
G1 X100.074 Y76.686 E2.49720
G1 X102.439 Y77.843 E2.58915
G1 X104.350 Y79.653 E2.68111
G1 X105.634 Y81.952 E2.77307
G1 X106.185 Y85.002 E2.88135
G1 X106.185 Y91.002 E3.09091
G1 X106.094 Y92.260 E3.13495
G1 X104.344 Y104.260 E3.55852
G1 X103.575 Y106.778 E3.65047
G1 X102.089 Y108.951 E3.74243
G1 X99.618 Y110.796 E3.85014
G1 X91.618 Y114.796 E4.16254
G1 X89.113 Y115.605 E4.25450
G1 X87.721 Y115.716 E4.30326
G1 X72.721 Y115.716 E4.82717
G1 X70.119 Y115.319 E4.91913
G1 X68.824 Y114.796 E4.96789
G1 X60.824 Y110.796 E5.28029
G1 X58.674 Y109.277 E5.37224
G1 X57.076 Y107.185 E5.46420
G1 X56.098 Y104.260 E5.57191
G1 X54.348 Y92.260 E5.99548
G1 X54.257 Y91.002 E6.03952
G1 X54.257 Y85.002 E6.24908
G1 X54.655 Y82.400 E6.34104
G1 X55.812 Y80.035 E6.43299
G1 X57.581 Y78.167 E6.52285
G1 X58.803 Y79.304 F4800.000
G1 F1800
G1 X60.081 Y78.026 E6.58717
G1 X100.361 Y78.026 E8.01988
G1 X104.448 Y82.112 E8.22546
G1 X104.448 Y92.270 E8.58675
G1 X103.556 Y94.643 E8.67691
G1 X102.747 Y95.568 E8.72064
G1 X102.698 Y95.698 E8.72558
G1 X102.698 Y105.892 E9.08818
G1 X98.611 Y109.979 E9.29376
G1 X94.201 Y109.979 E9.45062
G1 X94.028 Y110.075 E9.45765
G1 X92.681 Y112.230 E9.54804
G1 X89.525 Y113.979 E9.67638
G1 X70.917 Y113.979 E10.33826
G1 X67.761 Y112.230 E10.46661
G1 X66.414 Y110.075 E10.55700
G1 X66.241 Y109.979 E10.56402
G1 X61.831 Y109.979 E10.72089
G1 X57.744 Y105.892 E10.92647
G1 X57.744 Y95.698 E11.28907
G1 X57.696 Y95.568 E11.29401
G1 X56.886 Y94.643 E11.33774
G1 X55.994 Y92.270 E11.42790
G1 X55.994 Y82.112 E11.78919
G1 X58.760 Y79.347 E11.92832
G1 X59.317 Y79.818 F4800.000
G1 F1800
G1 X60.383 Y78.753 E11.98192
G1 X100.060 Y78.753 E13.39320
G1 X103.721 Y82.414 E13.57735
G1 X103.721 Y92.138 E13.92322
G1 X102.922 Y94.263 E14.00398
G1 X102.019 Y95.295 E14.05274
G1 X101.971 Y95.425 E14.05767
G1 X101.971 Y105.591 E14.41928
G1 X98.310 Y109.252 E14.60343
G1 X93.798 Y109.252 E14.76391
G1 X93.625 Y109.347 E14.77094
G1 X92.164 Y111.685 E14.86898
G1 X89.337 Y113.252 E14.98394
G1 X71.105 Y113.252 E15.63244
G1 X68.278 Y111.685 E15.74741
G1 X66.817 Y109.347 E15.84545
G1 X66.645 Y109.252 E15.85248
G1 X62.133 Y109.252 E16.01296
G1 X58.472 Y105.591 E16.19711
G1 X58.472 Y95.425 E16.55872
G1 X58.423 Y95.295 E16.56365
G1 X57.520 Y94.263 E16.61241
G1 X56.722 Y92.138 E16.69317
G1 X56.722 Y82.414 E17.03904
G1 X59.275 Y79.861 E17.16746
G1 X59.831 Y80.333 F4800.000
G1 F1800
G1 X60.684 Y79.480 E17.21034
G1 X99.759 Y79.480 E18.60019
G1 X102.993 Y82.715 E18.76291
G1 X102.993 Y92.005 E19.09337
G1 X102.288 Y93.884 E19.16474
G1 X101.292 Y95.021 E19.21851
G1 X101.243 Y95.151 E19.22344
G1 X101.243 Y105.290 E19.58405
G1 X98.009 Y108.524 E19.74677
G1 X93.395 Y108.524 E19.91088
G1 X93.222 Y108.620 E19.91791
G1 X91.647 Y111.140 E20.02360
G1 X89.149 Y112.524 E20.12518
G1 X71.293 Y112.524 E20.76030
G1 X68.795 Y111.140 E20.86189
G1 X67.220 Y108.620 E20.96758
G1 X67.048 Y108.524 E20.97460
G1 X62.434 Y108.524 E21.13871
G1 X59.199 Y105.290 E21.30143
G1 X59.199 Y95.151 E21.66205
G1 X59.150 Y95.021 E21.66698
G1 X58.155 Y93.884 E21.72075
G1 X57.449 Y92.005 E21.79212
G1 X57.449 Y82.715 E22.12257
G1 X59.789 Y80.375 E22.24028
G1 X60.345 Y80.847 F4800.000
G1 F1800
G1 X60.985 Y80.207 E22.27244
G1 X99.457 Y80.207 E23.64087
G1 X102.266 Y83.016 E23.78216
G1 X102.266 Y91.873 E24.09720
G1 X101.653 Y93.504 E24.15917
G1 X100.565 Y94.748 E24.21796
G1 X100.516 Y94.878 E24.22289
G1 X100.516 Y104.988 E24.58251
G1 X97.707 Y107.797 E24.72380
G1 X92.992 Y107.797 E24.89153
G1 X92.819 Y107.893 E24.89855
G1 X91.130 Y110.595 E25.01189
G1 X88.961 Y111.797 E25.10010
G1 X71.481 Y111.797 E25.72184
G1 X69.312 Y110.595 E25.81005
G1 X67.623 Y107.893 E25.92339
G1 X67.451 Y107.797 E25.93041
G1 X62.735 Y107.797 E26.09814
G1 X59.926 Y104.988 E26.23943
G1 X59.926 Y94.878 E26.59905
G1 X59.877 Y94.748 E26.60398
G1 X58.789 Y93.504 E26.66278
G1 X58.176 Y91.873 E26.72474
G1 X58.176 Y83.016 E27.03979
G1 X60.303 Y80.889 E27.14677
G1 X60.860 Y81.361 F4800.000
G1 F1800
G1 X61.286 Y80.935 E27.16823
G1 X99.156 Y80.935 E28.51522
G1 X101.539 Y83.317 E28.63508
G1 X101.539 Y91.741 E28.93470
G1 X101.019 Y93.125 E28.98727
G1 X99.838 Y94.475 E29.05108
G1 X99.789 Y94.605 E29.05602
G1 X99.789 Y104.687 E29.41464
G1 X97.406 Y107.070 E29.53450
G1 X92.589 Y107.070 E29.70585
G1 X92.416 Y107.166 E29.71288
G1 X90.613 Y110.050 E29.83386
G1 X88.773 Y111.070 E29.90869
G1 X71.669 Y111.070 E30.51706
G1 X69.829 Y110.050 E30.59188
G1 X68.026 Y107.166 E30.71287
G1 X67.854 Y107.070 E30.71990
G1 X63.036 Y107.070 E30.89125
G1 X60.653 Y104.687 E31.01111
G1 X60.653 Y94.605 E31.36973
G1 X60.605 Y94.475 E31.37466
G1 X59.423 Y93.125 E31.43848
G1 X58.903 Y91.741 E31.49105
G1 X58.903 Y83.317 E31.79067
G1 X60.817 Y81.404 E31.88694
G1 X61.374 Y81.875 F4800.000
G1 F1800
G1 X61.588 Y81.662 E31.89768
G1 X98.855 Y81.662 E33.22324
G1 X100.812 Y83.619 E33.32167
G1 X100.812 Y91.609 E33.60589
G1 X100.385 Y92.745 E33.64906
G1 X99.110 Y94.202 E33.71789
G1 X99.062 Y94.331 E33.72282
G1 X99.062 Y104.386 E34.08045
G1 X97.105 Y106.343 E34.17888
G1 X92.185 Y106.343 E34.35386
G1 X92.013 Y106.438 E34.36088
G1 X90.096 Y109.505 E34.48951
G1 X88.585 Y110.343 E34.55096
G1 X71.857 Y110.343 E35.14595
G1 X70.346 Y109.505 E35.20740
G1 X68.430 Y106.438 E35.33603
G1 X68.257 Y106.343 E35.34306
G1 X63.338 Y106.343 E35.51803
G1 X61.381 Y104.386 E35.61646
G1 X61.381 Y94.331 E35.97409
G1 X61.332 Y94.202 E35.97902
G1 X60.058 Y92.745 E36.04786
G1 X59.631 Y91.609 E36.09103
G1 X59.631 Y83.619 E36.37524
G1 X61.332 Y81.918 E36.46079
G1 X61.888 Y82.390 F4800.000
G1 F1800
G1 X98.554 Y82.389 E37.76494
G1 X100.084 Y83.920 E37.84194
G1 X100.084 Y91.477 E38.11074
G1 X99.750 Y92.366 E38.14451
G1 X98.383 Y93.928 E38.21836
G1 X98.334 Y94.058 E38.22330
G1 X98.334 Y104.085 E38.57993
G1 X96.804 Y105.615 E38.65693
G1 X91.782 Y105.615 E38.83553
G1 X91.610 Y105.711 E38.84255
G1 X89.579 Y108.960 E38.97883
G1 X88.397 Y109.615 E39.02691
G1 X72.045 Y109.615 E39.60851
G1 X70.863 Y108.960 E39.65658
G1 X68.833 Y105.711 E39.79287
G1 X68.660 Y105.615 E39.79989
G1 X63.639 Y105.615 E39.97849
G1 X62.108 Y104.085 E40.05549
G1 X62.108 Y94.058 E40.41212
G1 X62.059 Y93.928 E40.41705
G1 X60.692 Y92.366 E40.49091
G1 X60.358 Y91.477 E40.52468
G1 X60.358 Y83.920 E40.79348
G1 X61.846 Y82.432 E40.86832
G1 X62.190 Y83.116 F4800.000
G1 F1800
G1 X98.252 Y83.116 E42.15102
G1 X99.357 Y84.221 E42.20659
G1 X99.357 Y91.345 E42.45997
G1 X99.116 Y91.986 E42.48434
G1 X97.656 Y93.655 E42.56321
G1 X97.607 Y93.785 E42.56815
G1 X97.607 Y96.697 E42.67173
G1 X97.546 Y96.758 E42.67479
G1 X97.546 Y97.074 E42.68604
G1 X97.607 Y97.135 E42.68909
G1 X97.607 Y103.783 E42.92557
G1 X96.502 Y104.888 E42.98114
G1 X91.379 Y104.888 E43.16336
G1 X91.207 Y104.984 E43.17039
G1 X89.062 Y108.415 E43.31432
G1 X88.209 Y108.888 E43.34901
G1 X72.233 Y108.888 E43.91724
G1 X71.380 Y108.415 E43.95193
G1 X69.236 Y104.984 E44.09586
G1 X69.063 Y104.888 E44.10289
G1 X63.940 Y104.888 E44.28511
G1 X62.835 Y103.783 E44.34068
G1 X62.835 Y93.785 E44.69631
G1 X62.787 Y93.655 E44.70125
G1 X61.326 Y91.986 E44.78012
G1 X61.085 Y91.345 E44.80449
G1 X61.085 Y84.221 E45.05788
G1 X62.148 Y83.159 E45.11131
G1 E44.11131 F2400.00000
G92 E0
G1 X96.518 Y96.758 F4800.000
G1 E1.00000 F2400.00000
G1 F1800
G1 X96.518 Y97.074 E1.01125
G1 X96.880 Y97.436 E1.02946
G1 X96.880 Y103.482 E1.24451
G1 X96.201 Y104.161 E1.27865
G1 X90.976 Y104.161 E1.46449
G1 X90.803 Y104.257 E1.47152
G1 X88.545 Y107.870 E1.62310
G1 X88.021 Y108.161 E1.64441
G1 X72.422 Y108.161 E2.19926
G1 X71.897 Y107.870 E2.22057
G1 X69.639 Y104.257 E2.37215
G1 X69.466 Y104.161 E2.37918
G1 X64.241 Y104.161 E2.56502
G1 X63.563 Y103.482 E2.59916
G1 X63.563 Y93.512 E2.95380
G1 X63.514 Y93.382 E2.95873
G1 X61.961 Y91.607 E3.04263
G1 X61.813 Y91.213 E3.05760
G1 X61.813 Y84.522 E3.29557
G1 X62.491 Y83.844 E3.32971
G1 X97.951 Y83.844 E4.59098
G1 X98.630 Y84.522 E4.62512
G1 X98.630 Y91.213 E4.86309
G1 X98.482 Y91.607 E4.87806
G1 X96.929 Y93.382 E4.96195
G1 X96.880 Y93.512 E4.96689
G1 X96.880 Y96.396 E5.06948
G1 X96.560 Y96.715 E5.08555
G1 E4.08555 F2400.00000
G92 E0
G1 X85.923 Y96.602 F4800.000
G1 X86.920 Y96.627 F4800.000
G1 E1.00000 F2400.00000
G1 F1800
G1 X86.901 Y96.991 E1.01296
G1 X86.613 Y97.200 E1.02561
G1 X86.135 Y98.657 E1.08017
G1 X85.454 Y99.829 E1.12838
G1 X84.544 Y100.833 E1.17658
G1 X83.480 Y101.607 E1.22337
G1 X82.244 Y102.162 E1.27158
G1 X80.919 Y102.448 E1.31979
G1 X79.563 Y102.452 E1.36800
G1 X78.199 Y102.162 E1.41762
G1 X76.962 Y101.607 E1.46583
G1 X75.868 Y100.807 E1.51403
G1 X74.965 Y99.797 E1.56224
G1 X74.291 Y98.621 E1.61045
G1 X73.876 Y97.331 E1.65865
G1 X73.738 Y95.982 E1.70686
G1 X73.884 Y94.635 E1.75507
G1 X74.307 Y93.347 E1.80328
G1 X74.965 Y92.208 E1.85007
G1 X75.868 Y91.198 E1.89827
G1 X76.962 Y90.398 E1.94648
G1 X78.199 Y89.843 E1.99469
G1 X79.524 Y89.557 E2.04290
G1 X80.879 Y89.553 E2.09110
G1 X82.205 Y89.830 E2.13931
G1 X83.445 Y90.378 E2.18752
G1 X84.544 Y91.171 E2.23572
G1 X85.454 Y92.175 E2.28393
G1 X86.135 Y93.347 E2.33214
G1 X86.558 Y94.635 E2.38035
G1 X86.756 Y96.479 E2.44633
G1 X86.876 Y96.587 E2.45205
G1 X86.035 Y96.573 F4800.000
G1 F1800
G1 X86.027 Y96.653 E2.45490
G1 X85.467 Y98.360 E2.51880
G1 X84.863 Y99.399 E2.56157
G1 X84.055 Y100.290 E2.60434
G1 X83.114 Y100.973 E2.64569
G1 X82.018 Y101.466 E2.68846
G1 X80.842 Y101.720 E2.73123
G1 X79.640 Y101.725 E2.77400
G1 X78.463 Y101.479 E2.81677
G1 X77.363 Y100.993 E2.85954
G1 X76.358 Y100.263 E2.90372
G1 X75.556 Y99.367 E2.94649
G1 X74.959 Y98.323 E2.98926
G1 X74.591 Y97.179 E3.03203
G1 X74.469 Y95.982 E3.07480
G1 X74.591 Y94.826 E3.11615
G1 X74.959 Y93.681 E3.15892
G1 X75.556 Y92.638 E3.20169
G1 X76.358 Y91.741 E3.24446
G1 X77.328 Y91.031 E3.28723
G1 X78.425 Y90.538 E3.33000
G1 X79.600 Y90.284 E3.37277
G1 X80.802 Y90.280 E3.41554
G1 X81.979 Y90.526 E3.45831
G1 X83.080 Y91.011 E3.50108
G1 X84.055 Y91.715 E3.54385
G1 X84.863 Y92.605 E3.58662
G1 X85.467 Y93.645 E3.62939
G1 X85.843 Y94.787 E3.67216
G1 X86.029 Y96.513 E3.73392
G1 X85.295 Y96.495 F4800.000
G1 F1800
G1 X85.287 Y96.575 E3.73677
G1 X84.799 Y98.063 E3.79245
G1 X84.271 Y98.969 E3.82978
G1 X83.566 Y99.747 E3.86712
G1 X82.749 Y100.340 E3.90303
G1 X81.792 Y100.771 E3.94036
G1 X80.766 Y100.993 E3.97769
G1 X79.716 Y100.997 E4.01503
G1 X78.651 Y100.771 E4.05377
G1 X77.694 Y100.340 E4.09111
G1 X76.847 Y99.720 E4.12844
G1 X76.148 Y98.937 E4.16577
G1 X75.627 Y98.026 E4.20310
G1 X75.306 Y97.026 E4.24043
G1 X75.201 Y95.982 E4.27776
G1 X75.306 Y94.978 E4.31368
G1 X75.627 Y93.979 E4.35101
G1 X76.148 Y93.068 E4.38834
G1 X76.847 Y92.285 E4.42567
G1 X77.694 Y91.664 E4.46301
G1 X78.651 Y91.234 E4.50034
G1 X79.676 Y91.011 E4.53767
G1 X80.726 Y91.007 E4.57500
G1 X81.753 Y91.221 E4.61233
G1 X82.714 Y91.644 E4.64966
G1 X83.566 Y92.258 E4.68700
G1 X84.271 Y93.035 E4.72433
G1 X84.799 Y93.942 E4.76166
G1 X85.128 Y94.939 E4.79899
G1 X85.289 Y96.436 E4.85254
G1 X84.556 Y96.418 F4800.000
G1 F1800
G1 X84.548 Y96.497 E4.85539
G1 X84.131 Y97.765 E4.90285
G1 X83.679 Y98.540 E4.93475
G1 X83.076 Y99.203 E4.96664
G1 X82.383 Y99.707 E4.99712
G1 X81.566 Y100.075 E5.02901
G1 X80.689 Y100.266 E5.06091
G1 X79.793 Y100.270 E5.09280
G1 X78.877 Y100.075 E5.12611
G1 X78.059 Y99.707 E5.15800
G1 X77.336 Y99.176 E5.18990
G1 X76.739 Y98.507 E5.22179
G1 X76.295 Y97.729 E5.25369
G1 X76.022 Y96.874 E5.28558
G1 X75.932 Y95.982 E5.31747
G1 X76.022 Y95.130 E5.34795
G1 X76.295 Y94.276 E5.37985
G1 X76.739 Y93.497 E5.41174
G1 X77.336 Y92.828 E5.44363
G1 X78.059 Y92.298 E5.47553
G1 X78.877 Y91.929 E5.50742
G1 X79.753 Y91.739 E5.53932
G1 X80.650 Y91.735 E5.57121
G1 X81.528 Y91.917 E5.60310
G1 X82.348 Y92.278 E5.63500
G1 X83.076 Y92.801 E5.66689
G1 X83.679 Y93.465 E5.69879
G1 X84.131 Y94.239 E5.73068
G1 X84.412 Y95.091 E5.76257
G1 X84.550 Y96.358 E5.80790
G1 X83.817 Y96.340 F4800.000
G1 F1800
G1 X83.808 Y96.420 E5.81076
G1 X83.463 Y97.468 E5.85000
G1 X83.088 Y98.110 E5.87646
G1 X82.587 Y98.660 E5.90291
G1 X82.017 Y99.073 E5.92795
G1 X81.340 Y99.380 E5.95441
G1 X80.613 Y99.539 E5.98087
G1 X79.869 Y99.543 E6.00732
G1 X79.103 Y99.380 E6.03519
G1 X78.425 Y99.073 E6.06165
G1 X77.826 Y98.633 E6.08811
G1 X77.331 Y98.077 E6.11456
G1 X76.963 Y97.431 E6.14102
G1 X76.737 Y96.722 E6.16748
G1 X76.663 Y95.982 E6.19393
G1 X76.737 Y95.282 E6.21897
G1 X76.963 Y94.573 E6.24543
G1 X77.331 Y93.927 E6.27189
G1 X77.826 Y93.372 E6.29834
G1 X78.425 Y92.931 E6.32480
G1 X79.103 Y92.625 E6.35125
G1 X79.829 Y92.466 E6.37771
G1 X80.573 Y92.462 E6.40417
G1 X81.302 Y92.612 E6.43062
G1 X81.983 Y92.911 E6.45708
G1 X82.587 Y93.345 E6.48354
G1 X83.088 Y93.895 E6.50999
G1 X83.463 Y94.537 E6.53645
G1 X83.697 Y95.243 E6.56291
G1 X83.810 Y96.280 E6.60002
G1 X83.077 Y96.262 F4800.000
G1 F1800
G1 X83.069 Y96.342 E6.60287
G1 X82.795 Y97.170 E6.63390
G1 X82.496 Y97.680 E6.65492
G1 X82.098 Y98.116 E6.67593
G1 X81.652 Y98.440 E6.69554
G1 X81.114 Y98.684 E6.71656
G1 X80.537 Y98.811 E6.73757
G1 X79.946 Y98.815 E6.75859
G1 X79.367 Y98.697 E6.77961
G1 X78.825 Y98.460 E6.80063
G1 X78.345 Y98.116 E6.82165
G1 X77.946 Y97.680 E6.84267
G1 X77.631 Y97.134 E6.86510
G1 X77.452 Y96.570 E6.88612
G1 X77.395 Y95.982 E6.90714
G1 X77.461 Y95.395 E6.92816
G1 X77.647 Y94.834 E6.94918
G1 X77.923 Y94.357 E6.96878
G1 X78.315 Y93.915 E6.98980
G1 X78.791 Y93.564 E7.01082
G1 X79.329 Y93.320 E7.03184
G1 X79.906 Y93.193 E7.05285
G1 X80.497 Y93.189 E7.07387
G1 X81.076 Y93.308 E7.09489
G1 X81.617 Y93.544 E7.11591
G1 X82.098 Y93.888 E7.13693
G1 X82.496 Y94.325 E7.15795
G1 X82.795 Y94.834 E7.17897
G1 X82.982 Y95.395 E7.19998
G1 X83.071 Y96.202 E7.22888
G1 X82.338 Y96.184 F4800.000
G1 F1800
G1 X82.329 Y96.264 E7.23173
G1 X82.127 Y96.873 E7.25454
G1 X81.904 Y97.250 E7.27012
G1 X81.608 Y97.573 E7.28570
G1 X81.286 Y97.807 E7.29987
G1 X80.888 Y97.989 E7.31545
G1 X80.460 Y98.084 E7.33103
G1 X80.022 Y98.088 E7.34661
G1 X79.555 Y97.989 E7.36361
G1 X79.156 Y97.807 E7.37919
G1 X78.804 Y97.546 E7.39477
G1 X78.514 Y97.218 E7.41035
G1 X78.299 Y96.836 E7.42593
G1 X78.167 Y96.418 E7.44151
G1 X78.126 Y95.982 E7.45709
G1 X78.167 Y95.586 E7.47126
G1 X78.299 Y95.168 E7.48684
G1 X78.514 Y94.787 E7.50242
G1 X78.804 Y94.459 E7.51800
G1 X79.156 Y94.198 E7.53358
G1 X79.555 Y94.016 E7.54917
G1 X79.982 Y93.921 E7.56475
G1 X80.420 Y93.916 E7.58033
G1 X80.850 Y94.003 E7.59591
G1 X81.251 Y94.178 E7.61149
G1 X81.608 Y94.432 E7.62707
G1 X81.905 Y94.755 E7.64265
G1 X82.127 Y95.132 E7.65823
G1 X82.266 Y95.547 E7.67381
G1 X82.331 Y96.125 E7.69449
G1 X81.598 Y96.107 F4800.000
G1 F1800
G1 X81.590 Y96.186 E7.69734
G1 X81.459 Y96.575 E7.71194
G1 X81.313 Y96.820 E7.72208
G1 X81.119 Y97.029 E7.73222
G1 X80.920 Y97.174 E7.74095
G1 X80.662 Y97.293 E7.75110
G1 X80.384 Y97.357 E7.76124
G1 X80.098 Y97.361 E7.77138
G1 X79.819 Y97.306 E7.78153
G1 X79.556 Y97.194 E7.79167
G1 X79.323 Y97.029 E7.80181
G1 X79.129 Y96.820 E7.81196
G1 X78.967 Y96.539 E7.82352
G1 X78.883 Y96.266 E7.83366
G1 X78.857 Y95.982 E7.84380
G1 X78.883 Y95.738 E7.85253
G1 X78.967 Y95.466 E7.86267
G1 X79.106 Y95.217 E7.87282
G1 X79.294 Y95.002 E7.88296
G1 X79.522 Y94.831 E7.89311
G1 X79.781 Y94.711 E7.90325
G1 X80.059 Y94.648 E7.91339
G1 X80.344 Y94.644 E7.92354
G1 X80.624 Y94.699 E7.93368
G1 X80.886 Y94.811 E7.94382
G1 X81.119 Y94.975 E7.95397
G1 X81.313 Y95.184 E7.96411
G1 X81.459 Y95.429 E7.97426
G1 X81.551 Y95.699 E7.98440
G1 X81.592 Y96.047 E7.99686
G1 X80.859 Y96.029 F4800.000
G1 F1800
G1 X80.850 Y96.109 E7.99971
G1 X80.791 Y96.278 E8.00609
G1 X80.721 Y96.390 E8.01080
