; generated by Slic3r 1.3.0-dev on 2018-07-26 at 23:26:24

; external perimeters extrusion width = 0.40mm (1.07mm^3/s)
; perimeters extrusion width = 0.40mm (2.14mm^3/s)
; infill extrusion width = 0.40mm (4.28mm^3/s)
; solid infill extrusion width = 0.40mm (1.43mm^3/s)
; top infill extrusion width = 0.67mm (1.88mm^3/s)

M107
;G28 ; home all axes
;G1 Z5 F5000 ; lift nozzle
; Filament gcode

G21 ; set units to millimeters
G90 ; use absolute coordinates
M82 ; use absolute distances for extrusion
G92 E0
;G1 Z0.400 F4800.000
G1 E-1.00000 F2400.00000
G92 E0
G1 X67.651 Y66.121 F4800.000
G1 E1.00000 F2400.00000
G1 F1800
G1 X69.949 Y64.837 E1.25014
G1 X73.000 Y64.286 E1.54469
G1 X107.000 Y64.286 E4.77511
G1 X109.603 Y64.684 E5.02525
G1 X111.968 Y65.840 E5.27539
G1 X113.879 Y67.651 E5.52553
G1 X115.163 Y69.949 E5.77568
G1 X115.714 Y73.000 E6.07023
G1 X115.714 Y107.000 E9.30064
G1 X115.316 Y109.603 E9.55078
G1 X114.160 Y111.968 E9.80093
G1 X112.349 Y113.879 E10.05107
G1 X110.051 Y115.163 E10.30121
G1 X107.000 Y115.714 E10.59576
G1 X73.000 Y115.714 E13.82618
G1 X70.397 Y115.316 E14.07632
G1 X68.032 Y114.160 E14.32646
G1 X66.121 Y112.349 E14.57660
G1 X64.837 Y110.051 E14.82674
G1 X64.286 Y107.000 E15.12130
G1 X64.286 Y73.000 E18.35171
G1 X64.684 Y70.397 E18.60185
G1 X65.840 Y68.032 E18.85199
G1 X67.609 Y66.165 E19.09644
G1 X68.819 Y67.289 F4800.000
G1 F1800
G1 X70.103 Y66.005 E19.27212
G1 X109.897 Y66.005 E23.12253
G1 X113.995 Y70.103 E23.68322
G1 X113.995 Y109.897 E27.53363
G1 X109.897 Y113.995 E28.09432
G1 X70.103 Y113.995 E31.94473
G1 X66.005 Y109.897 E32.50542
G1 X66.005 Y70.103 E36.35583
G1 X68.776 Y67.331 E36.73503
G1 X69.333 Y67.803 F4800.000
G1 F1800
G1 X70.404 Y66.732 E36.88156
G1 X109.596 Y66.732 E40.67368
G1 X113.268 Y70.404 E41.17607
G1 X113.268 Y109.596 E44.96819
G1 X109.596 Y113.268 E45.47058
G1 X70.404 Y113.268 E49.26270
G1 X66.732 Y109.596 E49.76509
G1 X66.732 Y70.404 E53.55721
G1 X69.291 Y67.846 E53.90726
G1 X69.847 Y68.317 F4800.000
G1 F1800
G1 X70.705 Y67.460 E54.02464
G1 X109.295 Y67.460 E57.75847
G1 X112.540 Y70.705 E58.20256
G1 X112.540 Y109.295 E61.93639
G1 X109.295 Y112.540 E62.38048
G1 X70.705 Y112.540 E66.11431
G1 X67.460 Y109.295 E66.55840
G1 X67.460 Y70.705 E70.29223
G1 X69.805 Y68.360 E70.61313
G1 X70.361 Y68.832 F4800.000
G1 F1800
G1 X71.006 Y68.187 E70.70137
G1 X108.994 Y68.187 E74.37690
G1 X111.813 Y71.006 E74.76269
G1 X111.813 Y108.994 E78.43822
G1 X108.994 Y111.813 E78.82402
G1 X71.006 Y111.813 E82.49955
G1 X68.187 Y108.994 E82.88535
G1 X68.187 Y71.006 E86.56088
G1 X70.319 Y68.874 E86.85264
G1 X70.876 Y69.346 F4800.000
G1 F1800
G1 X71.308 Y68.914 E86.91173
G1 X108.692 Y68.914 E90.52896
G1 X111.086 Y71.308 E90.85647
G1 X111.086 Y108.692 E94.47370
G1 X108.692 Y111.086 E94.80120
G1 X71.308 Y111.086 E98.41844
G1 X68.914 Y108.692 E98.74594
G1 X68.914 Y71.308 E102.36318
G1 X70.833 Y69.388 E102.62578
G1 X71.390 Y69.860 F4800.000
G1 F1800
G1 X71.609 Y69.641 E102.65573
G1 X108.391 Y69.641 E106.21467
G1 X110.359 Y71.609 E106.48387
G1 X110.359 Y108.391 E110.04281
G1 X108.391 Y110.359 E110.31202
G1 X71.609 Y110.359 E113.87096
G1 X69.641 Y108.391 E114.14017
G1 X69.641 Y71.609 E117.69911
G1 X71.348 Y69.903 E117.93257
G1 X71.904 Y70.375 F4800.000
G1 F1800
G1 X108.090 Y70.369 E121.43378
G1 X109.631 Y71.910 E121.64469
G1 X109.631 Y108.090 E125.14533
G1 X108.090 Y109.631 E125.35625
G1 X71.910 Y109.631 E128.85689
G1 X70.369 Y108.090 E129.06780
G1 X70.369 Y71.910 E132.56845
G1 X71.862 Y70.417 E132.77276
G1 X72.211 Y71.096 F4800.000
G1 F1800
G1 X107.789 Y71.096 E136.21511
G1 X108.904 Y72.211 E136.36773
G1 X108.904 Y107.789 E139.81008
G1 X107.789 Y108.904 E139.96269
G1 X72.211 Y108.904 E143.40504
G1 X71.096 Y107.789 E143.55766
G1 X71.096 Y72.211 E147.00001
G1 X72.169 Y71.138 E147.14682
G1 X72.513 Y71.823 F4800.000
G1 F1800
G1 X107.487 Y71.823 E150.53088
G1 X108.177 Y72.513 E150.62520
G1 X108.177 Y107.487 E154.00925
G1 X107.487 Y108.177 E154.10358
G1 X72.513 Y108.177 E157.48763
G1 X71.823 Y107.487 E157.58195
G1 X71.823 Y72.513 E160.96601
G1 X72.470 Y71.866 E161.05453
G1 X72.814 Y72.551 F4800.000
G1 F1800
G1 X107.186 Y72.551 E164.38028
G1 X107.449 Y72.814 E164.41631
G1 X107.449 Y107.186 E167.74207
G1 X107.186 Y107.449 E167.77810
G1 X72.814 Y107.449 E171.10386
G1 X72.551 Y107.186 E171.13989
G1 X72.551 Y72.814 E174.46564
G1 X72.771 Y72.593 E174.49587
G1 E173.49587 F2400.00000
G92 E0
G1 X106.600 Y106.600 F4800.000
G1 E1.00000 F2400.00000
G1 F1800
G1 X73.400 Y106.600 E4.15440
G1 X73.400 Y73.400 E7.30881
G1 X106.600 Y73.400 E10.46321
G1 X106.600 Y106.540 E13.61191
G1 X106.214 Y106.496 F4800.000
G1 X105.886 Y105.886 F4800.000
G1 F1800
G1 X74.114 Y105.886 E16.63061
G1 X74.114 Y74.114 E19.64930
G1 X105.886 Y74.114 E22.66800
G1 X105.886 Y105.826 E25.68099
G1 X105.172 Y105.172 F4800.000
G1 F1800
G1 X74.828 Y105.172 E28.56398
G1 X74.828 Y74.828 E31.44697
G1 X105.172 Y74.828 E34.32996
G1 X105.172 Y105.112 E37.20724
G1 E36.20724 F2400.00000
G92 E0
G1 X100.900 Y100.900 F4800.000
G1 E1.00000 F2400.00000
G1 F1800
G1 X92.600 Y100.900 E1.78860
G1 X92.600 Y96.714 E2.18631
G1 X90.000 Y94.981 E2.48321
G1 X87.400 Y96.714 E2.78010
G1 X87.400 Y100.900 E3.17782
G1 X79.100 Y100.900 E3.96642
G1 X79.100 Y92.100 E4.80253
G1 X83.308 Y92.100 E5.20231
G1 X85.005 Y89.979 E5.46044
G1 X83.286 Y87.400 E5.75489
G1 X79.100 Y87.400 E6.15260
G1 X79.100 Y79.100 E6.94120
G1 X87.400 Y79.100 E7.72980
G1 X87.400 Y83.286 E8.12752
G1 X90.000 Y85.019 E8.42441
G1 X92.600 Y83.286 E8.72131
G1 X92.600 Y79.100 E9.11902
G1 X100.900 Y79.100 E9.90762
G1 X100.900 Y87.400 E10.69622
G1 X96.714 Y87.400 E11.09393
G1 X94.995 Y89.979 E11.38838
G1 X96.692 Y92.100 E11.64651
G1 X100.900 Y92.100 E12.04630
G1 X100.900 Y100.840 E12.87670
G1 X100.959 Y101.296 F4800.000
G1 X101.614 Y101.614 F4800.000
G1 F1800
G1 X91.886 Y101.614 E13.80101
G1 X91.886 Y97.096 E14.23026
G1 X90.000 Y95.839 E14.44561
G1 X88.114 Y97.096 E14.66095
G1 X88.114 Y101.614 E15.09021
G1 X78.386 Y101.614 E16.01451
G1 X78.386 Y91.386 E16.98633
G1 X82.965 Y91.386 E17.42136
G1 X84.121 Y89.940 E17.59726
G1 X82.904 Y88.114 E17.80577
G1 X78.386 Y88.114 E18.23503
G1 X78.386 Y78.386 E19.15933
G1 X88.114 Y78.386 E20.08364
G1 X88.114 Y82.904 E20.51290
G1 X90.000 Y84.161 E20.72824
G1 X91.886 Y82.904 E20.94359
G1 X91.886 Y78.386 E21.37284
G1 X101.614 Y78.386 E22.29715
G1 X101.614 Y88.114 E23.22146
G1 X97.096 Y88.114 E23.65071
G1 X95.879 Y89.940 E23.85922
G1 X97.035 Y91.386 E24.03512
G1 X101.614 Y91.386 E24.47015
G1 X101.614 Y101.554 E25.43627
G1 X102.328 Y102.328 F4800.000
G1 F1800
G1 X91.172 Y102.328 E26.49628
G1 X91.172 Y97.478 E26.95708
G1 X90.000 Y96.697 E27.09087
G1 X88.828 Y97.478 E27.22467
G1 X88.828 Y102.328 E27.68546
G1 X77.672 Y102.328 E28.74547
G1 X77.672 Y90.672 E29.85300
G1 X82.621 Y90.672 E30.32327
G1 X83.237 Y89.902 E30.41694
G1 X82.522 Y88.828 E30.53952
G1 X77.672 Y88.828 E31.00032
G1 X77.672 Y77.672 E32.06033
G1 X88.828 Y77.672 E33.12035
G1 X88.828 Y82.522 E33.58114
G1 X90.000 Y83.303 E33.71494
G1 X91.172 Y82.522 E33.84873
G1 X91.172 Y77.672 E34.30952
G1 X102.328 Y77.672 E35.36954
G1 X102.328 Y88.828 E36.42955
G1 X97.478 Y88.828 E36.89035
G1 X96.763 Y89.902 E37.01293
G1 X97.379 Y90.672 E37.10660
G1 X102.328 Y90.672 E37.57688
G1 X102.328 Y102.268 E38.67870
G1 E37.67870 F2400.00000
G92 E0
G1 X101.338 Y104.533 F4800.000
G1 E1.00000 F2400.00000
G1 F1800
G1 X102.905 Y102.967 E1.21145
G1 X101.890 Y102.967 E1.30829
G1 X100.323 Y104.533 E1.51974
G1 X99.309 Y104.533 E1.61657
G1 X100.875 Y102.967 E1.82803
G1 X99.861 Y102.967 E1.92486
G1 X98.294 Y104.533 E2.13631
G1 X97.280 Y104.533 E2.23314
G1 X98.846 Y102.967 E2.44460
G1 X97.832 Y102.967 E2.54143
G1 X96.265 Y104.533 E2.75288
G1 X95.251 Y104.533 E2.84972
G1 X96.817 Y102.967 E3.06117
G1 X95.803 Y102.967 E3.15800
G1 X94.236 Y104.533 E3.36946
G1 X93.222 Y104.533 E3.46629
G1 X94.788 Y102.967 E3.67774
G1 X93.774 Y102.967 E3.77458
G1 X92.207 Y104.533 E3.98603
G1 X91.192 Y104.533 E4.08286
G1 X92.759 Y102.967 E4.29432
G1 X91.744 Y102.967 E4.39115
G1 X90.178 Y104.533 E4.60260
G1 X89.163 Y104.533 E4.69944
G1 X90.730 Y102.967 E4.91089
G1 X90.533 Y102.967 E4.92965
G1 X90.533 Y102.149 E5.00772
G1 X88.149 Y104.533 E5.32959
G1 X87.134 Y104.533 E5.42642
G1 X88.701 Y102.967 E5.63787
G1 X87.686 Y102.967 E5.73470
G1 X86.120 Y104.533 E5.94616
G1 X85.105 Y104.533 E6.04299
G1 X86.672 Y102.967 E6.25444
G1 X85.657 Y102.967 E6.35128
G1 X84.090 Y104.533 E6.56273
G1 X83.076 Y104.533 E6.65956
G1 X84.643 Y102.967 E6.87102
G1 X83.628 Y102.967 E6.96785
G1 X82.061 Y104.533 E7.17930
G1 X81.047 Y104.533 E7.27614
G1 X82.613 Y102.967 E7.48759
G1 X81.599 Y102.967 E7.58442
G1 X80.032 Y104.533 E7.79588
G1 X79.018 Y104.533 E7.89271
G1 X80.584 Y102.967 E8.10416
G1 X79.570 Y102.967 E8.20100
G1 X78.003 Y104.533 E8.41245
G1 X76.989 Y104.533 E8.50928
G1 X78.555 Y102.967 E8.72074
G1 X77.541 Y102.967 E8.81757
G1 X75.974 Y104.533 E9.02902
G1 X75.467 Y104.533 E9.07744
G1 X75.467 Y104.026 E9.12585
G1 X77.033 Y102.459 E9.33731
G1 X77.033 Y101.445 E9.43414
G1 X75.467 Y103.011 E9.64559
G1 X75.467 Y101.997 E9.74243
G1 X77.033 Y100.430 E9.95388
G1 X77.033 Y99.416 E10.05071
G1 X75.467 Y100.982 E10.26217
G1 X75.467 Y99.968 E10.35900
G1 X77.033 Y98.401 E10.57045
G1 X77.033 Y97.387 E10.66729
G1 X75.467 Y98.953 E10.87874
G1 X75.467 Y97.939 E10.97557
G1 X77.033 Y96.372 E11.18703
G1 X77.033 Y95.358 E11.28386
G1 X75.467 Y96.924 E11.49531
G1 X75.467 Y95.910 E11.59215
G1 X77.033 Y94.343 E11.80360
G1 X77.033 Y93.328 E11.90043
G1 X75.467 Y94.895 E12.11189
G1 X75.467 Y93.880 E12.20872
G1 X77.033 Y92.314 E12.42017
G1 X77.033 Y91.299 E12.51700
G1 X75.467 Y92.866 E12.72846
G1 X75.467 Y91.851 E12.82529
G1 X76.676 Y90.642 E12.98855
G1 X76.676 Y89.627 E13.08538
G1 X75.467 Y90.837 E13.24864
G1 X75.467 Y89.822 E13.34547
G1 X76.676 Y88.613 E13.50873
G1 X76.742 Y88.547 F4800.000
G1 F1800
G1 X77.033 Y88.256 E13.54806
G1 X77.033 Y87.241 E13.64489
G1 X75.467 Y88.808 E13.85634
G1 X75.467 Y87.793 E13.95317
G1 X77.033 Y86.227 E14.16463
G1 X77.033 Y85.212 E14.26146
G1 X75.467 Y86.779 E14.47291
G1 X75.467 Y85.764 E14.56975
G1 X77.033 Y84.197 E14.78120
G1 X77.033 Y83.183 E14.87803
G1 X75.467 Y84.749 E15.08949
G1 X75.467 Y83.735 E15.18632
G1 X77.033 Y82.168 E15.39777
G1 X77.033 Y81.154 E15.49461
G1 X75.467 Y82.720 E15.70606
G1 X75.467 Y81.706 E15.80289
G1 X77.033 Y80.139 E16.01435
G1 X77.033 Y79.125 E16.11118
G1 X75.467 Y80.691 E16.32263
G1 X75.467 Y79.677 E16.41946
G1 X77.033 Y78.110 E16.63092
G1 X77.033 Y77.096 E16.72775
G1 X75.467 Y78.662 E16.93920
G1 X75.467 Y77.648 E17.03604
G1 E16.03604 F2400.00000
G92 E0
G1 X75.467 Y75.618 F4800.000
G1 E1.00000 F2400.00000
G1 F1800
G1 X75.618 Y75.467 E1.02045
G1 X76.633 Y75.467 E1.11728
G1 X75.467 Y76.633 E1.27470
G1 X75.467 Y77.648 E1.37153
G1 X77.648 Y75.467 E1.66590
G1 X78.662 Y75.467 E1.76273
G1 X77.096 Y77.033 E1.97418
G1 X78.110 Y77.033 E2.07101
G1 X79.677 Y75.467 E2.28247
G1 X80.691 Y75.467 E2.37930
G1 X79.125 Y77.033 E2.59075
G1 X80.139 Y77.033 E2.68759
G1 X81.706 Y75.467 E2.89904
G1 X82.720 Y75.467 E2.99587
G1 X81.154 Y77.033 E3.20733
G1 X82.168 Y77.033 E3.30416
G1 X83.735 Y75.467 E3.51561
G1 X84.749 Y75.467 E3.61245
G1 X83.183 Y77.033 E3.82390
G1 X84.197 Y77.033 E3.92073
G1 X85.764 Y75.467 E4.13219
G1 X86.779 Y75.467 E4.22902
G1 X85.212 Y77.033 E4.44047
G1 X86.227 Y77.033 E4.53731
G1 X87.793 Y75.467 E4.74876
G1 X88.808 Y75.467 E4.84559
G1 X87.241 Y77.033 E5.05705
G1 X88.256 Y77.033 E5.15388
G1 X89.822 Y75.467 E5.36533
G1 X90.837 Y75.467 E5.46217
G1 X89.270 Y77.033 E5.67362
G1 X89.467 Y77.033 E5.69237
G1 X89.467 Y77.851 E5.77045
G1 X91.851 Y75.467 E6.09233
G1 X92.866 Y75.467 E6.18916
G1 X91.299 Y77.033 E6.40061
G1 X92.314 Y77.033 E6.49744
G1 X93.880 Y75.467 E6.70890
G1 X94.895 Y75.467 E6.80573
G1 X93.328 Y77.033 E7.01718
G1 X94.343 Y77.033 E7.11402
G1 X95.910 Y75.467 E7.32547
G1 X96.924 Y75.467 E7.42230
G1 X95.358 Y77.033 E7.63376
G1 X96.372 Y77.033 E7.73059
G1 X97.939 Y75.467 E7.94204
G1 X98.953 Y75.467 E8.03888
G1 X97.387 Y77.033 E8.25033
G1 X98.401 Y77.033 E8.34716
G1 X99.968 Y75.467 E8.55862
G1 X100.982 Y75.467 E8.65545
G1 X99.416 Y77.033 E8.86690
G1 X100.430 Y77.033 E8.96374
G1 X101.997 Y75.467 E9.17519
G1 X103.011 Y75.467 E9.27202
G1 X101.445 Y77.033 E9.48348
G1 X102.459 Y77.033 E9.58031
G1 X104.026 Y75.467 E9.79176
G1 X104.533 Y75.467 E9.84017
G1 X104.533 Y75.974 E9.88860
G1 X102.967 Y77.541 E10.10005
G1 X102.967 Y78.555 E10.19688
G1 X104.533 Y76.989 E10.40834
G1 X104.533 Y78.003 E10.50517
G1 X102.967 Y79.570 E10.71662
G1 X102.967 Y80.584 E10.81345
G1 X104.533 Y79.018 E11.02491
G1 X104.533 Y80.032 E11.12174
G1 X102.967 Y81.599 E11.33319
G1 X102.967 Y82.613 E11.43003
G1 X104.533 Y81.047 E11.64148
G1 X104.533 Y82.061 E11.73831
G1 X102.967 Y83.628 E11.94977
G1 X102.967 Y84.643 E12.04660
G1 X104.533 Y83.076 E12.25805
G1 X104.533 Y84.090 E12.35489
G1 X102.967 Y85.657 E12.56634
G1 X102.967 Y86.672 E12.66317
G1 X104.533 Y85.105 E12.87463
G1 X104.533 Y86.120 E12.97146
G1 X102.967 Y87.686 E13.18291
G1 X102.967 Y88.547 E13.26507
G1 X103.120 Y88.547 E13.27974
G1 X104.533 Y87.134 E13.47045
G1 X104.533 Y88.149 E13.56728
G1 X103.324 Y89.358 E13.73054
G1 X103.324 Y90.373 E13.82737
G1 X104.533 Y89.163 E13.99063
G1 X104.533 Y90.178 E14.08746
G1 X102.967 Y91.744 E14.29891
G1 X102.967 Y92.759 E14.39575
G1 X104.533 Y91.192 E14.60720
G1 X104.533 Y92.207 E14.70403
G1 X102.967 Y93.774 E14.91549
G1 X102.967 Y94.788 E15.01232
G1 X104.533 Y93.222 E15.22377
G1 X104.533 Y94.236 E15.32060
G1 X102.967 Y95.803 E15.53206
G1 X102.967 Y96.817 E15.62889
G1 X104.533 Y95.251 E15.84034
G1 X104.533 Y96.265 E15.93718
G1 X102.967 Y97.832 E16.14863
G1 X102.967 Y98.846 E16.24546
G1 X104.533 Y97.280 E16.45692
G1 X104.533 Y98.294 E16.55375
G1 X102.967 Y99.861 E16.76520
G1 X102.967 Y100.875 E16.86204
G1 X104.533 Y99.309 E17.07349
G1 X104.533 Y100.323 E17.17032
G1 X102.967 Y101.890 E17.38178
G1 X102.967 Y102.905 E17.47861
G1 X104.533 Y101.338 E17.69006
G1 X104.533 Y102.353 E17.78689
G1 X102.353 Y104.533 E18.08125
G1 X103.367 Y104.533 E18.17808
G1 X104.533 Y103.367 E18.33549
G1 X104.533 Y104.382 E18.43232
G1 X104.382 Y104.533 E18.45279
G1 E17.45279 F2400.00000
G92 E0
G1 X89.467 Y102.201 F4800.000
G1 E1.00000 F2400.00000
G1 F1800
G1 X90.533 Y101.134 E1.14396
G1 X90.533 Y100.120 E1.24080
G1 X89.467 Y101.186 E1.38476
G1 X89.467 Y100.172 E1.48160
G1 X90.533 Y99.105 E1.62556
G1 X90.533 Y98.090 E1.72239
G1 X89.467 Y99.157 E1.86636
G1 X89.467 Y98.143 E1.96319
G1 X90.108 Y97.501 E2.04974
G1 E1.04974 F2400.00000
G92 E0
G1 X90.000 Y103.306 F4800.000
G1 X88.000 Y103.750 F4800.000
G1 X78.500 Y103.750 F4800.000
G1 X76.636 Y103.364 F4800.000
G1 X76.250 Y101.500 F4800.000
G1 X76.250 Y91.500 F4800.000
G1 X76.590 Y89.750 F4800.000
G1 X76.250 Y88.000 F4800.000
G1 X76.250 Y78.500 F4800.000
G1 X76.636 Y76.636 F4800.000
G1 X78.500 Y76.250 F4800.000
G1 X88.000 Y76.250 F4800.000
G1 X90.000 Y76.694 F4800.000
G1 X89.892 Y82.499 F4800.000
G1 E1.00000 F2400.00000
G1 F1800
G1 X90.533 Y81.858 E1.08654
G1 X90.533 Y80.843 E1.18337
G1 X89.467 Y81.910 E1.32734
G1 X89.467 Y80.895 E1.42417
G1 X90.533 Y79.828 E1.56813
G1 X90.533 Y78.814 E1.66497
G1 X89.467 Y79.880 E1.80893
G1 X89.467 Y78.866 E1.90576
G1 X90.533 Y77.799 E2.04973
G1 E1.04973 F2400.00000
G92 E0
G1 X90.000 Y78.500 F4800.000
G1 X90.000 Y76.694 F4800.000
G1 X88.000 Y76.250 F4800.000
G1 X78.500 Y76.250 F4800.000
G1 X76.636 Y76.636 F4800.000
G1 X76.250 Y78.500 F4800.000
G1 X76.250 Y88.000 F4800.000
G1 X76.590 Y89.750 F4800.000
G1 X82.028 Y89.750 F4800.000
G1 X82.230 Y89.858 F4800.000
G1 X82.707 Y89.750 F4800.000
G1 E1.00000 F2400.00000
G1 F1800
G1 X77.315 Y89.750 E1.74849
G1 E0.74849 F2400.00000
G92 E0
G1 X76.590 Y89.750 F4800.000
G1 X76.250 Y88.000 F4800.000
G1 X76.250 Y78.500 F4800.000
G1 X76.636 Y76.636 F4800.000
G1 X78.500 Y76.250 F4800.000
G1 X88.000 Y76.250 F4800.000
G1 X90.000 Y76.694 F4800.000
G1 X92.000 Y76.250 F4800.000
G1 X101.500 Y76.250 F4800.000
G1 X103.364 Y76.636 F4800.000
G1 X103.750 Y78.500 F4800.000
G1 X103.750 Y88.000 F4800.000
G1 X103.410 Y89.750 F4800.000
G1 X97.972 Y89.750 F4800.000
G1 X97.770 Y89.858 F4800.000
G1 X97.293 Y89.750 F4800.000
G1 E1.00000 F2400.00000
G1 F1800
